;FLAVOR:RepRap
;TIME:3998
;Generated with Cura_SteamEngine 2.3.1
M190 S50
M104 S195
M109 S195
G21 ;metric values
G90 ;absolute positioning
M82 ;set extruder to absolute mode
M107 ;start with the fan off
G28 X0 Y0 ;move X/Y to min endstops
G28 Z0 ;move Z to min endstops
G1 Z15.0 F9000 ;move the platform down 15mm
G92 E0 ;zero the extruded length
G1 F200 E3 ;extrude 3mm of feed stock
G92 E0 ;zero the extruded length again
G1 F9000
;Put printing message on LCD screen
M117 Printing...
;LAYER_COUNT:121
;LAYER:-6
M107
G1 F1500 E-6.5
G0 F7200 X11.767 Y15.509 Z.36
G1 F1500 E0
G1 F2025 X12.657 Y14.909 E0.13752
G1 X13.583 Y14.379 E0.27421
G1 X14.555 Y13.913 E0.41231
G1 X15.53 Y13.531 E0.54647
G1 X16.56 Y13.21 E0.6847
G1 X17.594 Y12.971 E0.82066
G1 X18.637 Y12.807 E0.95593
G1 X19.719 Y12.719 E1.09501
G1 X20.78 Y12.71 E1.23095
G1 X21.835 Y12.777 E1.36639
G1 X22.905 Y12.925 E1.50478
G1 X23.932 Y13.144 E1.63932
G1 X24.871 Y13.416 E1.76456
G1 X25.628 Y13.66 E1.86646
G1 X26.635 Y14.027 E2.00378
G1 X27.602 Y14.462 E2.13963
G1 X28.543 Y14.971 E2.27669
G1 X29.434 Y15.54 E2.41214
G1 X30.293 Y16.183 E2.54961
G1 X31.098 Y16.88 E2.68603
G1 X31.765 Y17.55 E2.80715
G1 X31.935 Y17.709 E2.83698
G1 X32.573 Y18.403 E2.95775
G1 X32.596 Y18.423 E2.96166
G1 X33.484 Y19.39 E3.12986
G1 X34.395 Y18.982 E3.25775
G1 X35.392 Y18.622 E3.39355
G1 X36.284 Y18.365 E3.51248
G1 X36.284 Y18.366 E3.51261
G1 X36.534 Y18.303 E3.54564
G1 X37.048 Y18.137 E3.61484
G1 X38.068 Y17.891 E3.74927
G1 X39.129 Y17.717 E3.88702
G1 X40.512 Y17.605 E4.06479
G1 X41.436 Y17.573 E4.18324
G1 X42.009 Y17.582 E4.25666
G1 X42.575 Y17.511 E4.32974
G1 X43.608 Y17.453 E4.4623
G1 X44.694 Y17.474 E4.60146
G1 X45.738 Y17.569 E4.73577
G1 X46.805 Y17.746 E4.87434
G1 X47.847 Y17.999 E5.01171
G1 X48.845 Y18.319 E5.14599
G1 X49.837 Y18.718 E5.28298
G1 X50.699 Y19.137 E5.40577
G1 X51.064 Y19.328 E5.45855
G1 X52.253 Y20.025 E5.63513
G1 X52.783 Y20.371 E5.71622
G1 X53.554 Y20.909 E5.83667
G1 X53.686 Y21.007 E5.85773
G1 X53.686 Y21.008 E5.85786
G1 X54.536 Y21.691 E5.99756
G1 X55.309 Y22.415 E6.13325
G1 X56.044 Y23.208 E6.27178
G1 X56.693 Y24.02 E6.40495
G1 X57.308 Y24.918 E6.5444
G1 X57.838 Y25.827 E6.67921
G1 X58.17 Y26.508 E6.77627
G1 X58.24 Y26.613 E6.79244
G1 X59.716 Y29.234 E7.17782
G1 X61.031 Y27.168 E7.49158
G1 X61.464 Y26.211 E7.62616
G1 X61.963 Y25.288 E7.76059
G1 X62.545 Y24.38 E7.89876
G1 X63.177 Y23.535 E8.03395
G1 X63.879 Y22.728 E8.17099
G1 X64.638 Y21.975 E8.30797
G1 X65.451 Y21.277 E8.44525
G1 X65.939 Y20.906 E8.52379
G1 X66.155 Y20.748 E8.55807
G1 X66.877 Y20.255 E8.67008
G1 X67.311 Y19.977 E8.73611
G1 X68.514 Y19.282 E8.91411
G1 X68.927 Y19.069 E8.97365
G1 X69.901 Y18.61 E9.1116
G1 X70.889 Y18.23 E9.24722
G1 X71.914 Y17.92 E9.38441
G1 X72.95 Y17.687 E9.52046
G1 X74.01 Y17.529 E9.65776
G1 X75.07 Y17.449 E9.79395
G1 X76.143 Y17.447 E9.93143
G1 X77.188 Y17.522 E10.06565
G1 X77.518 Y17.57 E10.10838
G1 X78.119 Y17.569 E10.18538
G1 X78.442 Y17.58 E10.22678
G1 X79.847 Y17.692 E10.40736
G1 X80.069 Y17.721 E10.43604
G1 X80.538 Y17.786 E10.4967
G1 X80.994 Y17.858 E10.55585
G1 X82.04 Y18.062 E10.69239
G1 X83.075 Y18.345 E10.82986
G1 X84.063 Y18.693 E10.96406
G1 X85.06 Y19.129 E11.10347
G1 X86.525 Y19.902 E11.31569
G1 X87.906 Y18.505 E11.56736
G1 X88.072 Y18.36 E11.5956
G1 X88.746 Y17.706 E11.71592
G1 X89.114 Y17.396 E11.77757
G1 X89.233 Y17.279 E11.79895
G1 X90.057 Y16.583 E11.93714
G1 X90.898 Y15.971 E12.0704
G1 X91.818 Y15.402 E12.20899
G1 X92.757 Y14.91 E12.3448
G1 X93.741 Y14.483 E12.48223
G1 X94.285 Y14.282 E12.55653
G1 X94.497 Y14.209 E12.58526
G1 X94.497 Y14.21 E12.58539
G1 X95.547 Y13.89 E12.72602
G1 X96.567 Y13.658 E12.86004
G1 X96.95 Y13.597 E12.90972
G1 X97.04 Y13.576 E12.92156
G1 X98.087 Y13.411 E13.05736
G1 X99.167 Y13.323 E13.19618
G1 X100.229 Y13.312 E13.33225
G1 X101.286 Y13.379 E13.46795
G1 X102.353 Y13.526 E13.60594
G1 X103.379 Y13.743 E13.7403
G1 X104.405 Y14.042 E13.87721
G1 X105.418 Y14.418 E14.01565
G1 X106.372 Y14.855 E14.15009
G1 X107.314 Y15.37 E14.28763
G1 X108.214 Y15.954 E14.42509
G1 X109.066 Y16.598 E14.56192
G1 X109.853 Y17.29 E14.69618
G1 X110.604 Y18.054 E14.83343
G1 X111.301 Y18.874 E14.97132
G1 X112.081 Y19.963 E15.14293
G1 X112.401 Y20.456 E15.21823
G1 X112.402 Y20.456 E15.21836
G1 X112.963 Y21.396 E15.35861
G1 X113.432 Y22.33 E15.49251
G1 X113.993 Y23.743 E15.68729
G1 X114.037 Y23.873 E15.70487
G1 X114.336 Y24.873 E15.83859
G1 X114.568 Y25.932 E15.97749
G1 X114.722 Y26.992 E16.11472
G1 X114.797 Y28.059 E16.25176
G1 X114.795 Y29.118 E16.38744
G1 X114.719 Y30.12 E16.51618
G1 X114.706 Y30.489 E16.56348
G1 X114.589 Y31.557 E16.70113
G1 X114.398 Y32.599 E16.83686
G1 X114.128 Y33.633 E16.97377
G1 X114.078 Y33.78 E16.99366
G1 X113.885 Y34.535 E17.0935
G1 X113.537 Y35.564 E17.23267
G1 X113.353 Y36 E17.2933
G1 X113.314 Y36.13 E17.31069
G1 X112.938 Y37.128 E17.44733
G1 X112.486 Y38.103 E17.58501
G1 X111.998 Y38.983 E17.71393
G1 X111.594 Y39.78 E17.82841
G1 X111.05 Y40.685 E17.96369
G1 X110.432 Y41.56 E18.10094
G1 X110.356 Y41.653 E18.11633
G1 X110.275 Y41.795 E18.13727
G1 X109.678 Y42.675 E18.27351
G1 X109.017 Y43.513 E18.41025
G1 X108.638 Y43.926 E18.48207
G1 X108.447 Y44.226 E18.52763
G1 X107.824 Y45.121 E18.66734
G1 X107.175 Y45.924 E18.79962
G1 X106.479 Y46.665 E18.92987
G1 X105.456 Y48.113 E19.15701
G1 X104.813 Y48.953 E19.29254
G1 X104.088 Y49.772 E19.43268
G1 X103.757 Y50.095 E19.49193
G1 X103.268 Y50.743 E19.59593
G1 X103.256 Y50.759 E19.5985
G1 X103.215 Y50.814 E19.60729
G1 X102.716 Y51.475 E19.71339
G1 X102.05 Y52.295 E19.84874
G1 X101.33 Y53.06 E19.98333
G1 X100.669 Y53.668 E20.09839
G1 X100.497 Y53.879 E20.13327
G1 X99.565 Y55.031 E20.32311
G1 X98.864 Y55.836 E20.45987
G1 X98.097 Y56.597 E20.5983
G1 X97.822 Y56.833 E20.64473
G1 X97.602 Y57.116 E20.69065
G1 X97.216 Y57.591 E20.76907
G1 X97.215 Y57.591 E20.7692
G1 X96.753 Y58.138 E20.86093
G1 X96.421 Y58.524 E20.92616
G1 X95.466 Y59.618 E21.11221
G1 X95.377 Y59.721 E21.12965
G1 X94.494 Y60.717 E21.30018
G1 X94.416 Y60.804 E21.31515
G1 X92.532 Y62.896 E21.67584
G1 X92.414 Y63.024 E21.69815
G1 X91.451 Y64.068 E21.88011
G1 X91.362 Y64.164 E21.89689
G1 X89.617 Y66.024 E22.22364
G1 X89.053 Y66.639 E22.33055
G1 X89.001 Y66.695 E22.34034
G1 X88.748 Y66.997 E22.39082
G1 X88.05 Y67.767 E22.52397
G1 X87.268 Y68.517 E22.66279
G1 X86.911 Y68.811 E22.72204
G1 X86.605 Y69.182 E22.78365
G1 X86.019 Y69.937 E22.9061
G1 X85.422 Y70.739 E23.03419
G1 X84.603 Y71.882 E23.21434
G1 X84.36 Y72.227 E23.26841
G1 X84.071 Y72.643 E23.3333
G1 X83.432 Y73.495 E23.46975
G1 X82.735 Y74.297 E23.60588
G1 X82.584 Y74.447 E23.63315
G1 X82.247 Y74.962 E23.712
G1 X81.393 Y76.282 E23.91342
G1 X80.32 Y77.961 E24.16871
G1 X79.742 Y78.878 E24.30758
G1 X79.319 Y79.571 E24.4116
G1 X79.159 Y80.006 E24.47098
G1 X78.585 Y81.251 E24.64663
G1 X78.232 Y81.929 E24.74456
G1 X78.167 Y82.241 E24.78539
G1 X77.751 Y83.628 E24.97091
G1 X77.644 Y84.341 E25.06328
G1 X77.513 Y84.922 E25.13959
G1 X77.438 Y85.579 E25.22431
G1 X77.24 Y86.637 E25.36221
G1 X77.076 Y87.239 E25.44215
G1 X77.035 Y87.548 E25.48208
G1 X76.987 Y87.77 E25.51118
G1 X76.967 Y87.96 E25.53566
G1 X76.824 Y88.728 E25.63574
G1 X76.721 Y89.538 E25.74036
G1 X76.512 Y90.573 E25.87563
G1 X76.399 Y90.987 E25.93062
G1 X76.3 Y91.47 E25.99378
G1 X76.015 Y92.492 E26.12972
G1 X75.942 Y92.692 E26.15699
G1 X75.871 Y92.968 E26.1935
G1 X75.527 Y93.988 E26.33142
G1 X75.116 Y94.962 E26.46686
G1 X74.869 Y95.447 E26.53659
G1 X74.751 Y95.726 E26.5754
G1 X74.269 Y96.682 E26.71257
G1 X73.726 Y97.584 E26.84745
G1 X73.099 Y98.471 E26.98662
G1 X72.437 Y99.279 E27.12045
G1 X71.689 Y100.064 E27.25937
G1 X71.378 Y100.349 E27.31341
G1 X70.923 Y100.871 E27.40213
G1 X70.159 Y101.625 E27.53965
G1 X69.344 Y102.323 E27.67713
G1 X68.507 Y102.938 E27.8102
G1 X67.579 Y103.521 E27.95061
G1 X66.659 Y104.009 E28.08403
G1 X65.665 Y104.448 E28.22325
G1 X64.677 Y104.799 E28.35758
G1 X63.663 Y105.079 E28.49235
G1 X63.062 Y105.223 E28.57153
G1 X62.036 Y105.429 E28.7056
G1 X60.971 Y105.564 E28.84314
G1 X59.913 Y105.619 E28.97887
G1 X58.846 Y105.596 E29.11561
G1 X57.29 Y105.424 E29.31617
G1 X56.829 Y105.348 E29.37603
G1 X56.827 Y105.348 E29.37629
G1 X56.72 Y105.331 E29.39017
G1 X55.351 Y105.033 E29.56967
G1 X55.09 Y104.964 E29.60426
G1 X53.757 Y104.536 E29.78363
G1 X53.521 Y104.448 E29.8159
G1 X52.531 Y104.036 E29.95328
G1 X51.572 Y103.552 E30.0909
G1 X50.656 Y103 E30.22792
G1 X49.794 Y102.393 E30.36299
G1 X48.959 Y101.709 E30.50128
G1 X48.203 Y100.991 E30.63486
G1 X47.477 Y100.192 E30.77317
G1 X47.1 Y99.711 E30.85147
G1 X47.074 Y99.681 E30.85656
G1 X46.426 Y98.85 E30.99157
G1 X45.823 Y97.946 E31.13079
G1 X45.454 Y97.295 E31.22666
G1 X45.043 Y96.594 E31.33077
G1 X44.58 Y95.659 E31.46444
G1 X44.17 Y94.647 E31.60433
G1 X44.141 Y94.558 E31.61633
G1 X44.036 Y94.318 E31.64989
G1 X43.684 Y93.318 E31.78571
G1 X43.406 Y92.292 E31.9219
G1 X43.2 Y91.235 E32.05987
G1 X43.191 Y91.147 E32.0712
G1 X43.04 Y90.231 E32.19014
G1 X43.025 Y90.067 E32.21124
G1 X43.011 Y90.009 E32.21889
G1 X42.829 Y88.911 E32.36148
G1 X42.812 Y88.71 E32.38732
G1 X42.73 Y88.206 E32.45274
G1 X42.701 Y87.881 E32.49455
G1 X42.618 Y87.479 E32.54714
G1 X42.573 Y87.146 E32.59019
G1 X42.408 Y86.557 E32.66855
G1 X42.203 Y85.52 E32.80398
G1 X42.07 Y84.434 E32.94416
G1 X41.941 Y83.748 E33.03359
G1 X41.895 Y83.336 E33.0867
G1 X41.758 Y82.922 E33.14257
G1 X41.449 Y81.866 E33.28354
G1 X41.267 Y81.023 E33.39403
G1 X40.924 Y80.308 E33.49563
G1 X40.448 Y79.427 E33.62392
G1 X39.943 Y78.578 E33.75048
G1 X38.945 Y77.005 E33.98915
G1 X38.719 Y76.666 E34.04135
G1 X37.337 Y74.659 E34.35355
G1 X37.23 Y74.515 E34.37653
G1 X37.059 Y74.279 E34.41387
G1 X37.058 Y74.28 E34.41405
G1 X36.819 Y73.944 E34.46688
G1 X36.111 Y72.971 E34.62105
G1 X35.593 Y72.289 E34.73077
G1 X35.134 Y71.869 E34.81048
G1 X34.399 Y71.098 E34.94695
G1 X33.819 Y70.399 E35.06332
G1 X33.708 Y70.256 E35.08651
G1 X33.093 Y69.512 E35.21018
G1 X32.533 Y68.866 E35.31971
G1 X31.905 Y68.177 E35.43915
G1 X31.476 Y67.686 E35.52269
G1 X31.071 Y67.2 E35.60374
G1 X30.734 Y66.922 E35.65971
G1 X29.968 Y66.191 E35.79537
G1 X29.299 Y65.455 E35.92279
G1 X28.976 Y65.075 E35.98669
G1 X27.732 Y63.657 E36.22836
G1 X25.175 Y60.802 E36.7194
G1 X24.095 Y59.62 E36.92453
G1 X23.88 Y59.374 E36.96638
G1 X23.062 Y58.555 E37.11468
G1 X22.337 Y57.776 E37.25102
G1 X22.019 Y57.389 E37.3152
G1 X21.943 Y57.303 E37.3299
G1 X20.891 Y55.994 E37.54506
G1 X20.79 Y55.868 E37.56574
G1 X19.525 Y54.259 E37.82797
G1 X19.177 Y53.944 E37.8881
G1 X18.44 Y53.172 E38.02485
G1 X17.781 Y52.37 E38.15784
G1 X17.307 Y51.749 E38.25793
G1 X17.18 Y51.579 E38.28511
G1 X16.183 Y50.22 E38.50105
G1 X16.068 Y50.065 E38.52578
G1 X15.396 Y49.353 E38.65121
G1 X14.734 Y48.538 E38.78574
G1 X14.361 Y48.022 E38.86731
G1 X14.178 Y47.755 E38.90878
G1 X14.14 Y47.702 E38.91714
G1 X13.813 Y47.222 E38.99155
G1 X13.66 Y46.995 E39.02662
G1 X12.705 Y45.551 E39.24842
G1 X12.516 Y45.351 E39.28368
G1 X11.839 Y44.525 E39.4205
G1 X11.213 Y43.632 E39.56022
G1 X10.84 Y43.023 E39.65172
G1 X10.316 Y42.353 E39.76069
G1 X9.728 Y41.478 E39.89576
G1 X9.426 Y40.955 E39.97313
G1 X9.37 Y40.879 E39.98523
G1 X8.792 Y39.974 E40.1228
G1 X8.688 Y39.78 E40.15101
G1 X8.56 Y39.595 E40.17983
G1 X8.011 Y38.667 E40.31797
G1 X7.543 Y37.724 E40.45284
G1 X7.119 Y36.684 E40.59673
G1 X6.99 Y36.411 E40.63542
G1 X6.608 Y35.421 E40.77137
G1 X6.294 Y34.392 E40.90921
G1 X6.263 Y34.248 E40.92808
G1 X5.98 Y33.283 E41.05692
G1 X5.814 Y32.506 E41.15871
G1 X5.718 Y32.151 E41.20583
G1 X5.51 Y31.086 E41.34485
G1 X5.387 Y30.049 E41.47864
G1 X5.337 Y28.974 E41.61652
G1 X5.352 Y28.4 E41.69008
G1 X5.359 Y27.29 E41.8323
G1 X5.445 Y26.199 E41.97251
G1 X5.598 Y25.196 E42.10249
G1 X5.847 Y24.115 E42.24462
G1 X6.151 Y23.125 E42.3773
G1 X6.545 Y22.113 E42.51643
G1 X7.091 Y20.986 E42.67688
G1 X7.159 Y20.859 E42.69533
G1 X7.711 Y19.918 E42.8351
G1 X8.565 Y18.715 E43.02412
G1 X8.656 Y18.6 E43.04291
G1 X8.741 Y18.48 E43.06175
G1 X9.412 Y17.66 E43.19749
G1 X10.154 Y16.876 E43.33579
G1 X10.944 Y16.156 E43.47273
G1 X11.767 Y15.509 E43.60686
G0 F7200 X11.2 Y15.954
G1 F2025 X11.2 Y43.61 E47.15009
G0 F7200 X12.8 Y45.694
G1 F2025 X12.8 Y14.827 E51.10471
G0 F7200 X14.4 Y13.987
G1 F2025 X14.4 Y48.075 E55.472
G0 F7200 X16 Y49.992
G1 F2025 X16 Y13.384 E60.16214
G0 F7200 X17.6 Y12.97
G1 F2025 X17.6 Y52.132 E65.1795
G0 F7200 X19.2 Y53.964
G1 F2025 X19.2 Y12.761 E70.45835
G0 F7200 X20.8 Y12.712
G1 F2025 X20.8 Y55.88 E75.98895
G0 F7200 X22.4 Y57.843
G1 F2025 X22.4 Y12.856 E81.75259
G0 F7200 X24 Y13.164
G1 F2025 X24 Y59.511 E87.69048
G0 F7200 X25.6 Y61.276
G1 F2025 X25.6 Y13.651 E93.7921
G0 F7200 X27.2 Y14.282
G1 F2025 X27.2 Y63.062 E100.0417
G0 F7200 X28.8 Y64.874
G1 F2025 X28.8 Y15.136 E106.41403
G0 F7200 X30.4 Y16.276
G1 F2025 X30.4 Y66.603 E112.86183
G0 F7200 X32 Y68.281
G1 F2025 X32 Y17.78 E119.33192
G0 F7200 X33.6 Y19.338
G1 F2025 X33.6 Y70.125 E125.83865
G0 F7200 X35.2 Y71.929
G1 F2025 X35.2 Y18.691 E132.6594
G0 F7200 X36.8 Y18.217
G1 F2025 X36.8 Y73.917 E139.79557
G0 F7200 X38.4 Y76.202
G1 F2025 X38.4 Y17.836 E147.27331
G0 F7200 X40 Y17.646
G1 F2025 X40 Y78.673 E155.09197
G0 F7200 X41.6 Y82.382
G1 F2025 X41.6 Y17.576 E163.39479
G0 F7200 X43.2 Y17.475
G1 F2025 X43.2 Y91.235 E172.84478
G0 F7200 X44.8 Y96.103
G1 F2025 X44.8 Y17.484 E182.91729
G0 F7200 X46.4 Y17.679
G1 F2025 X46.4 Y98.811 E193.31176
G0 F7200 X48 Y100.767
G1 F2025 X48 Y18.049 E203.90943
G0 F7200 X49.6 Y18.623
G1 F2025 X49.6 Y102.234 E214.62151
G0 F7200 X51.2 Y103.327
G1 F2025 X51.2 Y19.408 E225.37304
G0 F7200 X52.8 Y20.383
G1 F2025 X52.8 Y104.147 E236.10472
G0 F7200 X54.4 Y104.742
G1 F2025 X54.4 Y21.582 E246.75902
G0 F7200 X56 Y23.161
G1 F2025 X56 Y105.174 E257.26636
G0 F7200 X57.6 Y105.458
G1 F2025 X57.6 Y25.419 E267.5208
G0 F7200 X59.2 Y28.318
G1 F2025 X59.2 Y105.603 E277.42241
G0 F7200 X60.8 Y105.573
G1 F2025 X60.8 Y27.53 E287.42112
G0 F7200 X62.4 Y24.606
G1 F2025 X62.4 Y105.356 E297.76666
G0 F7200 X64 Y104.986
G1 F2025 X64 Y22.607 E308.32089
G0 F7200 X65.6 Y21.163
G1 F2025 X65.6 Y104.472 E318.99428
G0 F7200 X67.2 Y103.723
G1 F2025 X67.2 Y20.048 E329.71455
G0 F7200 X68.8 Y19.134
G1 F2025 X68.8 Y102.723 E340.42381
G0 F7200 X70.4 Y101.388
G1 F2025 X70.4 Y18.418 E351.05377
G0 F7200 X72 Y17.9
G1 F2025 X72 Y99.738 E361.53869
G0 F7200 X73.6 Y97.763
G1 F2025 X73.6 Y17.59 E371.8103
G0 F7200 X75.2 Y17.448
G1 F2025 X75.2 Y94.763 E381.71574
G0 F7200 X76.8 Y88.917
G1 F2025 X76.8 Y17.495 E390.86619
G0 F7200 X78.4 Y17.579
G1 F2025 X78.4 Y81.607 E399.06933
G0 F7200 X80 Y78.469
G1 F2025 X80 Y17.712 E406.8534
G0 F7200 X81.6 Y17.977
G1 F2025 X81.6 Y75.963 E414.28245
G0 F7200 X83.2 Y73.762
G1 F2025 X83.2 Y18.39 E421.37661
G0 F7200 X84.8 Y19.016
G1 F2025 X84.8 Y71.608 E428.11459
G0 F7200 X86.4 Y69.447
G1 F2025 X86.4 Y19.837 E434.47053
G0 F7200 X88 Y18.422
G1 F2025 X88 Y67.815 E440.79866
G0 F7200 X89.6 Y66.043
G1 F2025 X89.6 Y16.969 E447.08592
G0 F7200 X91.2 Y15.784
G1 F2025 X91.2 Y64.337 E453.30644
G0 F7200 X92.8 Y62.599
G1 F2025 X92.8 Y14.891 E459.4187
G0 F7200 X94.4 Y14.242
G1 F2025 X94.4 Y60.822 E465.38643
G0 F7200 X96 Y59.007
G1 F2025 X96 Y13.786 E471.18006
G0 F7200 X97.6 Y13.487
G1 F2025 X97.6 Y57.119 E476.77011
G0 F7200 X99.2 Y55.451
G1 F2025 X99.2 Y13.322 E482.16759
G0 F7200 X100.8 Y13.349
G1 F2025 X100.8 Y53.548 E487.31781
G0 F7200 X102.4 Y51.865
G1 F2025 X102.4 Y13.536 E492.22844
G0 F7200 X104 Y13.924
G1 F2025 X104 Y49.858 E496.83224
G0 F7200 X105.6 Y47.91
G1 F2025 X105.6 Y14.502 E501.11241
G0 F7200 X107.2 Y15.308
G1 F2025 X107.2 Y45.894 E505.03102
G0 F7200 X108.8 Y43.75
G1 F2025 X108.8 Y16.397 E508.53544
G0 F7200 X110.4 Y17.847
G1 F2025 X110.4 Y41.6 E511.57862
G0 F7200 X112 Y38.98
G1 F2025 X112 Y19.85 E514.02952
G0 F7200 X113.6 Y22.754
G1 F2025 X113.6 Y35.378 E515.64688
G0 F7200 X9.6 Y41.256
G1 F2025 X9.6 Y17.461 E518.69545
G0 F7200 X8 Y19.51
G1 F2025 X8 Y38.644 E521.14686
G0 F7200 X6.4 Y34.739
G1 F2025 X6.4 Y22.485 E522.71682
;TIME_ELAPSED:133.122387
;LAYER:-5
G0 F7200 X6.544 Y22.112 Z.66
;TYPE:SUPPORT
G1 F2025 X6.151 Y23.122 E522.83253
G1 X75.897 Y92.867 E533.3633
G1 X75.871 Y92.967 E533.37433
G1 X75.546 Y93.931 E533.48295
G1 X5.824 Y24.209 E544.01017
G1 X5.598 Y25.194 E544.11807
