;FLAVOR:RepRap
;TIME:9015
;Generated with Cura_SteamEngine 2.3.1
M190 S50
M104 S200
M109 S200
G21 ;metric values
G90 ;absolute positioning
M82 ;set extruder to absolute mode
M107 ;start with the fan off
G28 X0 Y0 ;move X/Y to min endstops
G28 Z0 ;move Z to min endstops
G1 Z15.0 F9000 ;move the platform down 15mm
G92 E0 ;zero the extruded length
G1 F200 E3 ;extrude 3mm of feed stock
G92 E0 ;zero the extruded length again
G1 F9000
;Put printing message on LCD screen
M117 Printing...
;LAYER_COUNT:274
;LAYER:0
M107
G1 F3600 E-6
G0 F4500 X30.691 Y17.904 Z.3
;TYPE:SKIRT
G1 F3600 E0
G1 F1800 X31.109 Y17.233 E0.03747
G1 X31.592 Y16.609 E0.07487
G1 X32.135 Y16.036 E0.11228
G1 X32.734 Y15.521 E0.14972
G1 X33.382 Y15.07 E0.18714
G1 X34.073 Y14.686 E0.22461
G1 X34.798 Y14.374 E0.26202
G1 X35.551 Y14.137 E0.29943
G1 X36.325 Y13.978 E0.33688
G1 X37.11 Y13.897 E0.37429
G1 X37.512 Y13.887 E0.39335
G1 X89.001 Y13.887 E2.8337
G1 X89.79 Y13.927 E2.87115
G1 X90.57 Y14.046 E2.90854
G1 X91.335 Y14.244 E2.94599
G1 X92.075 Y14.518 E2.98339
G1 X92.784 Y14.866 E3.02083
G1 X93.455 Y15.284 E3.0583
G1 X94.079 Y15.767 E3.0957
G1 X94.652 Y16.31 E3.13311
G1 X95.167 Y16.909 E3.17055
G1 X95.618 Y17.557 E3.20797
G1 X96.002 Y18.248 E3.24544
G1 X96.314 Y18.973 E3.28285
G1 X96.551 Y19.726 E3.32026
G1 X96.71 Y20.5 E3.35771
G1 X96.791 Y21.285 E3.39511
G1 X96.801 Y21.687 E3.41417
G1 X96.801 Y52.612 E4.87989
G1 X96.761 Y53.401 E4.91733
G1 X96.642 Y54.181 E4.95472
G1 X96.444 Y54.946 E4.99218
G1 X96.324 Y55.271 E5.0086
G1 X96.551 Y55.994 E5.04451
G1 X96.71 Y56.768 E5.08196
G1 X96.791 Y57.553 E5.11937
G1 X96.801 Y57.955 E5.13843
G1 X96.801 Y98.313 E7.05122
G1 X96.761 Y99.102 E7.08866
G1 X96.642 Y99.882 E7.12606
G1 X96.444 Y100.647 E7.16351
G1 X96.17 Y101.387 E7.20091
G1 X95.822 Y102.096 E7.23835
G1 X95.404 Y102.767 E7.27582
G1 X94.921 Y103.391 E7.31321
G1 X94.378 Y103.964 E7.35063
G1 X93.779 Y104.479 E7.38807
G1 X93.131 Y104.93 E7.42549
G1 X92.44 Y105.314 E7.46296
G1 X91.715 Y105.626 E7.50037
G1 X90.962 Y105.863 E7.53778
G1 X90.188 Y106.022 E7.57523
G1 X89.403 Y106.103 E7.61263
G1 X89.001 Y106.113 E7.63169
G1 X87.775 Y106.113 E7.6898
G1 X86.986 Y106.073 E7.72724
G1 X86.206 Y105.954 E7.76464
G1 X85.441 Y105.756 E7.80209
G1 X84.701 Y105.482 E7.83949
G1 X83.992 Y105.134 E7.87692
G1 X83.321 Y104.716 E7.91439
G1 X82.697 Y104.233 E7.95179
G1 X82.124 Y103.69 E7.98921
G1 X81.609 Y103.091 E8.02665
G1 X81.158 Y102.443 E8.06407
G1 X80.774 Y101.752 E8.10153
G1 X80.462 Y101.027 E8.13894
G1 X80.225 Y100.274 E8.17636
G1 X80.066 Y99.5 E8.21381
G1 X79.985 Y98.715 E8.25121
G1 X79.975 Y98.313 E8.27027
G1 X79.975 Y78.522 E9.20828
G1 X46.538 Y78.521 E10.79305
G1 X46.538 Y98.312 E11.73106
G1 X46.498 Y99.101 E11.7685
G1 X46.379 Y99.881 E11.8059
G1 X46.181 Y100.646 E11.84335
G1 X45.907 Y101.386 E11.88075
G1 X45.559 Y102.095 E11.91818
G1 X45.141 Y102.766 E11.95565
G1 X44.658 Y103.39 E11.99305
G1 X44.115 Y103.963 E12.03046
G1 X43.516 Y104.478 E12.06791
G1 X42.868 Y104.929 E12.10532
G1 X42.177 Y105.313 E12.14279
G1 X41.452 Y105.625 E12.1802
G1 X40.699 Y105.862 E12.21762
G1 X39.925 Y106.021 E12.25507
G1 X39.14 Y106.102 E12.29247
G1 X38.744 Y106.112 E12.31124
G1 X37.518 Y106.113 E12.36935
G1 X36.73 Y106.074 E12.40674
G1 X35.949 Y105.955 E12.44419
G1 X35.184 Y105.758 E12.48163
G1 X34.444 Y105.484 E12.51903
G1 X33.734 Y105.137 E12.55648
G1 X33.064 Y104.72 E12.59389
G1 X32.438 Y104.237 E12.63136
G1 X31.865 Y103.694 E12.66878
G1 X31.35 Y103.096 E12.70618
G1 X30.898 Y102.448 E12.74363
G1 X30.514 Y101.758 E12.78105
G1 X30.202 Y101.033 E12.81846
G1 X29.964 Y100.28 E12.85589
G1 X29.804 Y99.507 E12.8933
G1 X29.723 Y98.721 E12.93075
G1 X29.712 Y98.313 E12.9501
G1 X29.712 Y66.089 E14.47738
G1 X29.631 Y66.062 E14.48142
G1 X28.912 Y65.734 E14.51888
G1 X28.23 Y65.336 E14.5563
G1 X27.635 Y64.904 E14.59115
G1 X26.984 Y64.384 E14.63064
G1 X26.393 Y63.861 E14.66805
G1 X25.857 Y63.28 E14.70551
G1 X25.2 Y62.364 E14.75894
G1 X24.846 Y61.786 E14.79106
G1 X24.469 Y61.092 E14.8285
G1 X24.088 Y60.149 E14.8767
G1 X23.718 Y59.024 E14.93283
G1 X23.51 Y58.262 E14.97027
G1 X23.395 Y57.611 E15.0016
G1 X23.281 Y56.75 E15.04276
G1 X23.214 Y55.726 E15.0914
G1 X23.214 Y54.842 E15.1333
G1 X23.281 Y53.818 E15.18194
G1 X23.395 Y52.957 E15.2231
G1 X23.539 Y52.181 E15.26051
G1 X23.716 Y51.55 E15.29157
G1 X24.085 Y50.425 E15.34768
G1 X24.369 Y49.688 E15.38512
G1 X24.847 Y48.779 E15.43379
G1 X25.202 Y48.2 E15.46598
G1 X25.649 Y47.548 E15.50345
G1 X26.159 Y46.945 E15.54088
G1 X26.99 Y46.178 E15.59448
G1 X27.641 Y45.659 E15.63394
G1 X28.282 Y45.199 E15.67133
G1 X28.967 Y44.805 E15.70879
G1 X29.688 Y44.484 E15.74619
G1 X29.712 Y44.476 E15.74739
G1 X29.712 Y21.687 E16.82749
G1 X29.752 Y20.898 E16.86493
G1 X29.871 Y20.118 E16.90233
G1 X30.069 Y19.353 E16.93978
G1 X30.343 Y18.613 E16.97718
G1 X30.691 Y17.904 E17.01462
G0 F4500 X31.09 Y18.011
G1 F1800 X31.506 Y17.364 E17.05107
G1 X31.987 Y16.764 E17.08752
G1 X32.528 Y16.217 E17.12398
G1 X33.123 Y15.729 E17.16046
G1 X33.765 Y15.306 E17.1969
G1 X34.448 Y14.951 E17.23338
G1 X35.163 Y14.67 E17.26979
G1 X35.905 Y14.464 E17.30629
G1 X36.663 Y14.336 E17.34272
G1 X37.512 Y14.287 E17.38303
G1 X89.001 Y14.287 E19.82338
G1 X89.769 Y14.327 E19.85983
G1 X90.529 Y14.446 E19.89629
G1 X91.272 Y14.644 E19.93274
G1 X91.991 Y14.918 E19.96921
G1 X92.677 Y15.265 E20.00564
G1 X93.324 Y15.681 E20.0421
G1 X93.924 Y16.162 E20.07855
G1 X94.471 Y16.703 E20.11501
G1 X94.959 Y17.298 E20.15148
G1 X95.382 Y17.94 E20.18792
G1 X95.737 Y18.623 E20.2244
G1 X96.018 Y19.338 E20.26081
G1 X96.224 Y20.08 E20.29731
G1 X96.352 Y20.838 E20.33375
G1 X96.401 Y21.687 E20.37405
G1 X96.401 Y52.612 E21.83976
G1 X96.361 Y53.38 E21.87621
G1 X96.242 Y54.14 E21.91267
G1 X96.044 Y54.883 E21.94912
G1 X95.891 Y55.284 E21.96946
G1 X96.018 Y55.606 E21.98586
G1 X96.224 Y56.348 E22.02236
G1 X96.352 Y57.106 E22.0588
G1 X96.401 Y57.955 E22.0991
G1 X96.401 Y98.313 E24.0119
G1 X96.361 Y99.081 E24.04835
G1 X96.242 Y99.841 E24.08481
G1 X96.044 Y100.584 E24.12125
G1 X95.77 Y101.303 E24.15772
G1 X95.423 Y101.989 E24.19416
G1 X95.007 Y102.636 E24.23061
G1 X94.526 Y103.236 E24.26706
G1 X93.985 Y103.783 E24.30352
G1 X93.39 Y104.271 E24.33999
G1 X92.748 Y104.694 E24.37643
G1 X92.065 Y105.049 E24.41292
G1 X91.35 Y105.33 E24.44933
G1 X90.608 Y105.536 E24.48583
G1 X89.85 Y105.664 E24.52226
G1 X89.001 Y105.713 E24.56257
G1 X87.775 Y105.713 E24.62067
G1 X87.007 Y105.673 E24.65712
G1 X86.247 Y105.554 E24.69358
G1 X85.504 Y105.356 E24.73003
G1 X84.785 Y105.082 E24.76649
G1 X84.099 Y104.735 E24.80293
G1 X83.452 Y104.319 E24.83939
G1 X82.852 Y103.838 E24.87583
G1 X82.305 Y103.297 E24.9123
G1 X81.817 Y102.702 E24.94877
G1 X81.394 Y102.06 E24.98521
G1 X81.039 Y101.377 E25.02169
G1 X80.758 Y100.662 E25.0581
G1 X80.552 Y99.92 E25.0946
G1 X80.424 Y99.162 E25.13104
G1 X80.375 Y98.313 E25.17134
G1 X80.375 Y78.122 E26.12831
G1 X46.138 Y78.121 E27.75099
G1 X46.138 Y98.312 E28.70796
G1 X46.098 Y99.08 E28.74441
G1 X45.979 Y99.84 E28.78087
G1 X45.781 Y100.583 E28.81731
G1 X45.507 Y101.302 E28.85378
G1 X45.16 Y101.988 E28.89022
G1 X44.744 Y102.635 E28.92667
G1 X44.263 Y103.235 E28.96312
G1 X43.722 Y103.782 E28.99959
G1 X43.127 Y104.27 E29.03606
G1 X42.485 Y104.693 E29.0725
G1 X41.802 Y105.048 E29.10898
G1 X41.087 Y105.329 E29.14539
G1 X40.345 Y105.535 E29.18189
G1 X39.587 Y105.663 E29.21832
G1 X38.744 Y105.712 E29.25834
G1 X37.518 Y105.713 E29.31645
G1 X36.75 Y105.674 E29.3529
G1 X35.99 Y105.555 E29.38936
G1 X35.247 Y105.358 E29.42579
G1 X34.528 Y105.084 E29.46226
G1 X33.841 Y104.738 E29.49872
G1 X33.194 Y104.322 E29.53517
G1 X32.593 Y103.842 E29.57163
G1 X32.046 Y103.301 E29.60809
G1 X31.558 Y102.707 E29.64453
G1 X31.134 Y102.065 E29.68099
G1 X30.779 Y101.383 E29.71743
G1 X30.496 Y100.667 E29.75392
G1 X30.29 Y99.926 E29.79037
G1 X30.162 Y99.168 E29.82681
G1 X30.112 Y98.313 E29.8674
G1 X30.112 Y65.803 E31.40823
G1 X29.741 Y65.675 E31.42684
G1 X29.043 Y65.351 E31.46331
G1 X28.383 Y64.957 E31.49974
G1 X27.885 Y64.592 E31.529
G1 X27.234 Y64.072 E31.56849
G1 X26.658 Y63.561 E31.60499
G1 X26.139 Y62.994 E31.64142
G1 X25.541 Y62.155 E31.69025
G1 X25.187 Y61.577 E31.72237
G1 X24.82 Y60.901 E31.75883
G1 X24.468 Y60.024 E31.80362
G1 X24.098 Y58.899 E31.85975
G1 X23.896 Y58.157 E31.8962
G1 X23.792 Y57.558 E31.92501
G1 X23.678 Y56.697 E31.96618
G1 X23.614 Y55.726 E32.0123
G1 X23.614 Y54.842 E32.0542
G1 X23.678 Y53.871 E32.10032
G1 X23.792 Y53.01 E32.14148
G1 X23.932 Y52.253 E32.17797
G1 X24.097 Y51.675 E32.20646
G1 X24.466 Y50.55 E32.26257
G1 X24.743 Y49.832 E32.29905
G1 X25.188 Y48.988 E32.34427
G1 X25.543 Y48.409 E32.37646
G1 X25.979 Y47.775 E32.41293
G1 X26.478 Y47.19 E32.44937
G1 X27.239 Y46.491 E32.49834
G1 X27.89 Y45.972 E32.5378
G1 X28.516 Y45.524 E32.57429
G1 X29.184 Y45.144 E32.61071
G1 X29.889 Y44.835 E32.6472
G1 X30.112 Y44.764 E32.65829
G1 X30.112 Y21.687 E33.75204
G1 X30.152 Y20.919 E33.78849
G1 X30.271 Y20.159 E33.82495
G1 X30.469 Y19.416 E33.86139
G1 X30.743 Y18.697 E33.89786
G1 X31.09 Y18.011 E33.93429
G0 F4500 X31.489 Y18.121
G1 F1800 X31.904 Y17.498 E33.96977
G1 X32.383 Y16.924 E34.00521
G1 X32.92 Y16.403 E34.04067
G1 X33.51 Y15.944 E34.0761
G1 X34.146 Y15.549 E34.11158
G1 X34.82 Y15.225 E34.14703
G1 X35.525 Y14.975 E34.18248
G1 X36.253 Y14.801 E34.21795
G1 X36.995 Y14.706 E34.25341
G1 X37.512 Y14.687 E34.27793
G1 X89.001 Y14.687 E36.71829
G1 X89.748 Y14.727 E36.75374
G1 X90.486 Y14.846 E36.78917
G1 X91.208 Y15.044 E36.82465
G1 X91.904 Y15.317 E36.86009
G1 X92.567 Y15.664 E36.89556
G1 X93.19 Y16.079 E36.93103
G1 X93.764 Y16.558 E36.96647
G1 X94.285 Y17.095 E37.00193
G1 X94.744 Y17.685 E37.03736
G1 X95.139 Y18.321 E37.07284
G1 X95.463 Y18.995 E37.10829
G1 X95.713 Y19.7 E37.14374
G1 X95.887 Y20.428 E37.17922
G1 X95.982 Y21.17 E37.21467
G1 X96.001 Y21.687 E37.23919
G1 X96.001 Y52.612 E38.7049
G1 X95.961 Y53.359 E38.74036
G1 X95.842 Y54.097 E38.77579
G1 X95.644 Y54.819 E38.81127
G1 X95.466 Y55.272 E38.83434
G1 X95.713 Y55.968 E38.86934
G1 X95.887 Y56.696 E38.90482
G1 X95.982 Y57.438 E38.94027
G1 X96.001 Y57.955 E38.96479
G1 X96.001 Y98.313 E40.87759
G1 X95.961 Y99.06 E40.91304
G1 X95.842 Y99.798 E40.94847
G1 X95.644 Y100.52 E40.98396
G1 X95.371 Y101.216 E41.01939
G1 X95.024 Y101.879 E41.05486
G1 X94.609 Y102.502 E41.09034
G1 X94.13 Y103.076 E41.12577
G1 X93.593 Y103.597 E41.16123
G1 X93.003 Y104.056 E41.19666
G1 X92.367 Y104.451 E41.23214
G1 X91.693 Y104.775 E41.26759
G1 X90.988 Y105.025 E41.30304
G1 X90.26 Y105.199 E41.33852
G1 X89.518 Y105.294 E41.37397
G1 X89.001 Y105.313 E41.39849
G1 X87.775 Y105.313 E41.4566
G1 X87.028 Y105.273 E41.49205
G1 X86.29 Y105.154 E41.52748
G1 X85.568 Y104.956 E41.56297
G1 X84.872 Y104.683 E41.5984
G1 X84.209 Y104.336 E41.63387
G1 X83.586 Y103.921 E41.66935
G1 X83.012 Y103.442 E41.70478
G1 X82.491 Y102.905 E41.74024
G1 X82.032 Y102.315 E41.77567
G1 X81.637 Y101.679 E41.81116
G1 X81.313 Y101.005 E41.8466
G1 X81.063 Y100.3 E41.88205
G1 X80.889 Y99.572 E41.91753
G1 X80.794 Y98.83 E41.95298
G1 X80.775 Y98.313 E41.9775
G1 X80.775 Y77.722 E42.95343
G1 X45.738 Y77.721 E44.61403
G1 X45.738 Y98.312 E45.58996
G1 X45.698 Y99.059 E45.62541
G1 X45.579 Y99.797 E45.66084
G1 X45.381 Y100.519 E45.69632
G1 X45.108 Y101.215 E45.73176
G1 X44.761 Y101.878 E45.76722
G1 X44.346 Y102.501 E45.8027
G1 X43.867 Y103.075 E45.83814
G1 X43.33 Y103.596 E45.8736
G1 X42.74 Y104.055 E45.90903
G1 X42.104 Y104.45 E45.94451
G1 X41.43 Y104.774 E45.97996
G1 X40.725 Y105.024 E46.01541
G1 X39.997 Y105.198 E46.05088
G1 X39.255 Y105.293 E46.08634
G1 X38.744 Y105.312 E46.11058
G1 X37.518 Y105.313 E46.16868
G1 X36.771 Y105.274 E46.20414
G1 X36.032 Y105.155 E46.23961
G1 X35.31 Y104.958 E46.27508
G1 X34.614 Y104.685 E46.31052
G1 X33.951 Y104.339 E46.34596
G1 X33.328 Y103.925 E46.38141
G1 X32.753 Y103.446 E46.41688
G1 X32.232 Y102.909 E46.45235
G1 X31.772 Y102.319 E46.4878
G1 X31.377 Y101.684 E46.52325
G1 X31.052 Y101.01 E46.55871
G1 X30.802 Y100.305 E46.59417
G1 X30.627 Y99.578 E46.62961
G1 X30.532 Y98.836 E46.66506
G1 X30.512 Y98.313 E46.68987
G1 X30.512 Y65.519 E48.24416
G1 X29.852 Y65.289 E48.27729
G1 X29.176 Y64.969 E48.31274
G1 X28.538 Y64.579 E48.34818
G1 X28.134 Y64.279 E48.37203
G1 X27.483 Y63.759 E48.41152
G1 X26.925 Y63.262 E48.44693
G1 X26.422 Y62.708 E48.4824
G1 X25.883 Y61.946 E48.52663
G1 X25.529 Y61.368 E48.55876
G1 X25.173 Y60.71 E48.59422
G1 X24.848 Y59.899 E48.63563
G1 X24.478 Y58.774 E48.69176
G1 X24.283 Y58.052 E48.7272
G1 X24.189 Y57.506 E48.75346
G1 X24.075 Y56.645 E48.79462
G1 X24.014 Y55.726 E48.83828
G1 X24.014 Y54.842 E48.88017
G1 X24.075 Y53.923 E48.92383
G1 X24.189 Y53.062 E48.96499
G1 X24.326 Y52.327 E49.00043
G1 X24.477 Y51.799 E49.02645
G1 X24.846 Y50.674 E49.08257
G1 X25.116 Y49.977 E49.118
G1 X25.529 Y49.197 E49.15983
G1 X25.884 Y48.618 E49.19202
G1 X26.309 Y48.002 E49.22749
G1 X26.797 Y47.435 E49.26294
G1 X27.488 Y46.804 E49.30729
G1 X28.139 Y46.285 E49.34675
G1 X28.748 Y45.85 E49.38223
G1 X29.4 Y45.483 E49.41769
G1 X30.088 Y45.188 E49.45317
G1 X30.512 Y45.057 E49.4742
G1 X30.512 Y21.687 E50.58184
G1 X30.552 Y20.94 E50.61729
G1 X30.671 Y20.202 E50.65272
G1 X30.869 Y19.48 E50.6882
G1 X31.142 Y18.784 E50.72364
G1 X31.489 Y18.121 E50.75911
G0 F4500 X31.887 Y18.234
G1 F1800 X32.301 Y17.637 E50.79354
G1 X32.777 Y17.089 E50.82794
G1 X33.311 Y16.596 E50.86239
G1 X33.896 Y16.166 E50.8968
G1 X34.525 Y15.802 E50.93124
G1 X35.19 Y15.509 E50.96568
G1 X35.883 Y15.291 E51.00012
G1 X36.595 Y15.151 E51.03451
G1 X37.512 Y15.087 E51.07808
G1 X89.001 Y15.087 E53.51843
G1 X89.726 Y15.127 E53.55285
G1 X90.443 Y15.246 E53.58729
G1 X91.142 Y15.444 E53.62173
G1 X91.815 Y15.717 E53.65615
G1 X92.454 Y16.062 E53.69057
G1 X93.051 Y16.476 E53.725
G1 X93.599 Y16.952 E53.7594
G1 X94.092 Y17.486 E53.79385
G1 X94.522 Y18.071 E53.82826
G1 X94.886 Y18.7 E53.8627
G1 X95.179 Y19.365 E53.89715
G1 X95.397 Y20.058 E53.93158
G1 X95.537 Y20.77 E53.96597
G1 X95.601 Y21.687 E54.00954
G1 X95.601 Y52.612 E55.47525
G1 X95.561 Y53.337 E55.50966
G1 X95.442 Y54.054 E55.54411
G1 X95.244 Y54.753 E55.57854
G1 X95.027 Y55.288 E55.60591
G1 X95.179 Y55.633 E55.62378
G1 X95.397 Y56.326 E55.65821
G1 X95.537 Y57.038 E55.6926
G1 X95.601 Y57.955 E55.73617
G1 X95.601 Y98.313 E57.64896
G1 X95.561 Y99.038 E57.68338
G1 X95.442 Y99.755 E57.71782
G1 X95.244 Y100.454 E57.75226
G1 X94.971 Y101.127 E57.78668
G1 X94.626 Y101.766 E57.8211
G1 X94.212 Y102.363 E57.85553
G1 X93.736 Y102.911 E57.88993
G1 X93.202 Y103.404 E57.92438
G1 X92.617 Y103.834 E57.95879
G1 X91.988 Y104.198 E57.99323
G1 X91.323 Y104.491 E58.02768
G1 X90.63 Y104.709 E58.06211
G1 X89.918 Y104.849 E58.0965
G1 X89.001 Y104.913 E58.14007
G1 X87.775 Y104.913 E58.19817
G1 X87.05 Y104.873 E58.23259
G1 X86.333 Y104.754 E58.26704
G1 X85.634 Y104.556 E58.30147
G1 X84.961 Y104.283 E58.33589
G1 X84.322 Y103.938 E58.37031
G1 X83.725 Y103.524 E58.40474
G1 X83.177 Y103.048 E58.43914
G1 X82.684 Y102.514 E58.47359
G1 X82.254 Y101.929 E58.508
G1 X81.89 Y101.3 E58.54245
G1 X81.597 Y100.635 E58.57689
G1 X81.379 Y99.942 E58.61132
G1 X81.239 Y99.23 E58.64571
G1 X81.175 Y98.313 E58.68928
G1 X81.175 Y77.322 E59.68416
G1 X45.338 Y77.321 E61.38268
G1 X45.338 Y98.312 E62.37756
G1 X45.298 Y99.037 E62.41198
G1 X45.179 Y99.754 E62.44643
G1 X44.981 Y100.453 E62.48086
G1 X44.708 Y101.126 E62.51528
G1 X44.363 Y101.765 E62.5497
G1 X43.949 Y102.362 E62.58413
G1 X43.473 Y102.91 E62.61853
G1 X42.939 Y103.403 E62.65298
G1 X42.354 Y103.833 E62.68739
G1 X41.725 Y104.197 E62.72184
G1 X41.06 Y104.49 E62.75628
G1 X40.367 Y104.708 E62.79071
G1 X39.655 Y104.848 E62.8251
G1 X38.743 Y104.912 E62.86843
G1 X37.517 Y104.913 E62.92654
G1 X36.792 Y104.874 E62.96095
G1 X36.076 Y104.755 E62.99535
G1 X35.376 Y104.558 E63.02982
G1 X34.703 Y104.285 E63.06424
G1 X34.064 Y103.941 E63.09864
G1 X33.466 Y103.528 E63.13308
G1 X32.918 Y103.051 E63.16751
G1 X32.425 Y102.518 E63.20193
G1 X31.994 Y101.933 E63.23636
G1 X31.629 Y101.305 E63.27079
G1 X31.336 Y100.64 E63.30523
G1 X31.118 Y99.948 E63.33962
G1 X30.977 Y99.235 E63.37407
G1 X30.912 Y98.313 E63.41787
G1 X30.912 Y65.206 E64.987
G1 X30.65 Y65.144 E64.99976
G1 X29.965 Y64.902 E65.0342
G1 X29.311 Y64.587 E65.0686
G1 X28.695 Y64.201 E65.10306
