;FLAVOR:RepRap
;TIME:11536
;Generated with Cura_SteamEngine 2.3.1
M190 S50
M104 S200
M109 S200
G21 ;metric values
G90 ;absolute positioning
M82 ;set extruder to absolute mode
M107 ;start with the fan off
G28 X0 Y0 ;move X/Y to min endstops
G28 Z0 ;move Z to min endstops
G1 Z15.0 F9000 ;move the platform down 15mm
G92 E0 ;zero the extruded length
G1 F200 E3 ;extrude 3mm of feed stock
G92 E0 ;zero the extruded length again
G1 F9000
;Put printing message on LCD screen
M117 Printing...
;LAYER_COUNT:274
;LAYER:0
M107
G1 F3600 E-6
G0 F4500 X21.682 Y17.233 Z.3
;TYPE:SKIRT
G1 F3600 E0
G1 F1800 X22.165 Y16.609 E0.0374
G1 X22.708 Y16.036 E0.07481
G1 X23.307 Y15.521 E0.11225
G1 X23.955 Y15.07 E0.14967
G1 X24.646 Y14.686 E0.18714
G1 X25.371 Y14.374 E0.22455
G1 X26.124 Y14.137 E0.26196
G1 X26.898 Y13.978 E0.29942
G1 X27.683 Y13.897 E0.33682
G1 X28.085 Y13.887 E0.35588
G1 X101.158 Y13.887 E3.81922
G1 X101.947 Y13.927 E3.85667
G1 X102.727 Y14.046 E3.89406
G1 X103.492 Y14.244 E3.93151
G1 X104.232 Y14.518 E3.96891
G1 X104.941 Y14.866 E4.00635
G1 X105.612 Y15.284 E4.04382
G1 X106.236 Y15.767 E4.08122
G1 X106.809 Y16.31 E4.11863
G1 X107.324 Y16.909 E4.15607
G1 X107.775 Y17.557 E4.19349
G1 X108.159 Y18.248 E4.23096
G1 X108.471 Y18.973 E4.26837
G1 X108.708 Y19.726 E4.30578
G1 X108.867 Y20.5 E4.34323
G1 X108.948 Y21.285 E4.38063
G1 X108.958 Y21.687 E4.39969
G1 X108.958 Y52.612 E5.86541
G1 X108.918 Y53.401 E5.90285
G1 X108.799 Y54.181 E5.94025
G1 X108.601 Y54.946 E5.9777
G1 X108.481 Y55.271 E5.99412
G1 X108.708 Y55.994 E6.03003
G1 X108.867 Y56.768 E6.06748
G1 X108.948 Y57.553 E6.10489
G1 X108.958 Y57.955 E6.12395
G1 X108.958 Y98.313 E8.03674
G1 X108.918 Y99.102 E8.07418
G1 X108.799 Y99.882 E8.11158
G1 X108.601 Y100.647 E8.14903
G1 X108.327 Y101.387 E8.18643
G1 X107.979 Y102.096 E8.22387
G1 X107.561 Y102.767 E8.26134
G1 X107.078 Y103.391 E8.29873
G1 X106.535 Y103.964 E8.33615
G1 X105.936 Y104.479 E8.37359
G1 X105.288 Y104.93 E8.41101
G1 X104.597 Y105.314 E8.44848
G1 X103.872 Y105.626 E8.48589
G1 X103.119 Y105.863 E8.5233
G1 X102.345 Y106.022 E8.56075
G1 X101.56 Y106.103 E8.59815
G1 X101.158 Y106.113 E8.61721
G1 X99.418 Y106.113 E8.69968
G1 X98.629 Y106.073 E8.73712
G1 X97.849 Y105.954 E8.77452
G1 X97.084 Y105.756 E8.81197
G1 X96.344 Y105.482 E8.84937
G1 X95.635 Y105.134 E8.88681
G1 X94.964 Y104.716 E8.92427
G1 X94.34 Y104.233 E8.96167
G1 X93.767 Y103.69 E8.99909
G1 X93.252 Y103.091 E9.03653
G1 X92.801 Y102.443 E9.07395
G1 X92.417 Y101.752 E9.11142
G1 X92.105 Y101.027 E9.14882
G1 X91.868 Y100.274 E9.18624
G1 X91.709 Y99.5 E9.22369
G1 X91.628 Y98.715 E9.26109
G1 X91.618 Y98.313 E9.28015
G1 X91.618 Y78.522 E10.21816
G1 X37.625 Y78.521 E12.7772
G1 X37.625 Y98.312 E13.7152
G1 X37.585 Y99.101 E13.75265
G1 X37.466 Y99.881 E13.79004
G1 X37.268 Y100.646 E13.8275
G1 X36.994 Y101.386 E13.8649
G1 X36.646 Y102.095 E13.90233
G1 X36.228 Y102.766 E13.9398
G1 X35.745 Y103.39 E13.9772
G1 X35.202 Y103.963 E14.01461
G1 X34.603 Y104.478 E14.05205
G1 X33.955 Y104.929 E14.08947
G1 X33.264 Y105.313 E14.12694
G1 X32.539 Y105.625 E14.16435
G1 X31.786 Y105.862 E14.20176
G1 X31.012 Y106.021 E14.23921
G1 X30.227 Y106.102 E14.27662
G1 X29.829 Y106.112 E14.29549
G1 X28.089 Y106.113 E14.37795
G1 X27.301 Y106.073 E14.41535
G1 X26.52 Y105.954 E14.45279
G1 X25.756 Y105.757 E14.49019
G1 X25.015 Y105.483 E14.52763
G1 X24.306 Y105.136 E14.56504
G1 X23.635 Y104.719 E14.60249
G1 X23.01 Y104.236 E14.63992
G1 X22.437 Y103.693 E14.67734
G1 X21.922 Y103.094 E14.71478
G1 X21.47 Y102.446 E14.75223
G1 X21.086 Y101.756 E14.78965
G1 X20.774 Y101.031 E14.82706
G1 X20.537 Y100.278 E14.86448
G1 X20.377 Y99.505 E14.90189
G1 X20.296 Y98.719 E14.93934
G1 X20.285 Y98.313 E14.95859
G1 X20.285 Y66.583 E16.46245
G1 X19.996 Y66.547 E16.47626
G1 X19.219 Y66.409 E16.51366
G1 X18.459 Y66.193 E16.55111
G1 X17.651 Y65.866 E16.59242
G1 X17.026 Y65.572 E16.62516
G1 X16.329 Y65.2 E16.6626
G1 X15.674 Y64.76 E16.7
G1 X15.182 Y64.359 E16.73008
G1 X14.624 Y63.866 E16.76537
G1 X14.059 Y63.314 E16.80281
G1 X13.354 Y62.431 E16.85636
G1 X12.905 Y61.776 E16.894
G1 X12.493 Y61.103 E16.9314
G1 X12.15 Y60.392 E16.96882
G1 X11.968 Y59.917 E16.99293
G1 X11.552 Y58.715 E17.05321
G1 X11.332 Y57.957 E17.09062
G1 X11.189 Y57.18 E17.12806
G1 X11.131 Y56.524 E17.15928
G1 X11.07 Y55.202 E17.222
G1 X11.074 Y54.412 E17.25944
G1 X11.157 Y53.627 E17.29686
G1 X11.274 Y53.035 E17.32546
G1 X11.575 Y51.771 E17.38704
G1 X11.797 Y51.013 E17.42448
G1 X12.094 Y50.281 E17.46192
G1 X12.28 Y49.908 E17.48167
G1 X12.665 Y49.186 E17.52045
G1 X13.072 Y48.509 E17.55789
G1 X13.679 Y47.718 E17.60515
G1 X14.185 Y47.14 E17.64156
G1 X14.735 Y46.573 E17.679
G1 X15.339 Y46.065 E17.7164
G1 X15.737 Y45.781 E17.73958
G1 X16.333 Y45.385 E17.77349
G1 X17.012 Y44.982 E17.81091
G1 X17.729 Y44.65 E17.84836
G1 X18.453 Y44.398 E17.8847
G1 X19.107 Y44.206 E17.917
G1 X19.875 Y44.022 E17.95443
G1 X20.285 Y43.967 E17.97404
G1 X20.285 Y21.687 E19.03001
G1 X20.325 Y20.898 E19.06746
G1 X20.444 Y20.118 E19.10485
G1 X20.642 Y19.353 E19.14231
G1 X20.916 Y18.613 E19.17971
G1 X21.264 Y17.904 E19.21714
G1 X21.682 Y17.233 E19.25461
G0 F4500 X22.079 Y17.364
G1 F1800 X22.56 Y16.764 E19.29105
G1 X23.101 Y16.217 E19.32752
G1 X23.696 Y15.729 E19.36399
G1 X24.338 Y15.306 E19.40043
G1 X25.021 Y14.951 E19.43691
G1 X25.736 Y14.67 E19.47332
G1 X26.478 Y14.464 E19.50982
G1 X27.236 Y14.336 E19.54626
G1 X28.085 Y14.287 E19.58656
G1 X101.158 Y14.287 E23.04991
G1 X101.926 Y14.327 E23.08636
G1 X102.686 Y14.446 E23.12282
G1 X103.429 Y14.644 E23.15926
G1 X104.148 Y14.918 E23.19573
G1 X104.834 Y15.265 E23.23216
G1 X105.481 Y15.681 E23.26862
G1 X106.081 Y16.162 E23.30507
G1 X106.628 Y16.703 E23.34153
G1 X107.116 Y17.298 E23.378
G1 X107.539 Y17.94 E23.41444
G1 X107.894 Y18.623 E23.45093
G1 X108.175 Y19.338 E23.48734
G1 X108.381 Y20.08 E23.52383
G1 X108.509 Y20.838 E23.56027
G1 X108.558 Y21.687 E23.60057
G1 X108.558 Y52.612 E25.06629
G1 X108.518 Y53.38 E25.10274
G1 X108.399 Y54.14 E25.1392
G1 X108.201 Y54.883 E25.17564
G1 X108.048 Y55.284 E25.19598
G1 X108.175 Y55.606 E25.21239
G1 X108.381 Y56.348 E25.24888
G1 X108.509 Y57.106 E25.28532
G1 X108.558 Y57.955 E25.32562
G1 X108.558 Y98.313 E27.23842
G1 X108.518 Y99.081 E27.27487
G1 X108.399 Y99.841 E27.31133
G1 X108.201 Y100.584 E27.34777
G1 X107.927 Y101.303 E27.38424
G1 X107.58 Y101.989 E27.42068
G1 X107.164 Y102.636 E27.45713
G1 X106.683 Y103.236 E27.49358
G1 X106.142 Y103.783 E27.53005
G1 X105.547 Y104.271 E27.56652
G1 X104.905 Y104.694 E27.60296
G1 X104.222 Y105.049 E27.63944
G1 X103.507 Y105.33 E27.67585
G1 X102.765 Y105.536 E27.71235
G1 X102.007 Y105.664 E27.74878
G1 X101.158 Y105.713 E27.78909
G1 X99.418 Y105.713 E27.87156
G1 X98.65 Y105.673 E27.90801
G1 X97.89 Y105.554 E27.94447
G1 X97.147 Y105.356 E27.98091
G1 X96.428 Y105.082 E28.01738
G1 X95.742 Y104.735 E28.05381
G1 X95.095 Y104.319 E28.09027
G1 X94.495 Y103.838 E28.12672
G1 X93.948 Y103.297 E28.16318
G1 X93.46 Y102.702 E28.19965
G1 X93.037 Y102.06 E28.23609
G1 X92.682 Y101.377 E28.27258
G1 X92.401 Y100.662 E28.30899
G1 X92.195 Y99.92 E28.34548
G1 X92.067 Y99.162 E28.38192
G1 X92.018 Y98.313 E28.42222
G1 X92.018 Y78.122 E29.37919
G1 X37.225 Y78.121 E31.97614
G1 X37.225 Y98.312 E32.93311
G1 X37.185 Y99.08 E32.96956
G1 X37.066 Y99.84 E33.00602
G1 X36.868 Y100.583 E33.04246
G1 X36.594 Y101.302 E33.07893
G1 X36.247 Y101.988 E33.11537
G1 X35.831 Y102.635 E33.15182
G1 X35.35 Y103.235 E33.18827
G1 X34.809 Y103.782 E33.22473
G1 X34.214 Y104.27 E33.26121
G1 X33.572 Y104.693 E33.29765
G1 X32.889 Y105.048 E33.33413
G1 X32.174 Y105.329 E33.37054
G1 X31.432 Y105.535 E33.40704
G1 X30.674 Y105.663 E33.44347
G1 X29.829 Y105.712 E33.48359
G1 X28.089 Y105.713 E33.56606
G1 X27.321 Y105.673 E33.60251
G1 X26.561 Y105.554 E33.63897
G1 X25.818 Y105.357 E33.6754
G1 X25.099 Y105.084 E33.71185
G1 X24.412 Y104.737 E33.74833
G1 X23.765 Y104.321 E33.78478
G1 X23.165 Y103.84 E33.82123
G1 X22.618 Y103.3 E33.85766
G1 X22.13 Y102.705 E33.89413
G1 X21.706 Y102.064 E33.93056
G1 X21.351 Y101.381 E33.96704
G1 X21.069 Y100.666 E34.00347
G1 X20.863 Y99.925 E34.03992
G1 X20.734 Y99.166 E34.07641
G1 X20.685 Y98.313 E34.11691
G1 X20.685 Y66.23 E35.6375
G1 X20.046 Y66.15 E35.66803
G1 X19.289 Y66.014 E35.70448
G1 X18.55 Y65.801 E35.74093
G1 X17.821 Y65.504 E35.77824
G1 X17.196 Y65.21 E35.81097
G1 X16.518 Y64.847 E35.84742
G1 X15.881 Y64.415 E35.8839
G1 X15.446 Y64.06 E35.91052
G1 X14.888 Y63.567 E35.94581
G1 X14.339 Y63.028 E35.98227
G1 X13.684 Y62.205 E36.03212
G1 X13.235 Y61.55 E36.06976
G1 X12.834 Y60.894 E36.1062
G1 X12.503 Y60.2 E36.14264
G1 X12.346 Y59.786 E36.16363
G1 X11.93 Y58.584 E36.22391
G1 X11.717 Y57.845 E36.26036
G1 X11.581 Y57.088 E36.29682
G1 X11.531 Y56.505 E36.32455
G1 X11.47 Y55.183 E36.38727
G1 X11.474 Y54.414 E36.42372
G1 X11.559 Y53.649 E36.4602
G1 X11.663 Y53.128 E36.48538
G1 X11.964 Y51.864 E36.54697
G1 X12.181 Y51.126 E36.58343
G1 X12.633 Y50.096 E36.63674
G1 X13.018 Y49.374 E36.67552
G1 X13.415 Y48.715 E36.71198
G1 X13.98 Y47.982 E36.75585
G1 X14.486 Y47.404 E36.79225
G1 X15.022 Y46.852 E36.82872
G1 X15.613 Y46.359 E36.8652
G1 X15.959 Y46.114 E36.88529
G1 X16.555 Y45.718 E36.91921
G1 X17.217 Y45.327 E36.95565
G1 X17.916 Y45.006 E36.9921
G1 X18.565 Y44.782 E37.02464
G1 X19.219 Y44.59 E37.05695
G1 X19.968 Y44.412 E37.09344
G1 X20.685 Y44.318 E37.12771
G1 X20.685 Y21.687 E38.20032
G1 X20.725 Y20.919 E38.23677
G1 X20.844 Y20.159 E38.27323
G1 X21.042 Y19.416 E38.30967
G1 X21.316 Y18.697 E38.34614
G1 X21.663 Y18.011 E38.38258
G1 X22.079 Y17.364 E38.41904
G0 F4500 X22.477 Y17.498
G1 F1800 X22.956 Y16.924 E38.45447
G1 X23.493 Y16.403 E38.48993
G1 X24.083 Y15.944 E38.52536
G1 X24.719 Y15.549 E38.56084
G1 X25.393 Y15.225 E38.59629
G1 X26.098 Y14.975 E38.63174
G1 X26.826 Y14.801 E38.66722
G1 X27.568 Y14.706 E38.70267
G1 X28.085 Y14.687 E38.72719
G1 X101.158 Y14.687 E42.19054
G1 X101.905 Y14.727 E42.22599
G1 X102.643 Y14.846 E42.26142
G1 X103.365 Y15.044 E42.2969
G1 X104.061 Y15.317 E42.33234
G1 X104.724 Y15.664 E42.36781
G1 X105.347 Y16.079 E42.40328
G1 X105.921 Y16.558 E42.43872
G1 X106.442 Y17.095 E42.47418
G1 X106.901 Y17.685 E42.50961
G1 X107.296 Y18.321 E42.54509
G1 X107.62 Y18.995 E42.58054
G1 X107.87 Y19.7 E42.61599
G1 X108.044 Y20.428 E42.65147
G1 X108.139 Y21.17 E42.68692
G1 X108.158 Y21.687 E42.71144
G1 X108.158 Y52.612 E44.17715
G1 X108.118 Y53.359 E44.21261
G1 X107.999 Y54.097 E44.24804
G1 X107.801 Y54.819 E44.28352
G1 X107.623 Y55.272 E44.30659
G1 X107.87 Y55.968 E44.34159
G1 X108.044 Y56.696 E44.37707
G1 X108.139 Y57.438 E44.41252
G1 X108.158 Y57.955 E44.43704
G1 X108.158 Y98.313 E46.34984
G1 X108.118 Y99.06 E46.38529
G1 X107.999 Y99.798 E46.42072
G1 X107.801 Y100.52 E46.45621
G1 X107.528 Y101.216 E46.49164
G1 X107.181 Y101.879 E46.52711
G1 X106.766 Y102.502 E46.56259
G1 X106.287 Y103.076 E46.59802
G1 X105.75 Y103.597 E46.63348
G1 X105.16 Y104.056 E46.66891
G1 X104.524 Y104.451 E46.70439
G1 X103.85 Y104.775 E46.73984
G1 X103.145 Y105.025 E46.77529
G1 X102.417 Y105.199 E46.81077
G1 X101.675 Y105.294 E46.84622
G1 X101.158 Y105.313 E46.87074
G1 X99.418 Y105.313 E46.95321
G1 X98.671 Y105.273 E46.98867
G1 X97.933 Y105.154 E47.0241
G1 X97.211 Y104.956 E47.05958
G1 X96.515 Y104.683 E47.09501
G1 X95.852 Y104.336 E47.13048
G1 X95.229 Y103.921 E47.16596
G1 X94.655 Y103.442 E47.20139
G1 X94.134 Y102.905 E47.23685
G1 X93.675 Y102.315 E47.27228
G1 X93.28 Y101.679 E47.30777
G1 X92.956 Y101.005 E47.34321
G1 X92.706 Y100.3 E47.37866
G1 X92.532 Y99.572 E47.41414
G1 X92.437 Y98.83 E47.44959
G1 X92.418 Y98.313 E47.47411
G1 X92.418 Y77.722 E48.45004
G1 X36.825 Y77.721 E51.08491
G1 X36.825 Y98.312 E52.06083
G1 X36.785 Y99.059 E52.09629
G1 X36.666 Y99.797 E52.13172
G1 X36.468 Y100.519 E52.1672
G1 X36.195 Y101.215 E52.20264
G1 X35.848 Y101.878 E52.2381
G1 X35.433 Y102.501 E52.27358
G1 X34.954 Y103.075 E52.30901
G1 X34.417 Y103.596 E52.34448
G1 X33.827 Y104.055 E52.37991
G1 X33.191 Y104.45 E52.41539
G1 X32.517 Y104.774 E52.45083
G1 X31.812 Y105.024 E52.48629
G1 X31.084 Y105.198 E52.52176
G1 X30.342 Y105.293 E52.55722
G1 X29.829 Y105.312 E52.58155
G1 X28.089 Y105.313 E52.66402
G1 X27.342 Y105.273 E52.69947
G1 X26.603 Y105.154 E52.73495
G1 X25.882 Y104.957 E52.77037
G1 X25.185 Y104.684 E52.80585
G1 X24.522 Y104.338 E52.8413
G1 X23.899 Y103.924 E52.87675
G1 X23.325 Y103.445 E52.91218
G1 X22.804 Y102.908 E52.94764
G1 X22.344 Y102.318 E52.9831
G1 X21.949 Y101.682 E53.01859
G1 X21.625 Y101.008 E53.05403
G1 X21.374 Y100.304 E53.08945
G1 X21.2 Y99.576 E53.12493
G1 X21.104 Y98.834 E53.16039
G1 X21.085 Y98.313 E53.1851
G1 X21.085 Y65.86 E54.72323
G1 X20.763 Y65.837 E54.73853
G1 X20.096 Y65.753 E54.7704
G1 X19.36 Y65.62 E54.80584
G1 X18.642 Y65.409 E54.84131
G1 X17.991 Y65.142 E54.87466
G1 X17.366 Y64.848 E54.9074
G1 X16.707 Y64.494 E54.94285
G1 X16.09 Y64.072 E54.97828
G1 X15.711 Y63.76 E55.00155
G1 X15.153 Y63.267 E55.03684
G1 X14.62 Y62.742 E55.0723
G1 X14.014 Y61.979 E55.11848
G1 X13.565 Y61.324 E55.15612
G1 X13.176 Y60.685 E55.19157
G1 X12.857 Y60.008 E55.22704
G1 X12.724 Y59.655 E55.24492
G1 X12.308 Y58.453 E55.30521
G1 X12.101 Y57.734 E55.34067
G1 X11.973 Y56.997 E55.37612
G1 X11.93 Y56.487 E55.40038
G1 X11.869 Y55.165 E55.4631
G1 X11.875 Y54.417 E55.49856
G1 X11.96 Y53.673 E55.53405
G1 X12.052 Y53.22 E55.55596
G1 X12.353 Y51.956 E55.61754
G1 X12.565 Y51.239 E55.65298
G1 X12.986 Y50.284 E55.70244
G1 X13.371 Y49.562 E55.74122
G1 X13.758 Y48.922 E55.77667
G1 X14.281 Y48.245 E55.81722
G1 X14.787 Y47.667 E55.85363
G1 X15.309 Y47.131 E55.88909
G1 X16.18 Y46.448 E55.94155
G1 X16.776 Y46.052 E55.97546
G1 X17.42 Y45.672 E56.0109
G1 X18.102 Y45.362 E56.04641
G1 X18.678 Y45.165 E56.07526
G1 X19.332 Y44.973 E56.10757
G1 X20.06 Y44.801 E56.14302
G1 X20.802 Y44.708 E56.17846
G1 X21.085 Y44.703 E56.19188
G1 X21.085 Y21.687 E57.28274
G1 X21.125 Y20.94 E57.31819
G1 X21.244 Y20.202 E57.35362
G1 X21.442 Y19.48 E57.38911
G1 X21.715 Y18.784 E57.42454
G1 X22.062 Y18.121 E57.46001
G1 X22.477 Y17.498 E57.49549
G0 F4500 X22.874 Y17.637
G1 F1800 X23.35 Y17.089 E57.52989
G1 X23.884 Y16.596 E57.56434
G1 X24.469 Y16.166 E57.59875
G1 X25.098 Y15.802 E57.63319
G1 X25.763 Y15.509 E57.66763
G1 X26.456 Y15.291 E57.70206
G1 X27.168 Y15.151 E57.73646
G1 X28.085 Y15.087 E57.78002
G1 X101.158 Y15.087 E61.24337
G1 X101.883 Y15.127 E61.27778
G1 X102.6 Y15.246 E61.31223
G1 X103.299 Y15.444 E61.34666
G1 X103.972 Y15.717 E61.38109
G1 X104.611 Y16.062 E61.4155
G1 X105.208 Y16.476 E61.44994
G1 X105.756 Y16.952 E61.48434
G1 X106.249 Y17.486 E61.51879
G1 X106.679 Y18.071 E61.5532
G1 X107.043 Y18.7 E61.58764
G1 X107.336 Y19.365 E61.62208
G1 X107.554 Y20.058 E61.65651
G1 X107.694 Y20.77 E61.69091
G1 X107.758 Y21.687 E61.73447
G1 X107.758 Y52.612 E63.20019
G1 X107.718 Y53.337 E63.2346
G1 X107.599 Y54.054 E63.26905
G1 X107.401 Y54.753 E63.30348
G1 X107.184 Y55.288 E63.33084
G1 X107.336 Y55.633 E63.34871
G1 X107.554 Y56.326 E63.38314
G1 X107.694 Y57.038 E63.41754
G1 X107.758 Y57.955 E63.4611
G1 X107.758 Y98.313 E65.3739
G1 X107.718 Y99.038 E65.40831
G1 X107.599 Y99.755 E65.44276
G1 X107.401 Y100.454 E65.47719
G1 X107.128 Y101.127 E65.51161
G1 X106.783 Y101.766 E65.54603
G1 X106.369 Y102.363 E65.58047
G1 X105.893 Y102.911 E65.61487
G1 X105.359 Y103.404 E65.64931
G1 X104.774 Y103.834 E65.68373
G1 X104.145 Y104.198 E65.71817
G1 X103.48 Y104.491 E65.75261
G1 X102.787 Y104.709 E65.78704
G1 X102.075 Y104.849 E65.82144
G1 X101.158 Y104.913 E65.865
G1 X99.418 Y104.913 E65.94747
G1 X98.693 Y104.873 E65.98189
G1 X97.976 Y104.754 E66.01633
G1 X97.277 Y104.556 E66.05077
G1 X96.604 Y104.283 E66.08519
G1 X95.965 Y103.938 E66.11961
G1 X95.368 Y103.524 E66.15404
G1 X94.82 Y103.048 E66.18844
G1 X94.327 Y102.514 E66.22289
G1 X93.897 Y101.929 E66.2573
G1 X93.533 Y101.3 E66.29174
G1 X93.24 Y100.635 E66.32618
G1 X93.022 Y99.942 E66.36062
G1 X92.882 Y99.23 E66.39501
G1 X92.818 Y98.313 E66.43858
G1 X92.818 Y77.322 E67.43346
G1 X36.425 Y77.321 E70.10624
G1 X36.425 Y98.312 E71.10113
G1 X36.385 Y99.037 E71.13554
G1 X36.266 Y99.754 E71.16999
G1 X36.068 Y100.453 E71.20442
G1 X35.795 Y101.126 E71.23884
G1 X35.45 Y101.765 E71.27326
G1 X35.036 Y102.362 E71.3077
