;FLAVOR:RepRap
;TIME:12095
;Generated with Cura_SteamEngine 2.3.1
M190 S50
M104 S195
M109 S195
G21 ;metric values
G90 ;absolute positioning
M82 ;set extruder to absolute mode
M107 ;start with the fan off
G28 X0 Y0 ;move X/Y to min endstops
G28 Z0 ;move Z to min endstops
G1 Z15.0 F9000 ;move the platform down 15mm
G92 E0 ;zero the extruded length
G1 F200 E3 ;extrude 3mm of feed stock
G92 E0 ;zero the extruded length again
G1 F9000
;Put printing message on LCD screen
M117 Printing...
;LAYER_COUNT:348
;LAYER:-9
M107
G1 F3600 E-6
G0 F6000 X28.395 Y23.465 Z.36
G1 F3600 E0
G1 F675 X29.126 Y22.707 E0.11978
G1 X29.935 Y21.982 E0.24335
G1 X30.784 Y21.326 E0.3654
G1 X31.657 Y20.748 E0.48449
G1 X32.595 Y20.221 E0.60688
G1 X33.551 Y19.772 E0.72702
G1 X34.558 Y19.387 E0.84965
G1 X35.576 Y19.08 E0.9706
G1 X36.608 Y18.849 E1.09089
G1 X37.674 Y18.692 E1.21346
G1 X38.726 Y18.615 E1.33344
G1 X39.291 Y18.604 E1.39772
G1 X40.128 Y18.604 E1.49293
G1 X40.756 Y18.463 E1.56615
G1 X41.822 Y18.306 E1.68871
G1 X42.874 Y18.229 E1.8087
G1 X43.439 Y18.218 E1.87298
G1 X44.034 Y18.218 E1.94066
G1 X45.096 Y18.256 E2.06154
G1 X46.178 Y18.376 E2.18537
G1 X47.038 Y18.536 E2.28487
G1 X51.235 Y18.536 E2.76228
G1 X52.297 Y18.574 E2.88316
G1 X52.567 Y18.604 E2.91406
G1 X69.98 Y18.604 E4.89478
G1 X70.304 Y18.531 E4.93256
G1 X71.369 Y18.374 E5.05501
G1 X72.421 Y18.297 E5.175
G1 X72.986 Y18.286 E5.23928
G1 X78.724 Y18.286 E5.89198
G1 X79.786 Y18.324 E6.01285
G1 X80.868 Y18.444 E6.13669
G1 X81.889 Y18.633 E6.2548
G1 X81.971 Y18.655 E6.26446
G1 X82.938 Y18.763 E6.37514
G1 X83.963 Y18.951 E6.49367
G1 X84.986 Y19.219 E6.61397
G1 X86.025 Y19.573 E6.73882
G1 X86.984 Y19.98 E6.85733
G1 X87.942 Y20.472 E6.97983
G1 X88.849 Y21.026 E7.10072
G1 X89.719 Y21.648 E7.22238
G1 X90.534 Y22.326 E7.34297
G1 X91.292 Y23.057 E7.46275
G1 X92.017 Y23.866 E7.58632
G1 X92.673 Y24.715 E7.70837
G1 X93.251 Y25.588 E7.82746
G1 X93.778 Y26.526 E7.94985
G1 X94.227 Y27.482 E8.06999
G1 X94.612 Y28.489 E8.19262
G1 X94.919 Y29.507 E8.31357
G1 X95.149 Y30.536 E8.4335
G1 X95.307 Y31.605 E8.55642
G1 X95.384 Y32.657 E8.67641
G1 X95.395 Y33.195 E8.73762
G1 X95.395 Y36.617 E9.12687
G1 X95.357 Y37.672 E9.24695
G1 X95.236 Y38.759 E9.37136
G1 X95.048 Y39.781 E9.48957
G1 X94.78 Y40.805 E9.60997
G1 X94.426 Y41.844 E9.73483
G1 X94.019 Y42.803 E9.85333
G1 X93.538 Y43.74 E9.97314
G1 X92.966 Y44.678 E10.09811
G1 X92.351 Y45.538 E10.21837
G1 X91.673 Y46.353 E10.33896
G1 X90.942 Y47.111 E10.45875
G1 X90.133 Y47.836 E10.58232
G1 X89.284 Y48.492 E10.70436
G1 X88.411 Y49.07 E10.82346
G1 X87.473 Y49.597 E10.94584
G1 X86.517 Y50.046 E11.06598
G1 X85.51 Y50.431 E11.18861
G1 X84.492 Y50.738 E11.30956
G1 X83.46 Y50.969 E11.42986
G1 X82.394 Y51.126 E11.55242
G1 X81.979 Y51.156 E11.59975
G1 X81.396 Y51.287 E11.66772
G1 X80.329 Y51.444 E11.7904
G1 X79.277 Y51.521 E11.91038
G1 X78.712 Y51.532 E11.97466
G1 X72.974 Y51.532 E12.62736
G1 X71.912 Y51.494 E12.74824
G1 X70.83 Y51.374 E12.87207
G1 X69.97 Y51.214 E12.97157
G1 X65.9 Y51.214 E13.43453
G1 X66.11 Y52.756 E13.61156
G1 X66.158 Y53.931 E13.74532
G1 X66.158 Y65.809 E15.09644
G1 X66.119 Y66.867 E15.21687
G1 X65.91 Y68.785 E15.43633
G1 X69.98 Y68.785 E15.89929
G1 X70.304 Y68.712 E15.93707
G1 X71.369 Y68.555 E16.05953
G1 X72.421 Y68.478 E16.17951
G1 X72.986 Y68.467 E16.24379
G1 X78.724 Y68.467 E16.89649
G1 X79.786 Y68.505 E17.01737
G1 X80.868 Y68.625 E17.1412
G1 X81.889 Y68.814 E17.25931
G1 X81.971 Y68.836 E17.26897
G1 X82.938 Y68.944 E17.37965
G1 X83.963 Y69.132 E17.49818
G1 X84.986 Y69.4 E17.61848
G1 X86.025 Y69.754 E17.74334
G1 X86.984 Y70.161 E17.86184
G1 X87.942 Y70.653 E17.98434
G1 X88.849 Y71.207 E18.10524
G1 X89.719 Y71.829 E18.22689
G1 X90.534 Y72.507 E18.34748
G1 X91.292 Y73.238 E18.46726
G1 X92.017 Y74.047 E18.59083
G1 X92.673 Y74.896 E18.71288
G1 X93.251 Y75.769 E18.83197
G1 X93.778 Y76.707 E18.95436
G1 X94.227 Y77.663 E19.0745
G1 X94.612 Y78.67 E19.19713
G1 X94.919 Y79.688 E19.31808
G1 X95.149 Y80.717 E19.43802
G1 X95.307 Y81.786 E19.56093
G1 X95.384 Y82.838 E19.68092
G1 X95.395 Y83.376 E19.74213
G1 X95.395 Y86.798 E20.13138
G1 X95.357 Y87.853 E20.25146
G1 X95.236 Y88.94 E20.37587
G1 X95.048 Y89.962 E20.49408
G1 X94.78 Y90.986 E20.61448
G1 X94.426 Y92.025 E20.73934
G1 X94.019 Y92.984 E20.85784
G1 X93.538 Y93.921 E20.97765
G1 X92.966 Y94.859 E21.10262
G1 X92.351 Y95.719 E21.22288
G1 X91.673 Y96.534 E21.34347
G1 X90.942 Y97.292 E21.46326
G1 X90.133 Y98.017 E21.58683
G1 X89.289 Y98.669 E21.70814
G1 X88.411 Y99.251 E21.82796
G1 X87.473 Y99.778 E21.95035
G1 X86.517 Y100.227 E22.07049
G1 X85.51 Y100.612 E22.19312
G1 X84.492 Y100.919 E22.31407
G1 X83.46 Y101.15 E22.43436
G1 X82.394 Y101.307 E22.55693
G1 X81.979 Y101.337 E22.60426
G1 X81.396 Y101.468 E22.67223
G1 X80.329 Y101.625 E22.79491
G1 X79.277 Y101.702 E22.91489
G1 X78.712 Y101.713 E22.97917
G1 X72.974 Y101.713 E23.63187
G1 X71.912 Y101.675 E23.75275
G1 X70.83 Y101.555 E23.87658
G1 X69.97 Y101.395 E23.97608
G1 X52.573 Y101.395 E25.95498
G1 X51.785 Y101.453 E26.04486
G1 X51.222 Y101.464 E26.10891
G1 X47.027 Y101.464 E26.58609
G1 X46.703 Y101.537 E26.62387
G1 X45.638 Y101.694 E26.74633
G1 X44.586 Y101.771 E26.86631
G1 X44.021 Y101.782 E26.93059
G1 X43.426 Y101.782 E26.99827
G1 X42.364 Y101.744 E27.11915
G1 X41.276 Y101.623 E27.24367
G1 X40.253 Y101.435 E27.36199
G1 X40.106 Y101.395 E27.37932
G1 X39.278 Y101.395 E27.4735
G1 X38.216 Y101.357 E27.59438
G1 X37.128 Y101.236 E27.71891
G1 X36.106 Y101.048 E27.83711
G1 X35.082 Y100.78 E27.95751
G1 X34.043 Y100.426 E28.08237
G1 X33.084 Y100.019 E28.20087
G1 X32.126 Y99.527 E28.32337
G1 X31.219 Y98.973 E28.44427
G1 X30.349 Y98.351 E28.56592
G1 X29.534 Y97.673 E28.68651
G1 X28.776 Y96.942 E28.8063
G1 X28.051 Y96.133 E28.92987
G1 X27.395 Y95.284 E29.05191
G1 X26.817 Y94.411 E29.17101
G1 X26.29 Y93.473 E29.29339
G1 X25.841 Y92.517 E29.41353
G1 X25.456 Y91.51 E29.53616
G1 X25.149 Y90.492 E29.65711
G1 X24.918 Y89.46 E29.77741
G1 X24.761 Y88.394 E29.89997
G1 X24.684 Y87.342 E30.01996
G1 X24.673 Y86.804 E30.08117
G1 X24.673 Y83.382 E30.47042
G1 X24.711 Y82.327 E30.5905
G1 X24.832 Y81.238 E30.71514
G1 X25.02 Y80.218 E30.83312
G1 X25.288 Y79.194 E30.95352
G1 X25.644 Y78.149 E31.0791
G1 X26.049 Y77.196 E31.19688
G1 X26.541 Y76.238 E31.31939
G1 X27.095 Y75.331 E31.44028
G1 X27.717 Y74.461 E31.56193
G1 X28.395 Y73.647 E31.68244
G1 X28.815 Y73.214 E31.75105
G1 X28.818 Y46.809 E34.75461
G1 X28.056 Y45.959 E34.88446
G1 X27.395 Y45.103 E35.00749
G1 X26.817 Y44.23 E35.12658
G1 X26.29 Y43.292 E35.24897
G1 X25.841 Y42.336 E35.36911
G1 X25.456 Y41.329 E35.49174
G1 X25.149 Y40.311 E35.61269
G1 X24.918 Y39.279 E35.73298
G1 X24.761 Y38.213 E35.85555
G1 X24.684 Y37.161 E35.97553
G1 X24.673 Y36.623 E36.03674
G1 X24.673 Y33.201 E36.42599
G1 X24.711 Y32.146 E36.54608
G1 X24.832 Y31.057 E36.67071
G1 X25.02 Y30.037 E36.78869
G1 X25.288 Y29.013 E36.90909
G1 X25.644 Y27.968 E37.03467
G1 X26.049 Y27.015 E37.15246
G1 X26.541 Y26.057 E37.27496
G1 X27.095 Y25.15 E37.39585
G1 X27.717 Y24.28 E37.51751
G1 X28.395 Y23.465 E37.6381
G0 F6000 X28.8 Y23.045
G1 F675 X28.8 Y46.788 E40.33886
G0 F6000 X27.2 Y44.808
G1 F675 X27.2 Y25.003 E42.59167
G0 F6000 X25.6 Y28.097
G1 F675 X25.6 Y41.705 E44.13957
G0 F6000 X30.4 Y21.622
G1 F675 X30.4 Y98.387 E52.87157
G0 F6000 X32 Y99.45
G1 F675 X32 Y20.555 E61.84585
G0 F6000 X33.6 Y19.753
G1 F675 X33.6 Y100.237 E71.00087
G0 F6000 X35.2 Y100.81
G1 F675 X35.2 Y19.193 E80.28478
G0 F6000 X36.8 Y18.82
G1 F675 X36.8 Y101.175 E89.65263
G0 F6000 X38.4 Y101.363
G1 F675 X38.4 Y18.638 E99.06258
G0 F6000 X40 Y18.604
G1 F675 X40 Y101.395 E108.48002
G0 F6000 X41.6 Y101.659
G1 F675 X41.6 Y18.338 E117.95776
G0 F6000 X43.2 Y18.222
G1 F675 X43.2 Y101.773 E127.46166
G0 F6000 X44.8 Y101.756
G1 F675 X44.8 Y18.246 E136.96089
G0 F6000 X46.4 Y18.418
G1 F675 X46.4 Y101.582 E146.42077
G0 F6000 X48 Y101.464
G1 F675 X48 Y18.536 E155.8538
G0 F6000 X49.6 Y18.536
G1 F675 X49.6 Y101.464 E165.28683
G0 F6000 X51.2 Y101.464
G1 F675 X51.2 Y18.536 E174.71986
G0 F6000 X52.8 Y18.604
G1 F675 X52.8 Y101.395 E184.13731
G0 F6000 X54.4 Y101.395
G1 F675 X54.4 Y18.604 E193.55476
G0 F6000 X56 Y18.604
G1 F675 X56 Y101.395 E202.97221
G0 F6000 X57.6 Y101.395
G1 F675 X57.6 Y18.604 E212.38966
G0 F6000 X59.2 Y18.604
G1 F675 X59.2 Y101.395 E221.80711
G0 F6000 X60.8 Y101.395
G1 F675 X60.8 Y18.604 E231.22455
G0 F6000 X62.4 Y18.604
G1 F675 X62.4 Y101.395 E240.642
G0 F6000 X64 Y101.395
G1 F675 X64 Y18.604 E250.05945
G0 F6000 X65.6 Y18.604
G1 F675 X65.6 Y101.395 E259.4769
G0 F6000 X67.2 Y101.395
G1 F675 X67.2 Y68.785 E263.18627
G0 F6000 X68.8 Y68.785
G1 F675 X68.8 Y101.395 E266.89565
G0 F6000 X70.4 Y101.475
G1 F675 X70.4 Y68.697 E270.62414
G0 F6000 X72 Y68.508
G1 F675 X72 Y101.678 E274.39721
G0 F6000 X73.6 Y101.713
G1 F675 X73.6 Y68.467 E278.17894
G0 F6000 X75.2 Y68.467
G1 F675 X75.2 Y101.713 E281.96066
G0 F6000 X76.8 Y101.713
G1 F675 X76.8 Y68.467 E285.74238
G0 F6000 X78.4 Y68.467
G1 F675 X78.4 Y101.713 E289.5241
G0 F6000 X80 Y101.65
G1 F675 X80 Y68.529 E293.2916
G0 F6000 X81.6 Y68.761
G1 F675 X81.6 Y101.423 E297.00689
G0 F6000 X83.2 Y101.189
G1 F675 X83.2 Y68.993 E300.66918
G0 F6000 X84.8 Y69.352
G1 F675 X84.8 Y100.827 E304.24945
G0 F6000 X86.4 Y100.272
G1 F675 X86.4 Y69.914 E307.70266
G0 F6000 X88 Y70.689
G1 F675 X88 Y99.482 E310.97785
G0 F6000 X89.6 Y98.429
G1 F675 X89.6 Y71.744 E314.01326
G0 F6000 X91.2 Y73.15
G1 F675 X91.2 Y97.025 E316.72904
G0 F6000 X92.8 Y95.092
G1 F675 X92.8 Y75.088 E319.00448
G0 F6000 X94.4 Y78.116
G1 F675 X94.4 Y92.087 E320.59368
G0 F6000 X66.438 Y68.311
G0 X66.443 Y51.688
G0 X84.8 Y50.646
G1 F675 X84.8 Y19.171 E324.17395
G0 F6000 X83.2 Y18.812
G1 F675 X83.2 Y51.008 E327.83624
G0 F6000 X81.6 Y51.242
G1 F675 X81.6 Y18.58 E331.55153
G0 F6000 X80 Y18.348
G1 F675 X80 Y51.469 E335.31903
G0 F6000 X78.4 Y51.532
G1 F675 X78.4 Y18.286 E339.10075
G0 F6000 X76.8 Y18.286
G1 F675 X76.8 Y51.532 E342.88247
G0 F6000 X75.2 Y51.532
G1 F675 X75.2 Y18.286 E346.66419
G0 F6000 X73.6 Y18.286
G1 F675 X73.6 Y51.532 E350.44592
G0 F6000 X72 Y51.497
G1 F675 X72 Y18.327 E354.21899
G0 F6000 X70.4 Y18.516
G1 F675 X70.4 Y51.294 E357.94748
G0 F6000 X68.8 Y51.214
G1 F675 X68.8 Y18.604 E361.65685
G0 F6000 X67.2 Y18.604
G1 F675 X67.2 Y51.214 E365.36623
G0 F6000 X86.4 Y50.091
G1 F675 X86.4 Y19.733 E368.81944
G0 F6000 X88 Y20.508
G1 F675 X88 Y49.301 E372.09464
G0 F6000 X89.6 Y48.248
G1 F675 X89.6 Y21.563 E375.13005
G0 F6000 X91.2 Y22.969
G1 F675 X91.2 Y46.844 E377.84582
G0 F6000 X92.8 Y44.911
G1 F675 X92.8 Y24.907 E380.12127
G0 F6000 X94.4 Y27.935
G1 F675 X94.4 Y41.906 E381.71046
G0 F6000 X66.443 Y51.688
G0 X28.8 Y73.229
G1 F675 X28.8 Y96.965 E384.41043
G0 F6000 X27.2 Y94.989
G1 F675 X27.2 Y75.184 E386.66324
G0 F6000 X25.6 Y78.278
G1 F675 X25.6 Y91.886 E388.21114
;TIME_ELAPSED:315.927379
;LAYER:-8
G0 F6000 X25.711 Y92.179 Z.51
;TYPE:SUPPORT
G1 F675 X25.84 Y92.516 E388.22825
G1 X26.29 Y93.472 E388.27833
G1 X26.817 Y94.41 E388.32932
G1 X27.384 Y95.266 E388.37798
G1 X30.766 Y98.648 E388.60467
G0 F6000 X33.893 Y100.361
G1 F675 X25.711 Y92.179 E389.15309
G0 F6000 X25.065 Y90.119
G1 F675 X35.952 Y101.006 E389.88282
G1 X35.081 Y100.778 E389.92549
G1 X34.042 Y100.424 E389.97752
G1 X33.893 Y100.361 E389.98518
G0 F6000 X37.654 Y101.293
G1 F675 X24.761 Y88.401 E390.84934
G1 X24.917 Y89.459 E390.90002
G1 X25.065 Y90.119 E390.93208
G0 F6000 X24.674 Y86.899
G1 F675 X39.164 Y101.389 E391.90331
G1 X38.216 Y101.356 E391.94827
G1 X37.654 Y101.293 E391.97507
G0 F6000 X40.706 Y101.517
G1 F675 X24.673 Y85.484 E393.04973
G1 X24.673 Y86.803 E393.11224
G1 X24.674 Y86.899 E393.11679
G0 F6000 X24.673 Y84.07
G1 F675 X42.343 Y101.74 E394.30117
G1 X41.275 Y101.621 E394.3521
G1 X40.706 Y101.517 E394.37952
G0 F6000 X43.798 Y101.78
G1 F675 X24.697 Y82.68 E395.65978
G1 X24.673 Y83.381 E395.69302
G1 X24.673 Y84.07 E395.72568
G0 F6000 X24.815 Y81.383
G1 F675 X45.159 Y101.727 E397.08929
G1 X44.586 Y101.77 E397.11652
G1 X44.02 Y101.781 E397.14335
G1 X43.798 Y101.78 E397.15388
G0 F6000 X46.422 Y101.577
G1 F675 X25.028 Y80.183 E398.58787
G1 X25.02 Y80.217 E398.58952
G1 X24.831 Y81.237 E398.63869
G1 X24.815 Y81.383 E398.64565
G0 F6000 X25.329 Y79.069
G1 F675 X47.722 Y101.462 E400.1466
G1 X47.026 Y101.462 E400.17959
G1 X46.702 Y101.536 E400.19534
G1 X46.422 Y101.577 E400.20875
G0 F6000 X49.136 Y101.462
G1 F675 X25.696 Y78.022 E401.77988
G1 X25.643 Y78.148 E401.78636
G1 X25.329 Y79.069 E401.83247
G0 F6000 X26.128 Y77.039
G1 F675 X50.551 Y101.462 E403.46949
G1 X49.136 Y101.462 E403.53656
G0 F6000 X51.942 Y101.44
G1 F675 X26.616 Y76.113 E405.23413
G1 X26.54 Y76.237 E405.24102
G1 X26.128 Y77.039 E405.28376
G0 F6000 X27.158 Y75.241
G1 F675 X53.31 Y101.394 E407.0367
G1 X52.572 Y101.394 E407.07168
G1 X51.942 Y101.44 E407.10161
G0 F6000 X54.725 Y101.394
G1 F675 X27.75 Y74.419 E408.90968
G1 X27.717 Y74.459 E408.91214
G1 X27.158 Y75.241 E408.9577
G0 F6000 X28.393 Y73.647
G1 F675 X56.139 Y101.394 E410.81748
G1 X54.725 Y101.394 E410.8845
G0 F6000 X57.553 Y101.394
G1 F675 X28.815 Y72.655 E412.81078
G1 X28.815 Y73.213 E412.83722
G1 X28.395 Y73.645 E412.86578
G1 X28.393 Y73.647 E412.86591
G0 F6000 X28.815 Y71.241
G1 F675 X58.967 Y101.394 E414.88696
G1 X57.553 Y101.394 E414.95398
G0 F6000 X60.381 Y101.394
G1 F675 X28.815 Y69.827 E417.06981
G1 X28.815 Y71.241 E417.13683
G0 F6000 X28.815 Y68.413
G1 F675 X61.796 Y101.394 E419.34746
G1 X60.381 Y101.394 E419.41453
G0 F6000 X63.21 Y101.394
G1 F675 X28.815 Y66.999 E421.71994
G1 X28.815 Y68.413 E421.78696
G0 F6000 X28.816 Y65.585
G1 F675 X64.624 Y101.394 E424.18712
G1 X63.21 Y101.394 E424.25414
G0 F6000 X66.038 Y101.394
G1 F675 X28.816 Y64.171 E426.74907
G1 X28.816 Y65.585 E426.81609
G0 F6000 X28.816 Y62.757
G1 F675 X67.453 Y101.394 E429.40584
G1 X66.038 Y101.394 E429.4729
G0 F6000 X68.867 Y101.394
G1 F675 X28.816 Y61.342 E432.15746
G1 X28.816 Y62.757 E432.22453
G0 F6000 X28.816 Y59.929
G1 F675 X70.352 Y101.464 E435.00855
G1 X69.97 Y101.394 E435.02696
G1 X68.867 Y101.394 E435.07924
G0 F6000 X71.977 Y101.676
G1 F675 X28.816 Y58.515 E437.97222
G1 X28.816 Y59.929 E438.03923
G0 F6000 X28.816 Y57.1
G1 F675 X73.428 Y101.712 E441.02947
G1 X72.974 Y101.712 E441.05099
G1 X71.977 Y101.676 E441.09827
G0 F6000 X74.842 Y101.712
G1 F675 X28.816 Y55.686 E444.18329
G1 X28.816 Y57.1 E444.2503
G0 F6000 X28.816 Y54.272
G1 F675 X76.256 Y101.712 E447.43009
G1 X74.842 Y101.712 E447.49711
G0 F6000 X77.67 Y101.712
G1 F675 X28.817 Y52.859 E450.77161
G1 X28.816 Y54.272 E450.83858
G0 F6000 X28.817 Y51.444
G1 F675 X79.077 Y101.704 E454.20739
G1 X78.711 Y101.712 E454.22474
G1 X77.67 Y101.712 E454.27408
G0 F6000 X80.4 Y101.613
G1 F675 X28.817 Y50.03 E457.73157
G1 X28.817 Y51.444 E457.79858
G0 F6000 X28.817 Y48.616
G1 F675 X81.617 Y101.416 E461.33764
G1 X81.395 Y101.467 E461.34844
G1 X80.4 Y101.613 E461.3961
G0 F6000 X82.853 Y101.237
G1 F675 X28.817 Y47.202 E465.01797
G1 X28.817 Y48.616 E465.08499
G0 F6000 X28.355 Y46.986
G0 X26.261 Y43.232
G1 F675 X84.046 Y101.017 E468.95818
G1 X83.459 Y101.148 E468.98669
G1 X82.853 Y101.237 E469.01572
G0 F6000 X85.16 Y100.716
G1 F675 X25.319 Y40.875 E473.02672
G1 X25.456 Y41.328 E473.04915
G1 X25.841 Y42.335 E473.10025
G1 X26.261 Y43.232 E473.14719
G0 F6000 X24.88 Y39.022
G1 F675 X86.203 Y100.345 E477.25753
G1 X85.51 Y100.611 E477.29271
G1 X85.16 Y100.716 E477.31003
G0 F6000 X87.184 Y99.912
G1 F675 X24.703 Y37.431 E481.49798
G1 X24.76 Y38.212 E481.53509
G1 X24.88 Y39.022 E481.5739
G0 F6000 X24.673 Y35.986
G1 F675 X88.106 Y99.42 E485.8257
G1 X87.473 Y99.777 E485.86015
G1 X87.184 Y99.912 E485.87526
G0 F6000 X88.975 Y98.875
G1 F675 X24.673 Y34.572 E490.18531
G1 X24.673 Y35.986 E490.25233
G0 F6000 X24.674 Y33.159
G1 F675 X89.793 Y98.278 E494.6171
G1 X89.289 Y98.668 E494.6473
G1 X88.975 Y98.875 E494.66513
G0 F6000 X90.561 Y97.632
G1 F675 X24.746 Y31.817 E499.07655
G1 X24.71 Y32.145 E499.09219
G1 X24.674 Y33.159 E499.14028
G0 F6000 X24.919 Y30.576
G1 F675 X91.282 Y96.939 E503.58843
G1 X90.941 Y97.291 E503.61166
G1 X90.561 Y97.632 E503.63586
G0 F6000 X91.953 Y96.196
G1 F675 X25.18 Y29.422 E508.11153
G1 X25.02 Y30.036 E508.1416
G1 X24.919 Y30.576 E508.16764
G0 F6000 X25.515 Y28.343
G1 F675 X65.915 Y68.743 E510.87556
G0 F6000 X65.956 Y68.784
