;FLAVOR:RepRap
;TIME:5960
;Generated with Cura_SteamEngine 2.3.1
M190 S50
M104 S195
M109 S195
G21 ;metric values
G90 ;absolute positioning
M82 ;set extruder to absolute mode
M107 ;start with the fan off
G28 X0 Y0 ;move X/Y to min endstops
G28 Z0 ;move Z to min endstops
G1 Z15.0 F9000 ;move the platform down 15mm
G92 E0 ;zero the extruded length
G1 F200 E3 ;extrude 3mm of feed stock
G92 E0 ;zero the extruded length again
G1 F9000
;Put printing message on LCD screen
M117 Printing...
;LAYER_COUNT:338
;LAYER:-9
M107
G1 F3600 E-6
G0 F6000 X25.46 Y54.738 Z.36
G1 F3600 E0
G1 F675 X26.471 Y54.351 E0.12314
G1 X27.321 Y54.09 E0.22428
G1 X27.444 Y54.057 E0.23877
G1 X28.484 Y53.813 E0.36028
G1 X29.54 Y53.645 E0.48191
G1 X30.598 Y53.556 E0.60268
G1 X31.321 Y53.538 E0.68495
G1 X34.534 Y53.538 E1.05043
G1 X35.381 Y53.389 E1.14825
G1 X36.189 Y52.347 E1.29824
G1 X36.232 Y52.276 E1.30768
G1 X36.852 Y51.402 E1.42957
G1 X37.531 Y50.58 E1.55085
G1 X37.929 Y50.151 E1.61741
G1 X38.945 Y49.096 E1.78402
G1 X39.776 Y48.299 E1.91499
G1 X39.844 Y48.239 E1.92531
G1 X40.269 Y47.874 E1.98903
G1 X40.348 Y47.809 E2.00067
G1 X40.983 Y47.201 E2.10067
G1 X41.324 Y46.894 E2.15287
G1 X42.177 Y46.18 E2.2794
G1 X43.025 Y45.569 E2.39829
G1 X43.937 Y45.008 E2.52008
G1 X44.774 Y44.569 E2.62759
G1 X45.363 Y44.284 E2.70202
G1 X45.707 Y44.121 E2.74532
G1 X45.911 Y44.028 E2.77083
G1 X47.313 Y43.348 E2.94807
G1 X48.277 Y42.923 E3.06791
G1 X49.295 Y42.563 E3.19073
G1 X50.338 Y42.275 E3.31382
G1 X50.473 Y42.191 E3.3319
G1 X51.419 Y41.715 E3.45236
G1 X52.395 Y41.309 E3.57261
G1 X53.41 Y40.973 E3.69422
G1 X54.455 Y40.709 E3.81683
G1 X55.513 Y40.523 E3.93902
G1 X56.147 Y40.45 E4.01161
G1 X57.576 Y40.318 E4.17485
G1 X58.13 Y40.277 E4.23804
G1 X59.371 Y40.213 E4.37939
G1 X60.455 Y40.196 E4.50271
G1 X61.498 Y40.258 E4.62156
G1 X62.334 Y40.359 E4.71735
G1 X62.757 Y40.424 E4.76603
G1 X63.075 Y40.475 E4.80267
G1 X65.162 Y40.836 E5.04359
G1 X66.204 Y41.057 E5.16475
G1 X67.632 Y41.489 E5.33445
G1 X68.937 Y41.959 E5.49223
G1 X69.924 Y42.274 E5.61008
G1 X70.917 Y42.631 E5.73011
G1 X71.904 Y43.07 E5.85299
G1 X72.835 Y43.567 E5.97303
G1 X73.726 Y44.132 E6.09304
G1 X73.775 Y44.17 E6.1001
G1 X74.941 Y44.813 E6.25156
G1 X75.624 Y45.226 E6.34235
G1 X76.104 Y45.445 E6.40237
G1 X77.019 Y45.95 E6.52125
G1 X77.91 Y46.527 E6.64199
G1 X78.791 Y47.196 E6.76782
G1 X79.267 Y47.604 E6.83914
G1 X79.542 Y47.851 E6.88118
G1 X79.945 Y48.195 E6.94145
G1 X80.731 Y48.92 E7.06309
G1 X81.451 Y49.689 E7.18292
G1 X82.007 Y50.377 E7.28354
G1 X82.181 Y50.57 E7.3131
G1 X83.071 Y51.751 E7.48131
G1 X83.775 Y52.791 E7.62417
G1 X84.277 Y53.392 E7.71324
G1 X85.037 Y53.477 E7.80023
G1 X85.362 Y53.538 E7.83784
G1 X88.691 Y53.537 E8.21652
G1 X89.758 Y53.576 E8.33797
G1 X90.839 Y53.695 E8.46167
G1 X91.861 Y53.882 E8.57986
G1 X92.647 Y54.08 E8.67206
G1 X92.745 Y54.107 E8.68362
G1 X93.767 Y54.436 E8.80575
G1 X94.752 Y54.83 E8.92642
G1 X95.714 Y55.302 E9.04831
G1 X96.63 Y55.837 E9.16897
G1 X97.517 Y56.444 E9.29123
G1 X98.343 Y57.104 E9.4115
G1 X99.114 Y57.819 E9.53111
G1 X99.857 Y58.617 E9.65514
G1 X100.525 Y59.447 E9.77633
G1 X101.135 Y60.33 E9.89841
G1 X101.658 Y61.221 E10.01593
G1 X102.141 Y62.2 E10.1401
G1 X102.539 Y63.183 E10.26074
G1 X102.865 Y64.192 E10.38135
G1 X103.119 Y65.236 E10.50357
G1 X103.295 Y66.289 E10.62501
G1 X103.394 Y67.342 E10.74532
G1 X103.418 Y68.184 E10.84113
G1 X103.418 Y72.535 E11.33606
G1 X103.38 Y73.59 E11.45614
G1 X103.259 Y74.677 E11.58055
G1 X103.071 Y75.699 E11.69875
G1 X102.803 Y76.723 E11.81916
G1 X102.449 Y77.762 E11.94401
G1 X102.042 Y78.721 E12.06252
G1 X101.551 Y79.676 E12.18466
G1 X100.996 Y80.586 E12.30591
G1 X100.374 Y81.456 E12.42756
G1 X99.696 Y82.271 E12.54815
G1 X98.965 Y83.029 E12.66794
G1 X98.156 Y83.754 E12.79151
G1 X97.307 Y84.41 E12.91355
G1 X96.434 Y84.988 E13.03265
G1 X95.496 Y85.515 E13.15503
G1 X94.54 Y85.964 E13.27517
G1 X93.529 Y86.351 E13.39831
G1 X92.677 Y86.613 E13.4997
G1 X92.677 Y86.612 E13.49982
G1 X92.56 Y86.644 E13.51362
G1 X91.517 Y86.889 E13.63549
G1 X90.46 Y87.057 E13.75723
G1 X89.402 Y87.146 E13.878
G1 X88.679 Y87.164 E13.96027
G1 X85.384 Y87.164 E14.33507
G1 X84.948 Y87.24 E14.38541
G1 X83.873 Y87.35 E14.50833
G1 X82.925 Y87.382 E14.61623
G1 X82.291 Y87.382 E14.68835
G1 X81.229 Y87.344 E14.80923
G1 X80.145 Y87.224 E14.93328
G1 X78.944 Y87.001 E15.07223
G1 X77.626 Y87.243 E15.22466
G1 X76.56 Y87.359 E15.34663
G1 X75.509 Y87.397 E15.46626
G1 X62.363 Y87.397 E16.96162
G1 X61.301 Y87.359 E17.0825
G1 X60.229 Y87.24 E17.20518
G1 X59.902 Y87.181 E17.24298
G1 X58.659 Y87.338 E17.3855
G1 X57.334 Y87.397 E17.53636
G1 X44.588 Y87.397 E18.98622
G1 X43.526 Y87.359 E19.1071
G1 X42.438 Y87.238 E19.23162
G1 X41.427 Y87.052 E19.34855
G1 X41.069 Y86.955 E19.39074
G1 X40.254 Y87.138 E19.48575
G1 X39.198 Y87.294 E19.60718
G1 X38.144 Y87.371 E19.72739
G1 X37.579 Y87.382 E19.79167
G1 X36.978 Y87.382 E19.86003
G1 X35.916 Y87.344 E19.98091
G1 X34.84 Y87.225 E20.10405
G1 X34.515 Y87.164 E20.14167
G1 X31.304 Y87.164 E20.50692
G1 X30.242 Y87.126 E20.6278
G1 X29.16 Y87.006 E20.75163
G1 X28.127 Y86.815 E20.87112
G1 X27.455 Y86.649 E20.94986
G1 X27.341 Y86.618 E20.9633
G1 X26.304 Y86.293 E21.08692
G1 X25.329 Y85.908 E21.20616
G1 X24.354 Y85.437 E21.32932
G1 X23.441 Y84.91 E21.44924
G1 X22.563 Y84.315 E21.56988
G1 X21.715 Y83.645 E21.69282
G1 X20.93 Y82.926 E21.8139
G1 X20.206 Y82.159 E21.93388
G1 X19.529 Y81.325 E22.05607
G1 X18.921 Y80.457 E22.17662
G1 X18.372 Y79.534 E22.29877
G1 X17.894 Y78.58 E22.42015
G1 X17.488 Y77.593 E22.54155
G1 X17.156 Y76.586 E22.66216
G1 X16.896 Y75.546 E22.7841
G1 X16.716 Y74.503 E22.9045
G1 X16.612 Y73.454 E23.0244
G1 X16.582 Y72.516 E23.13116
G1 X16.582 Y68.167 E23.62585
G1 X16.62 Y67.112 E23.74594
G1 X16.741 Y66.023 E23.87057
G1 X16.929 Y65.003 E23.98855
G1 X17.197 Y63.979 E24.10895
G1 X17.553 Y62.934 E24.23453
G1 X17.958 Y61.981 E24.35232
G1 X18.45 Y61.023 E24.47482
G1 X19.004 Y60.116 E24.59571
G1 X19.626 Y59.246 E24.71737
G1 X20.304 Y58.431 E24.83796
G1 X21.035 Y57.673 E24.95774
G1 X21.844 Y56.948 E25.08131
G1 X22.693 Y56.292 E25.20336
G1 X23.566 Y55.714 E25.32245
G1 X24.504 Y55.187 E25.44484
G1 X25.46 Y54.738 E25.56498
G0 F6000 X25.6 Y54.684
G1 F675 X25.6 Y86.015 E29.12887
G0 F6000 X27.2 Y86.573
G1 F675 X27.2 Y54.127 E32.81959
G0 F6000 X28.8 Y53.762
G1 F675 X28.8 Y86.939 E36.59346
G0 F6000 X30.4 Y87.131
G1 F675 X30.4 Y53.572 E40.41079
G0 F6000 X32 Y53.538
G1 F675 X32 Y87.164 E44.23573
G0 F6000 X33.6 Y87.164
G1 F675 X33.6 Y53.538 E48.06068
G0 F6000 X35.2 Y53.42
G1 F675 X35.2 Y87.264 E51.91042
G0 F6000 X36.8 Y87.375
G1 F675 X36.8 Y51.475 E55.99404
G0 F6000 X38.4 Y49.661
G1 F675 X38.4 Y87.353 E60.28149
G0 F6000 X40 Y87.176
G1 F675 X40 Y48.105 E64.7258
G0 F6000 X41.6 Y46.662
G1 F675 X41.6 Y87.083 E69.32368
G0 F6000 X43.2 Y87.322
G1 F675 X43.2 Y45.461 E74.08535
G0 F6000 X44.8 Y44.556
G1 F675 X44.8 Y87.397 E78.9585
G0 F6000 X46.4 Y87.397
G1 F675 X46.4 Y43.79 E83.91878
G0 F6000 X48 Y43.045
G1 F675 X48 Y87.397 E88.96381
G0 F6000 X49.6 Y87.397
G1 F675 X49.6 Y42.478 E94.07333
G0 F6000 X51.2 Y41.825
G1 F675 X51.2 Y87.397 E99.25713
G0 F6000 X52.8 Y87.397
G1 F675 X52.8 Y41.174 E104.51498
G0 F6000 X54.4 Y40.722
G1 F675 X54.4 Y87.397 E109.82424
G0 F6000 X56 Y87.397
G1 F675 X56 Y40.466 E115.16263
G0 F6000 X57.6 Y40.316
G1 F675 X57.6 Y87.386 E120.51682
G0 F6000 X59.2 Y87.27
G1 F675 X59.2 Y40.221 E125.86863
G0 F6000 X60.8 Y40.217
G1 F675 X60.8 Y87.303 E131.22465
G0 F6000 X62.4 Y87.397
G1 F675 X62.4 Y40.37 E136.57395
G0 F6000 X64 Y40.636
G1 F675 X64 Y87.397 E141.893
G0 F6000 X65.6 Y87.397
G1 F675 X65.6 Y40.929 E147.17872
G0 F6000 X67.2 Y41.359
G1 F675 X67.2 Y87.397 E152.41553
G0 F6000 X68.8 Y87.397
G1 F675 X68.8 Y41.91 E157.58966
G0 F6000 X70.4 Y42.446
G1 F675 X70.4 Y87.397 E162.70282
G0 F6000 X72 Y87.397
G1 F675 X72 Y43.122 E167.73909
G0 F6000 X73.6 Y44.053
G1 F675 X73.6 Y87.397 E172.66945
G0 F6000 X75.2 Y87.397
G1 F675 X75.2 Y44.97 E177.49551
G0 F6000 X76.8 Y45.83
G1 F675 X76.8 Y87.333 E182.21646
G0 F6000 X78.4 Y87.101
G1 F675 X78.4 Y46.9 E186.78931
G0 F6000 X80 Y48.246
G1 F675 X80 Y87.197 E191.21997
G0 F6000 X81.6 Y87.357
G1 F675 X81.6 Y49.874 E195.48365
G0 F6000 X83.2 Y51.942
G1 F675 X83.2 Y87.373 E199.51392
G0 F6000 X84.8 Y87.256
G1 F675 X84.8 Y53.451 E203.35922
G0 F6000 X86.4 Y53.537
G1 F675 X86.4 Y87.164 E207.18428
G0 F6000 X88 Y87.164
G1 F675 X88 Y53.537 E211.00934
G0 F6000 X89.6 Y53.571
G1 F675 X89.6 Y87.13 E214.82667
G0 F6000 X91.2 Y86.94
G1 F675 X91.2 Y53.762 E218.60066
G0 F6000 X92.8 Y54.125
G1 F675 X92.8 Y86.576 E222.29195
G0 F6000 X94.4 Y86.018
G1 F675 X94.4 Y54.69 E225.8555
G0 F6000 X96 Y55.47
G1 F675 X96 Y85.232 E229.24091
G0 F6000 X97.6 Y84.184
G1 F675 X97.6 Y56.511 E232.38871
G0 F6000 X99.2 Y57.912
G1 F675 X99.2 Y82.786 E235.21812
G0 F6000 X100.8 Y80.861
G1 F675 X100.8 Y59.846 E237.60857
G0 F6000 X102.4 Y62.84
G1 F675 X102.4 Y77.878 E239.31913
G0 F6000 X24 Y85.232
G1 F675 X24 Y55.47 E242.70455
G0 F6000 X22.4 Y56.518
G1 F675 X22.4 Y84.186 E245.85178
G0 F6000 X20.8 Y82.788
G1 F675 X20.8 Y57.916 E248.68096
G0 F6000 X19.2 Y59.841
G1 F675 X19.2 Y80.855 E251.07129
G0 F6000 X17.6 Y77.865
G1 F675 X17.6 Y62.823 E252.78232
;TIME_ELAPSED:208.648999
;LAYER:-8
G0 F6000 X17.589 Y62.844 Z.51
;TYPE:SUPPORT
G1 F675 X17.958 Y61.98 E252.82684
G1 X18.019 Y61.859 E252.83327
G1 X43.516 Y87.356 E254.54227
G1 X43.525 Y87.358 E254.54271
G1 X44.588 Y87.396 E254.59312
G1 X44.969 Y87.396 E254.61118
G1 X18.504 Y60.931 E256.38506
G1 X19.004 Y60.115 E256.43042
G1 X19.045 Y60.057 E256.43379
G1 X46.384 Y87.396 E258.26626
G1 X47.798 Y87.396 E258.33327
G1 X19.634 Y59.232 E260.22104
G1 X20.277 Y58.461 E260.26862
G1 X49.212 Y87.396 E262.20807
G1 X50.626 Y87.396 E262.27508
G1 X20.969 Y57.738 E264.26296
G1 X21.035 Y57.671 E264.26741
G1 X21.711 Y57.067 E264.31038
G1 X52.04 Y87.396 E266.34326
G1 X53.455 Y87.396 E266.41033
G1 X22.5 Y56.441 E268.48517
G1 X22.692 Y56.291 E268.49671
G1 X23.338 Y55.864 E268.53342
G1 X54.869 Y87.396 E270.6469
G1 X56.283 Y87.396 E270.71391
G1 X24.229 Y55.341 E272.86245
G1 X24.504 Y55.186 E272.87741
G1 X25.173 Y54.872 E272.91244
G1 X57.682 Y87.38 E275.09141
G1 X58.658 Y87.337 E275.13771
G1 X59.008 Y87.293 E275.15443
G1 X26.178 Y54.462 E277.35498
G1 X26.47 Y54.35 E277.3698
G1 X27.243 Y54.113 E277.40812
G1 X60.386 Y87.256 E279.62962
G1 X61.301 Y87.358 E279.67326
G1 X61.924 Y87.38 E279.7028
G1 X28.381 Y53.836 E281.95114
G1 X28.483 Y53.812 E281.95611
G1 X29.54 Y53.643 E282.00684
G1 X29.598 Y53.639 E282.0096
G1 X63.354 Y87.396 E284.27222
G1 X64.768 Y87.396 E284.33923
G1 X30.919 Y53.547 E286.60805
G1 X31.321 Y53.537 E286.62711
G1 X32.323 Y53.537 E286.6746
G1 X66.183 Y87.396 E288.94412
G1 X67.597 Y87.396 E289.01114
G1 X33.738 Y53.537 E291.28063
G1 X34.534 Y53.537 E291.31836
G1 X35.06 Y53.445 E291.34367
G1 X69.011 Y87.396 E293.61932
G1 X70.425 Y87.396 E293.68634
G1 X35.833 Y52.803 E296.00499
G1 X36.189 Y52.346 E296.03245
G1 X36.232 Y52.274 E296.03642
G1 X36.433 Y51.99 E296.05291
G1 X71.839 Y87.396 E298.42609
G1 X73.254 Y87.396 E298.49316
G1 X37.036 Y51.178 E300.92077
G1 X37.53 Y50.579 E300.95756
G1 X37.684 Y50.412 E300.96833
G1 X74.668 Y87.396 E303.44728
G1 X75.508 Y87.396 E303.48709
G1 X76.062 Y87.376 E303.51337
G1 X38.373 Y49.687 E306.03957
G1 X38.945 Y49.095 E306.07859
G1 X39.073 Y48.972 E306.087
G1 X77.37 Y87.269 E308.65396
G1 X77.625 Y87.242 E308.66611
G1 X78.58 Y87.066 E308.71214
G1 X39.795 Y48.281 E311.3118
G1 X39.844 Y48.238 E311.31489
G1 X40.269 Y47.873 E311.34145
G1 X40.348 Y47.808 E311.34629
G1 X40.546 Y47.617 E311.35933
G1 X80.152 Y87.223 E314.01403
G1 X81.229 Y87.343 E314.06539
G1 X81.702 Y87.359 E314.08782
G1 X41.278 Y46.934 E316.79738
G1 X41.324 Y46.893 E316.8003
G1 X42.045 Y46.288 E316.84491
G1 X83.131 Y87.373 E319.59877
G1 X83.872 Y87.348 E319.63391
G1 X84.46 Y87.288 E319.66193
G1 X42.859 Y45.688 E322.45031
G1 X43.025 Y45.568 E322.46002
G1 X43.724 Y45.138 E322.49891
G1 X85.748 Y87.162 E325.31568
G1 X87.162 Y87.162 E325.3827
G1 X44.639 Y44.639 E328.23292
G1 X44.773 Y44.569 E328.24008
G1 X45.362 Y44.284 E328.2711
G1 X45.59 Y44.176 E328.28305
G1 X88.577 Y87.162 E331.16434
G1 X88.678 Y87.163 E331.16912
G1 X89.401 Y87.145 E331.2034
G1 X89.929 Y87.101 E331.22851
G1 X46.548 Y43.719 E334.13627
G1 X47.312 Y43.348 E334.17653
G1 X47.506 Y43.263 E334.18656
G1 X91.184 Y86.941 E337.1142
G1 X91.516 Y86.889 E337.13012
G1 X92.349 Y86.692 E337.17069
G1 X48.501 Y42.844 E340.10972
G1 X49.294 Y42.562 E340.14961
G1 X49.561 Y42.49 E340.16272
G1 X93.446 Y86.375 E343.10423
G1 X93.528 Y86.351 E343.10828
G1 X94.473 Y85.988 E343.15626
G1 X50.608 Y42.123 E346.09642
G1 X51.417 Y41.715 E346.13937
G1 X51.557 Y41.657 E346.14655
G1 X95.44 Y85.54 E349.08792
G1 X95.495 Y85.515 E349.09078
G1 X96.348 Y85.034 E349.1372
G1 X52.566 Y41.252 E352.0718
G1 X53.409 Y40.972 E352.1139
G1 X53.642 Y40.914 E352.12528
G1 X97.204 Y84.476 E355.04514
G1 X97.306 Y84.41 E355.0509
G1 X98.008 Y83.866 E355.09299
G1 X54.792 Y40.65 E357.98966
G1 X55.512 Y40.522 E358.02432
G1 X56.021 Y40.464 E358.0486
G1 X98.764 Y83.208 E360.91359
G1 X98.964 Y83.029 E360.92631
G1 X99.472 Y82.502 E360.96101
G1 X57.313 Y40.342 E363.78686
G1 X57.575 Y40.317 E363.79933
G1 X58.129 Y40.277 E363.82566
G1 X58.636 Y40.251 E363.84972
G1 X100.131 Y81.747 E366.63106
G1 X100.373 Y81.455 E366.64904
G1 X100.741 Y80.942 E366.67896
G1 X60.002 Y40.203 E369.4096
G0 F6000 X60.454 Y40.196
G1 F675 X61.47 Y40.257 E369.45784
G1 X101.3 Y80.086 E372.12752
G1 X101.549 Y79.676 E372.15025
G1 X101.806 Y79.178 E372.17681
G1 X63.108 Y40.481 E374.77062
G1 X64.818 Y40.776 E374.85286
G1 X102.256 Y78.215 E377.36227
G1 X102.448 Y77.761 E377.38564
G1 X102.644 Y77.188 E377.41434
G1 X66.647 Y41.191 E379.82713
G1 X67.631 Y41.489 E379.87586
G1 X68.768 Y41.898 E379.93313
G1 X102.966 Y76.096 E382.22534
G1 X103.07 Y75.699 E382.24479
G1 X103.212 Y74.927 E382.282
G1 X70.914 Y42.63 E384.44682
G0 F6000 X70.916 Y42.63
G1 F675 X71.902 Y43.069 E384.49798
G1 X72.834 Y43.566 E384.54804
G1 X73.725 Y44.131 E384.59804
G1 X73.773 Y44.17 E384.60097
G1 X73.985 Y44.286 E384.61243
G1 X103.37 Y73.672 E386.58207
G1 X103.379 Y73.59 E386.58598
G1 X103.417 Y72.535 E386.63601
G1 X103.417 Y72.304 E386.64696
G1 X84.533 Y53.421 E387.91268
G1 X85.036 Y53.477 E387.93666
G1 X85.361 Y53.538 E387.95234
G1 X86.065 Y53.538 E387.9857
G1 X103.417 Y70.89 E389.14877
G1 X103.417 Y69.476 E389.21578
G1 X87.479 Y53.537 E390.2841
G1 X88.69 Y53.537 E390.3415
G1 X88.9 Y53.544 E390.35146
G1 X103.413 Y68.058 E391.32426
G1 X103.393 Y67.342 E391.35821
G1 X103.318 Y66.549 E391.39597
G1 X90.418 Y53.648 E392.26066
G1 X90.837 Y53.694 E392.28063
G1 X91.86 Y53.881 E392.32992
G1 X92.135 Y53.951 E392.34337
G1 X103.021 Y64.837 E393.07303
G1 X102.864 Y64.192 E393.1045
G1 X102.538 Y63.183 E393.15475
G1 X102.373 Y62.775 E393.17561
G1 X94.212 Y54.614 E393.72263
G1 X94.751 Y54.829 E393.75013
G1 X95.713 Y55.302 E393.80094
G1 X96.629 Y55.836 E393.85119
G1 X97.326 Y56.314 E393.89125
G1 X100.67 Y59.657 E394.11535
G0 F6000 X84.515 Y52.953
G0 X83.502 Y52.389
G1 F675 X77.143 Y46.03 E394.54158
G0 F6000 X70.916 Y42.63
G1 F675 X70.914 Y42.63 E394.54168
G0 F6000 X41.879 Y87.133
G1 F675 X41.427 Y87.051 E394.56345
G1 X41.068 Y86.954 E394.58108
G1 X40.428 Y87.097 E394.61216
G1 X17.225 Y63.894 E396.1674
G1 X17.197 Y63.978 E396.17159
G1 X16.928 Y65.002 E396.22177
G0 F6000 X16.926 Y65.009
G1 F675 X39.208 Y87.291 E397.71528
G1 X39.197 Y87.293 E397.71581
G1 X38.144 Y87.37 E397.76586
G1 X37.877 Y87.375 E397.77851
G1 X16.718 Y66.216 E399.19675
G1 X16.619 Y67.111 E399.23943
G1 X16.604 Y67.516 E399.25864
G1 X36.45 Y87.362 E400.58887
G1 X35.915 Y87.343 E400.61424
G1 X34.904 Y87.23 E400.66245
G1 X16.581 Y68.907 E401.8906
G1 X16.581 Y70.321 E401.95762
G1 X33.422 Y87.162 E403.08643
G1 X32.008 Y87.162 E403.15345
G1 X16.581 Y71.735 E404.18748
G1 X16.581 Y72.515 E404.22445
G1 X16.602 Y73.171 E404.25556
G1 X30.568 Y87.136 E405.19164
G1 X30.241 Y87.125 E405.20714
G1 X29.159 Y87.005 E405.25874
G1 X28.99 Y86.973 E405.26689
G1 X16.757 Y74.739 E406.08687
G1 X16.896 Y75.545 E406.12564
G1 X17.144 Y76.541 E406.17429
G1 X27.165 Y86.562 E406.84597
G1 X26.304 Y86.292 E406.88874
G1 X25.329 Y85.907 E406.93842
G1 X24.878 Y85.689 E406.96216
