;FLAVOR:RepRap
;TIME:3887
;Generated with Cura_SteamEngine 2.3.1
M190 S50
M104 S195
M109 S195
G21 ;metric values
G90 ;absolute positioning
M82 ;set extruder to absolute mode
M107 ;start with the fan off
G28 X0 Y0 ;move X/Y to min endstops
G28 Z0 ;move Z to min endstops
G1 Z15.0 F9000 ;move the platform down 15mm
G92 E0 ;zero the extruded length
G1 F200 E3 ;extrude 3mm of feed stock
G92 E0 ;zero the extruded length again
G1 F9000
;Put printing message on LCD screen
M117 Printing...
;LAYER_COUNT:235
;LAYER:-9
M107
G1 F3600 E-6
G0 F6000 X31.071 Y50.009 Z.36
G1 F3600 E0
G1 F675 X31.954 Y49.47 E0.11768
G1 X32.925 Y48.969 E0.24196
G1 X33.895 Y48.556 E0.36188
G1 X34.907 Y48.211 E0.4835
G1 X35.946 Y47.938 E0.6057
G1 X36.972 Y47.748 E0.72439
G1 X38.053 Y47.628 E0.84811
G1 X39.264 Y47.584 E0.98595
G1 X40.396 Y46.453 E1.16797
G1 X41.198 Y45.711 E1.29226
G1 X42.016 Y45.056 E1.41146
G1 X42.977 Y44.402 E1.54368
G1 X43.54 Y44.05 E1.61921
G1 X43.696 Y43.927 E1.64181
G1 X44.585 Y43.322 E1.76413
G1 X45.698 Y42.695 E1.90944
G1 X46.475 Y42.3 E2.00859
G1 X47.451 Y41.848 E2.13093
G1 X48.435 Y41.478 E2.25051
G1 X49.288 Y41.22 E2.35188
G1 X50.079 Y41.005 E2.44512
G1 X50.246 Y40.936 E2.46568
G1 X50.794 Y40.632 E2.53696
G1 X51.752 Y40.188 E2.65707
G1 X52.747 Y39.814 E2.77798
G1 X53.774 Y39.511 E2.89978
G1 X55.347 Y39.2 E3.08217
G1 X56.047 Y39.099 E3.16262
G1 X57.249 Y38.977 E3.30005
G1 X57.741 Y38.948 E3.35611
G1 X58.832 Y38.92 E3.48025
G1 X59.232 Y38.94 E3.52581
G1 X60.338 Y38.952 E3.65163
G1 X61.185 Y38.996 E3.7481
G1 X62.549 Y39.068 E3.90347
G1 X63.611 Y39.164 E4.02477
G1 X64.456 Y39.296 E4.12205
G1 X65.193 Y39.434 E4.20734
G1 X65.32 Y39.457 E4.22202
G1 X65.32 Y39.458 E4.22214
G1 X66.36 Y39.662 E4.34269
G1 X66.607 Y39.712 E4.37136
G1 X67.818 Y39.962 E4.51201
G1 X68.857 Y40.218 E4.63373
G1 X69.867 Y40.547 E4.75456
G1 X70.727 Y40.891 E4.85992
G1 X72.078 Y41.483 E5.0277
G1 X72.078 Y41.484 E5.02782
G1 X72.558 Y41.704 E5.08788
G1 X72.558 Y41.703 E5.08799
G1 X73.18 Y42.003 E5.16654
G1 X74.147 Y42.512 E5.29085
G1 X75.03 Y43.063 E5.40924
G1 X75.912 Y43.707 E5.53347
G1 X76.258 Y44.002 E5.58519
G1 X77.255 Y44.63 E5.71922
G1 X78.141 Y45.285 E5.84455
G1 X78.594 Y45.67 E5.91217
G1 X79.06 Y45.939 E5.97338
G1 X79.948 Y46.546 E6.09573
G1 X80.784 Y47.21 E6.21717
G1 X81.21 Y47.6 E6.28287
G1 X81.936 Y47.627 E6.36551
G1 X83.022 Y47.747 E6.48979
G1 X84.044 Y47.935 E6.608
G1 X85.068 Y48.203 E6.7284
G1 X86.107 Y48.557 E6.85326
G1 X87.066 Y48.964 E6.97176
G1 X88.024 Y49.456 E7.09426
G1 X88.931 Y50.01 E7.21516
G1 X89.801 Y50.632 E7.33681
G1 X90.611 Y51.306 E7.45667
G1 X91.374 Y52.041 E7.57718
G1 X92.099 Y52.85 E7.70075
G1 X92.755 Y53.699 E7.8228
G1 X93.333 Y54.572 E7.94189
G1 X93.86 Y55.51 E8.06428
G1 X94.31 Y56.468 E8.18467
G1 X94.67 Y57.4 E8.29832
G1 X94.783 Y57.724 E8.33735
G1 X94.902 Y58.082 E8.38026
G1 X94.912 Y58.113 E8.38397
G1 X95.009 Y58.426 E8.42124
G1 X95.218 Y59.133 E8.50511
G1 X95.349 Y59.608 E8.56115
G1 X95.381 Y59.723 E8.57473
G1 X95.399 Y59.797 E8.58339
G1 X95.404 Y59.81 E8.58498
G1 X95.451 Y59.994 E8.60658
G1 X95.482 Y60.113 E8.62057
G1 X95.499 Y60.178 E8.62821
G1 X95.536 Y60.32 E8.6449
G1 X95.7 Y60.971 E8.72127
G1 X95.794 Y61.388 E8.76989
G1 X95.793 Y61.388 E8.77001
G1 X95.962 Y62.257 E8.87071
G1 X96.022 Y62.59 E8.90919
G1 X96.023 Y62.59 E8.90931
G1 X96.118 Y63.157 E8.9747
G1 X96.196 Y63.687 E9.03564
G1 X96.222 Y63.887 E9.05858
G1 X96.222 Y63.908 E9.06097
G1 X96.257 Y64.122 E9.08564
G1 X96.312 Y64.486 E9.12751
G1 X96.313 Y64.486 E9.12762
G1 X96.363 Y64.848 E9.16919
G1 X96.432 Y65.39 E9.23134
G1 X96.443 Y65.474 E9.24098
G1 X96.459 Y65.613 E9.25689
G1 X96.506 Y66.079 E9.31017
G1 X96.567 Y66.788 E9.39112
G1 X96.568 Y66.788 E9.39123
G1 X96.586 Y67.109 E9.4278
G1 X96.586 Y67.135 E9.43076
G1 X96.618 Y67.678 E9.49263
G1 X96.636 Y68.019 E9.53148
G1 X96.635 Y68.019 E9.53159
G1 X96.66 Y68.596 E9.59728
G1 X96.667 Y69.665 E9.71889
G1 X96.596 Y70.736 E9.84098
G1 X96.451 Y71.772 E9.95997
G1 X96.225 Y72.821 E10.08203
G1 X95.922 Y73.853 E10.20438
G1 X95.546 Y74.86 E10.32665
G1 X95.108 Y75.811 E10.44575
G1 X94.593 Y76.744 E10.56697
G1 X94.006 Y77.644 E10.68919
G1 X93.36 Y78.494 E10.81064
G1 X92.658 Y79.288 E10.93119
G1 X91.895 Y80.037 E11.05281
G1 X91.083 Y80.721 E11.17358
G1 X90.217 Y81.35 E11.29533
G1 X89.303 Y81.916 E11.41762
G1 X88.367 Y82.406 E11.53779
G1 X87.4 Y82.826 E11.65772
G1 X86.379 Y83.182 E11.78071
G1 X85.355 Y83.458 E11.90135
G1 X84.296 Y83.662 E12.02402
G1 X83.256 Y83.784 E12.14313
G1 X82.063 Y83.832 E12.27895
G1 X80.724 Y83.832 E12.43126
G1 X79.662 Y83.794 E12.55214
G1 X78.769 Y83.695 E12.65434
G1 X78.315 Y83.807 E12.70753
G1 X77.248 Y83.991 E12.83069
G1 X76.212 Y84.092 E12.94909
G1 X75.286 Y84.12 E13.05447
G1 X71.482 Y84.12 E13.48718
G1 X70.42 Y84.082 E13.60806
G1 X69.345 Y83.963 E13.73109
G1 X68.741 Y83.849 E13.801
G1 X67.508 Y84.032 E13.94279
G1 X66.458 Y84.109 E14.06255
G1 X65.893 Y84.12 E14.12683
G1 X65.298 Y84.12 E14.19451
G1 X64.236 Y84.082 E14.31539
G1 X63.154 Y83.962 E14.43922
G1 X62.124 Y83.771 E14.55838
G1 X61.966 Y83.728 E14.57701
G1 X61.543 Y83.652 E14.6259
G1 X60.514 Y83.382 E14.74691
G1 X60.049 Y83.227 E14.80266
G1 X59.404 Y83.438 E14.87986
G1 X58.36 Y83.696 E15.00218
G1 X58.112 Y83.738 E15.0308
G1 X57.008 Y83.95 E15.15867
G1 X55.967 Y84.072 E15.27789
G1 X54.774 Y84.12 E15.41371
G1 X53.727 Y84.12 E15.5328
G1 X52.665 Y84.082 E15.65368
G1 X51.59 Y83.963 E15.77671
G1 X50.967 Y83.846 E15.84881
G1 X49.888 Y84.017 E15.97308
G1 X48.814 Y84.104 E16.09565
G1 X48.134 Y84.12 E16.17302
G1 X44.8 Y84.12 E16.55226
G1 X43.738 Y84.082 E16.67314
G1 X42.65 Y83.961 E16.79766
G1 X41.636 Y83.775 E16.91493
G1 X41.287 Y83.68 E16.95607
G1 X40.553 Y83.774 E17.04025
G1 X39.227 Y83.832 E17.19122
G1 X37.922 Y83.831 E17.33967
G1 X36.86 Y83.793 E17.46055
G1 X35.773 Y83.672 E17.58496
G1 X34.751 Y83.484 E17.70316
G1 X33.727 Y83.216 E17.82356
G1 X32.688 Y82.862 E17.94842
G1 X31.729 Y82.455 E18.06692
G1 X30.771 Y81.963 E18.18943
G1 X29.864 Y81.409 E18.31032
G1 X28.994 Y80.787 E18.43197
G1 X28.179 Y80.109 E18.55256
G1 X27.421 Y79.378 E18.67235
G1 X26.696 Y78.569 E18.79592
G1 X26.04 Y77.72 E18.91796
G1 X25.462 Y76.847 E19.03706
G1 X24.935 Y75.909 E19.15944
G1 X24.486 Y74.953 E19.27958
G1 X24.101 Y73.946 E19.40221
G1 X23.793 Y72.924 E19.52363
G1 X23.563 Y71.896 E19.64346
G1 X23.406 Y70.831 E19.76591
G1 X23.328 Y69.779 E19.8859
G1 X23.349 Y68.27 E20.05757
G1 X23.454 Y66.647 E20.24257
G1 X23.479 Y66.242 E20.28873
G1 X23.601 Y65.162 E20.41236
G1 X23.671 Y64.543 E20.48322
G1 X23.795 Y63.668 E20.58374
G1 X24.003 Y62.468 E20.72228
G1 X24.027 Y62.335 E20.73765
G1 X24.037 Y62.28 E20.74401
G1 X24.164 Y61.655 E20.81655
G1 X24.586 Y59.79 E21.03406
G1 X24.654 Y59.54 E21.06353
G1 X24.728 Y59.261 E21.09637
G1 X24.958 Y58.501 E21.18669
G1 X25.029 Y58.286 E21.21244
G1 X25.051 Y58.213 E21.22111
G1 X25.089 Y58.102 E21.23446
G1 X25.251 Y57.607 E21.29371
G1 X25.681 Y56.489 E21.42996
G1 X26.137 Y55.515 E21.55229
G1 X26.655 Y54.591 E21.67279
G1 X27.248 Y53.695 E21.79501
G1 X27.898 Y52.851 E21.91618
G1 X28.605 Y52.062 E22.03669
G1 X29.383 Y51.311 E22.15969
G1 X30.188 Y50.641 E22.27883
G1 X31.071 Y50.009 E22.40234
G0 F6000 X30.4 Y50.489
G1 F675 X30.4 Y81.736 E25.95668
G0 F6000 X32 Y82.57
G1 F675 X32 Y49.446 E29.72452
G0 F6000 X33.6 Y48.681
G1 F675 X33.6 Y83.172 E33.64786
G0 F6000 X35.2 Y83.566
G1 F675 X35.2 Y48.134 E37.67824
G0 F6000 X36.8 Y47.779
G1 F675 X36.8 Y83.786 E41.77403
G0 F6000 X38.4 Y83.831
G1 F675 X38.4 Y47.615 E45.89358
G0 F6000 X40 Y46.848
G1 F675 X40 Y83.799 E50.09675
G0 F6000 X41.6 Y83.765
G1 F675 X41.6 Y45.389 E54.462
G0 F6000 X43.2 Y44.262
G1 F675 X43.2 Y84.022 E58.98469
G0 F6000 X44.8 Y84.12
G1 F675 X44.8 Y43.2 E63.63933
G0 F6000 X46.4 Y42.338
G1 F675 X46.4 Y84.12 E68.39201
G0 F6000 X48 Y84.12
G1 F675 X48 Y41.641 E73.22399
G0 F6000 X49.6 Y41.135
G1 F675 X49.6 Y84.041 E78.10453
G0 F6000 X51.2 Y83.889
G1 F675 X51.2 Y40.443 E83.0465
G0 F6000 X52.8 Y39.798
G1 F675 X52.8 Y84.086 E88.08424
G0 F6000 X54.4 Y84.12
G1 F675 X54.4 Y39.387 E93.17261
G0 F6000 X56 Y39.105
G1 F675 X56 Y84.069 E98.28725
G0 F6000 X57.6 Y83.837
G1 F675 X57.6 Y38.956 E103.39244
G0 F6000 X59.2 Y38.939
G1 F675 X59.2 Y83.489 E108.45999
G0 F6000 X60.8 Y83.457
G1 F675 X60.8 Y38.976 E113.51969
G0 F6000 X62.4 Y39.061
G1 F675 X62.4 Y83.822 E118.61124
G0 F6000 X64 Y84.055
G1 F675 X64 Y39.225 E123.71064
G0 F6000 X65.6 Y39.513
G1 F675 X65.6 Y84.12 E128.78467
G0 F6000 X67.2 Y84.055
G1 F675 X67.2 Y39.835 E133.81468
G0 F6000 X68.8 Y40.204
G1 F675 X68.8 Y83.86 E138.78053
G0 F6000 X70.4 Y84.079
G1 F675 X70.4 Y40.761 E143.70794
G0 F6000 X72 Y41.449
G1 F675 X72 Y84.12 E148.56175
G0 F6000 X73.6 Y84.12
G1 F675 X73.6 Y42.225 E153.32729
G0 F6000 X75.2 Y43.188
G1 F675 X75.2 Y84.12 E157.9833
G0 F6000 X76.8 Y84.035
G1 F675 X76.8 Y44.344 E162.49813
G0 F6000 X78.4 Y45.506
G1 F675 X78.4 Y83.787 E166.85258
G0 F6000 X80 Y83.806
G1 F675 X80 Y46.588 E171.08612
G0 F6000 X81.6 Y47.615
G1 F675 X81.6 Y83.832 E175.20579
G0 F6000 X83.2 Y83.787
G1 F675 X83.2 Y47.78 E179.30158
G0 F6000 X84.8 Y48.133
G1 F675 X84.8 Y83.565 E183.33195
G0 F6000 X86.4 Y83.175
G1 F675 X86.4 Y48.682 E187.25552
G0 F6000 X88 Y49.444
G1 F675 X88 Y82.566 E191.02314
G0 F6000 X89.6 Y81.733
G1 F675 X89.6 Y50.489 E194.57713
G0 F6000 X91.2 Y51.874
G1 F675 X91.2 Y80.623 E197.84732
G0 F6000 X92.8 Y79.128
G1 F675 X92.8 Y53.767 E200.73213
G0 F6000 X94.4 Y56.701
G1 F675 X94.4 Y77.04 E203.04568
G0 F6000 X96 Y73.588
G1 F675 X96 Y62.468 E204.31058
G0 F6000 X28.8 Y51.873
G1 F675 X28.8 Y80.625 E207.58111
G0 F6000 X27.2 Y79.131
G1 F675 X27.2 Y53.767 E210.46625
G0 F6000 X25.6 Y56.699
G1 F675 X25.6 Y77.055 E212.78174
G0 F6000 X24 Y73.61
G1 F675 X24 Y62.485 E214.04721
;TIME_ELAPSED:177.992014
;LAYER:-8
G0 F6000 X24.003 Y62.467 Z.51
;TYPE:SUPPORT
G1 F675 X23.835 Y63.433 E214.09368
G1 X44.51 Y84.108 E215.47947
G1 X43.738 Y84.081 E215.51609
G1 X42.985 Y83.997 E215.552
G1 X23.656 Y64.668 E216.84757
G1 X23.6 Y65.161 E216.87109
G1 X23.512 Y65.939 E216.9082
G1 X41.256 Y83.683 E218.09754
G1 X40.553 Y83.773 E218.13113
G1 X39.957 Y83.798 E218.1594
G1 X23.414 Y67.255 E219.26824
G1 X23.349 Y68.269 E219.3164
G1 X23.344 Y68.599 E219.33204
G1 X38.575 Y83.83 E220.35294
G1 X37.922 Y83.83 E220.38389
G1 X37.132 Y83.801 E220.42135
G1 X23.345 Y70.014 E221.34546
G1 X23.405 Y70.83 E221.38424
G1 X23.519 Y71.603 E221.42128
G1 X35.545 Y83.628 E222.22732
G1 X34.75 Y83.483 E222.26562
G1 X33.726 Y83.215 E222.31579
G1 X33.713 Y83.21 E222.31645
G1 X23.951 Y73.448 E222.97077
G1 X24.101 Y73.944 E222.99533
G1 X24.485 Y74.951 E223.04641
G1 X24.879 Y75.791 E223.09038
G1 X31.345 Y82.257 E223.52378
G0 F6000 X45.935 Y84.118
G1 F675 X24.046 Y62.23 E224.99092
G1 X24.037 Y62.279 E224.99328
G1 X24.027 Y62.334 E224.99593
G1 X24.003 Y62.467 E225.00233
G0 F6000 X24.296 Y61.066
G1 F675 X47.349 Y84.118 E226.54749
G1 X45.935 Y84.118 E226.61451
G0 F6000 X48.749 Y84.104
G1 F675 X24.557 Y59.913 E228.23601
G1 X24.296 Y61.066 E228.29204
G0 F6000 X24.865 Y58.806
G1 F675 X50.049 Y83.99 E229.98006
G1 X49.888 Y84.016 E229.98779
G1 X48.814 Y84.103 E230.03886
G1 X48.749 Y84.104 E230.04194
G0 F6000 X51.399 Y83.926
G1 F675 X25.208 Y57.735 E231.79746
G1 X25.088 Y58.1 E231.81567
G1 X25.05 Y58.212 E231.82128
G1 X25.028 Y58.285 E231.82489
G1 X24.958 Y58.5 E231.83561
G1 X24.865 Y58.806 E231.85076
G0 F6000 X25.595 Y56.708
G1 F675 X52.979 Y84.092 E233.68625
G1 X52.664 Y84.081 E233.70119
G1 X51.589 Y83.962 E233.75245
G1 X51.399 Y83.926 E233.76161
G0 F6000 X54.42 Y84.118
G1 F675 X26.034 Y55.732 E235.66426
G1 X25.68 Y56.487 E235.70378
G1 X25.595 Y56.708 E235.71501
G0 F6000 X26.529 Y54.813
G1 F675 X55.793 Y84.077 E237.6765
G1 X54.773 Y84.118 E237.72488
G1 X54.42 Y84.118 E237.74162
G0 F6000 X57.067 Y83.937
G1 F675 X27.078 Y53.948 E239.75171
G1 X26.655 Y54.59 E239.78815
G1 X26.529 Y54.813 E239.80029
G0 F6000 X27.678 Y53.134
G1 F675 X58.256 Y83.712 E241.84986
G1 X58.112 Y83.737 E241.85678
G1 X57.067 Y83.937 E241.90721
G0 F6000 X59.396 Y83.438
G1 F675 X28.328 Y52.369 E243.98966
G1 X27.898 Y52.85 E244.02024
G1 X27.678 Y53.134 E244.03726
G0 F6000 X29.027 Y51.654
G1 F675 X60.838 Y83.466 E246.16951
G1 X60.513 Y83.381 E246.18544
G1 X60.048 Y83.226 E246.20867
G1 X59.404 Y83.437 E246.24079
G1 X59.396 Y83.438 E246.24117
G0 F6000 X62.655 Y83.868
G1 F675 X29.772 Y50.985 E248.44524
G1 X29.383 Y51.31 E248.46926
G1 X29.027 Y51.654 E248.49273
G0 F6000 X30.568 Y50.367
G1 F675 X64.283 Y84.082 E250.75256
G1 X64.235 Y84.081 E250.75484
G1 X63.153 Y83.961 E250.80643
G1 X62.655 Y83.868 E250.83045
G0 F6000 X65.734 Y84.119
G1 F675 X31.414 Y49.799 E253.13083
G1 X31.07 Y50.008 E253.14991
G1 X30.568 Y50.367 E253.17916
G0 F6000 X32.313 Y49.283
G1 F675 X67.09 Y84.061 E255.51022
G1 X66.457 Y84.108 E255.5403
G1 X65.893 Y84.119 E255.56704
G1 X65.734 Y84.119 E255.57457
G0 F6000 X68.349 Y83.905
G1 F675 X33.266 Y48.822 E257.9261
G1 X32.925 Y48.967 E257.94366
G1 X32.313 Y49.283 E257.97631
G0 F6000 X34.281 Y48.424
G1 F675 X69.879 Y84.021 E260.36233
G1 X69.345 Y83.962 E260.38779
G1 X68.741 Y83.848 E260.41692
G1 X68.349 Y83.905 E260.4357
G0 F6000 X71.388 Y84.116
G1 F675 X35.363 Y48.091 E262.85037
G1 X34.907 Y48.21 E262.8727
G1 X34.281 Y48.424 E262.90406
G0 F6000 X36.517 Y47.831
G1 F675 X72.805 Y84.119 E265.33636
G1 X71.482 Y84.119 E265.39906
G1 X71.388 Y84.116 E265.40352
G0 F6000 X74.22 Y84.119
G1 F675 X37.76 Y47.66 E267.84731
G1 X36.972 Y47.747 E267.88489
G1 X36.517 Y47.831 E267.90682
G0 F6000 X39.104 Y47.589
G1 F675 X75.623 Y84.108 E270.3546
G1 X75.286 Y84.119 E270.37058
G1 X74.22 Y84.119 E270.4211
G0 F6000 X76.948 Y84.019
G1 F675 X39.888 Y46.959 E272.90515
G1 X39.263 Y47.583 E272.94701
G1 X39.104 Y47.589 E272.95455
G0 F6000 X40.603 Y46.26
G1 F675 X78.173 Y83.83 E275.47278
G1 X77.247 Y83.99 E275.51731
G1 X76.948 Y84.019 E275.53155
G0 F6000 X79.536 Y83.778
G1 F675 X41.348 Y45.59 E278.0912
G1 X41.197 Y45.71 E278.10034
G1 X40.603 Y46.26 E278.13871
G0 F6000 X42.142 Y44.97
G1 F675 X81.002 Y83.831 E280.74344
G1 X80.724 Y83.831 E280.75662
G1 X79.661 Y83.792 E280.80703
G1 X79.536 Y83.778 E280.81299
G0 F6000 X82.402 Y83.816
G1 F675 X42.983 Y44.397 E283.45515
G1 X42.977 Y44.401 E283.4555
G1 X42.142 Y44.97 E283.50339
G0 F6000 X43.833 Y43.833
G1 F675 X83.727 Y83.727 E286.17739
G1 X83.256 Y83.783 E286.19987
G1 X82.402 Y83.816 E286.24037
G0 F6000 X84.949 Y83.535
G1 F675 X44.681 Y43.267 E288.93944
G1 X44.584 Y43.321 E288.9447
G1 X43.833 Y43.833 E288.98778
G0 F6000 X45.586 Y42.758
G1 F675 X86.088 Y83.259 E291.7025
G1 X85.354 Y83.457 E291.73854
G1 X84.949 Y83.535 E291.75808
G0 F6000 X87.153 Y82.911
G1 F675 X46.521 Y42.278 E294.48158
G1 X46.474 Y42.299 E294.48402
G1 X45.697 Y42.695 E294.52536
G1 X45.586 Y42.758 E294.53141
G0 F6000 X47.489 Y41.833
G1 F675 X88.154 Y82.497 E297.25705
G1 X87.399 Y82.825 E297.29607
G1 X87.153 Y82.911 E297.30842
G0 F6000 X89.095 Y82.024
G1 F675 X48.523 Y41.452 E300.02786
G1 X48.434 Y41.478 E300.03226
G1 X47.489 Y41.833 E300.0801
G0 F6000 X49.616 Y41.13
G1 F675 X89.98 Y81.495 E302.78564
G1 X89.302 Y81.916 E302.82346
G1 X89.095 Y82.024 E302.83453
G0 F6000 X90.814 Y80.914
G1 F675 X50.625 Y40.725 E305.5283
G1 X50.245 Y40.935 E305.54888
G1 X50.078 Y41.005 E305.55746
G1 X49.616 Y41.13 E305.58015
G0 F6000 X51.581 Y40.267
G1 F675 X91.598 Y80.284 E308.26239
G1 X91.082 Y80.72 E308.29441
G1 X90.814 Y80.914 E308.31009
G0 F6000 X92.333 Y79.605
G1 F675 X52.598 Y39.87 E310.97343
G1 X51.751 Y40.188 E311.01631
G1 X51.581 Y40.267 E311.0252
G0 F6000 X53.68 Y39.538
G1 F675 X93.02 Y78.878 E313.66207
G1 X92.657 Y79.287 E313.68798
G1 X92.333 Y79.605 E313.7095
G0 F6000 X93.657 Y78.101
G1 F675 X54.853 Y39.297 E316.31044
G1 X53.773 Y39.511 E316.36262
G1 X53.68 Y39.538 E316.36721
G0 F6000 X56.067 Y39.097
G1 F675 X94.246 Y77.275 E318.92623
G1 X94.004 Y77.643 E318.9471
G1 X93.657 Y78.101 E318.97434
G0 F6000 X94.783 Y76.398
G1 F675 X57.356 Y38.971 E321.48298
G1 X57.248 Y38.977 E321.48811
G1 X56.067 Y39.097 E321.54437
G0 F6000 X58.722 Y38.923
G1 F675 X95.266 Y75.467 E323.99383
G1 X95.107 Y75.81 E324.01174
G1 X94.783 Y76.398 E324.04356
G0 F6000 X95.689 Y74.476
G1 F675 X60.163 Y38.95 E326.42479
G1 X59.231 Y38.94 E326.46896
G1 X58.831 Y38.92 E326.48795
G0 F6000 X61.648 Y39.02
