;FLAVOR:RepRap
;TIME:7489
;Generated with Cura_SteamEngine 2.3.1
M190 S50
M104 S195
M109 S195
G21 ;metric values
G90 ;absolute positioning
M82 ;set extruder to absolute mode
M107 ;start with the fan off
G28 X0 Y0 ;move X/Y to min endstops
G28 Z0 ;move Z to min endstops
G1 Z15.0 F9000 ;move the platform down 15mm
G92 E0 ;zero the extruded length
G1 F200 E3 ;extrude 3mm of feed stock
G92 E0 ;zero the extruded length again
G1 F9000
;Put printing message on LCD screen
M117 Printing...
;LAYER_COUNT:138
;LAYER:0
M107
G1 F3600 E-6
G0 F6000 X35.649 Y19.45 Z.3
;TYPE:WALL-INNER
G1 F3600 E0
G1 F1800 X35.649 Y19.25 E0.00948
G1 X35.849 Y19.25 E0.01562
G1 X68.25 Y19.25 E1.55128
G1 X68.25 Y50.848 E3.04889
G1 X55.343 Y50.848 E3.66063
G1 X55.182 Y50.254 E3.6898
G1 X46.046 Y50.253 E4.12281
G1 X46.038 Y50.318 E4.12591
G1 X36.469 Y51.051 E4.58077
G1 X35.85 Y51.052 E4.61011
G1 X35.65 Y51.052 E4.61959
G1 X35.65 Y50.852 E4.62572
G1 X35.649 Y19.45 E6.11404
G0 F6000 X35.249 Y19.05
;TYPE:WALL-OUTER
G1 F1800 X35.249 Y18.85 E6.12352
G1 X35.449 Y18.85 E6.12966
G1 X68.65 Y18.85 E7.70324
G1 X68.65 Y51.248 E9.23877
G1 X54.956 Y51.248 E9.88781
G1 X54.784 Y51.248 E9.89596
G1 X54.782 Y51.248 E9.89605
G1 X54.445 Y51.248 E9.91203
G1 X54.737 Y51.078 E9.92031
G1 X54.807 Y51.037 E9.92415
G1 X54.956 Y50.95 E9.93132
G1 X54.876 Y50.654 E9.94585
G1 X54.703 Y50.654 E9.95313
G1 X46.398 Y50.653 E10.34675
G1 X46.393 Y50.692 E10.34861
G1 X36.487 Y51.451 E10.81949
G1 X35.45 Y51.452 E10.86864
G1 X35.25 Y51.452 E10.87812
G1 X35.25 Y51.252 E10.88426
G1 X35.249 Y19.05 E12.41049
G0 F6000 X35.835 Y19.43
;TYPE:SKIN
G1 F1800 X67.072 Y50.667 E14.50423
G0 X67.142 Y50.737
G0 F6000 X66.506 Y50.667
G1 F1800 X35.828 Y19.989 E16.56051
G0 X35.758 Y19.919
G0 F6000 X35.828 Y20.554
G1 F1800 X65.941 Y50.667 E18.57891
G0 X66.011 Y50.737
G0 F6000 X65.375 Y50.667
G1 F1800 X35.828 Y21.12 E20.55938
G0 X35.758 Y21.05
G0 F6000 X35.828 Y21.686
G1 F1800 X64.809 Y50.667 E22.5019
G0 X64.879 Y50.737
G0 F6000 X64.244 Y50.667
G1 F1800 X35.828 Y22.251 E24.40656
G0 X35.758 Y22.181
G0 F6000 X35.828 Y22.817
G1 F1800 X63.678 Y50.667 E26.27328
G0 X63.748 Y50.737
G0 F6000 X63.112 Y50.667
G1 F1800 X35.828 Y23.383 E28.10206
G0 X35.758 Y23.313
G0 F6000 X35.828 Y23.948
G1 F1800 X62.547 Y50.667 E29.89297
G0 X62.617 Y50.737
G0 F6000 X61.981 Y50.667
G1 F1800 X35.828 Y24.514 E31.64595
G0 X35.758 Y24.444
G0 F6000 X35.828 Y25.08
G1 F1800 X61.415 Y50.667 E33.36098
G0 X61.485 Y50.737
G0 F6000 X60.85 Y50.667
G1 F1800 X35.828 Y25.646 E35.03811
G0 X35.758 Y25.576
G0 F6000 X35.828 Y26.211
G1 F1800 X60.284 Y50.667 E36.67734
G0 X60.354 Y50.737
G0 F6000 X59.718 Y50.667
G1 F1800 X35.828 Y26.777 E38.27863
G0 X35.758 Y26.707
G0 F6000 X35.828 Y27.343
G1 F1800 X59.153 Y50.667 E39.84202
G0 X59.223 Y50.737
G0 F6000 X58.587 Y50.667
G1 F1800 X35.828 Y27.908 E41.3675
G0 X35.758 Y27.838
G0 F6000 X35.828 Y28.474
G1 F1800 X58.021 Y50.667 E42.85504
G0 X58.091 Y50.737
G0 F6000 X57.455 Y50.667
G1 F1800 X35.828 Y29.04 E44.30465
G0 X35.758 Y28.97
G0 F6000 X35.828 Y29.605
G1 F1800 X56.89 Y50.667 E45.71639
G0 X56.96 Y50.737
G0 F6000 X56.324 Y50.667
G1 F1800 X35.828 Y30.171 E47.09019
G0 X35.758 Y30.101
G0 F6000 X35.828 Y30.737
G1 F1800 X55.164 Y50.073 E48.38623
G0 X55.234 Y50.143
G0 F6000 X55.376 Y50.285
G1 F1800 X55.758 Y50.667 E48.41184
G0 F6000 X55.206 Y50.223
G0 X54.598 Y50.073
G1 F1800 X35.828 Y31.302 E49.66998
G0 X35.758 Y31.232
G0 F6000 X35.828 Y31.868
G1 F1800 X54.032 Y50.073 E50.89018
G0 X54.102 Y50.143
G0 F6000 X53.467 Y50.073
G1 F1800 X35.828 Y32.434 E52.07248
G0 X35.758 Y32.364
G0 F6000 X35.828 Y32.999
G1 F1800 X52.901 Y50.073 E53.21688
G0 X52.971 Y50.143
G0 F6000 X52.335 Y50.073
G1 F1800 X35.828 Y33.565 E54.32334
G0 X35.758 Y33.495
G0 F6000 X35.828 Y34.131
G1 F1800 X51.769 Y50.072 E55.39183
G0 X51.839 Y50.142
G0 F6000 X51.203 Y50.072
G1 F1800 X35.828 Y34.697 E56.42238
G0 X35.758 Y34.627
G0 F6000 X35.829 Y35.263
G1 F1800 X50.638 Y50.072 E57.41499
G0 X50.708 Y50.142
G0 F6000 X50.072 Y50.072
G1 F1800 X35.829 Y35.829 E58.36966
G0 X35.759 Y35.759
G0 F6000 X35.829 Y36.394
G1 F1800 X49.506 Y50.072 E59.28643
G0 X49.576 Y50.142
G0 F6000 X48.94 Y50.071
G1 F1800 X35.829 Y36.96 E60.16523
G0 X35.759 Y36.89
G0 F6000 X35.829 Y37.526
G1 F1800 X48.374 Y50.071 E61.00609
G0 X48.444 Y50.141
G0 F6000 X47.808 Y50.071
G1 F1800 X35.829 Y38.091 E61.80905
G0 X35.759 Y38.021
G0 F6000 X35.829 Y38.657
G1 F1800 X47.243 Y50.071 E62.5741
G0 X47.313 Y50.141
G0 F6000 X46.677 Y50.071
G1 F1800 X35.829 Y39.223 E63.30122
G0 X35.759 Y39.153
G0 F6000 X35.829 Y39.788
G1 F1800 X46.111 Y50.071 E63.99043
G0 X46.181 Y50.141
G0 F6000 X45.643 Y50.168
G1 F1800 X35.829 Y40.354 E64.64824
G0 X35.759 Y40.284
G0 F6000 X35.829 Y40.92
G1 F1800 X45.117 Y50.208 E65.27079
G0 X45.187 Y50.278
G0 F6000 X44.591 Y50.248
G1 F1800 X35.829 Y41.485 E65.85812
G0 X35.759 Y41.415
G0 F6000 X35.829 Y42.051
G1 F1800 X44.066 Y50.288 E66.41023
G0 X44.136 Y50.358
G0 F6000 X43.54 Y50.329
G1 F1800 X35.829 Y42.617 E66.92711
G0 X35.759 Y42.547
G0 F6000 X35.829 Y43.183
G1 F1800 X43.015 Y50.369 E67.40877
G0 X43.085 Y50.439
G0 F6000 X42.49 Y50.409
G1 F1800 X35.829 Y43.748 E67.85525
G0 X35.759 Y43.678
G0 F6000 X35.829 Y44.314
G1 F1800 X41.963 Y50.449 E68.26643
G0 X42.033 Y50.519
G0 F6000 X41.438 Y50.489
G1 F1800 X35.829 Y44.88 E68.64238
G0 X35.759 Y44.81
G0 F6000 X35.829 Y45.445
G1 F1800 X40.913 Y50.529 E68.98315
G0 X40.983 Y50.599
G0 F6000 X40.387 Y50.57
G1 F1800 X35.829 Y46.011 E69.2887
G0 X35.759 Y45.941
G0 F6000 X35.829 Y46.577
G1 F1800 X39.862 Y50.61 E69.55902
G0 X39.932 Y50.68
G0 F6000 X39.336 Y50.65
G1 F1800 X35.829 Y47.142 E69.79412
G0 X35.759 Y47.072
G0 F6000 X35.829 Y47.708
G1 F1800 X38.81 Y50.69 E69.99396
G0 X38.88 Y50.76
G0 F6000 X38.285 Y50.73
G1 F1800 X35.829 Y48.274 E70.15858
G0 X35.759 Y48.204
G0 F6000 X35.829 Y48.839
G1 F1800 X37.76 Y50.77 E70.28801
G0 X37.83 Y50.84
G0 F6000 X37.234 Y50.811
G1 F1800 X35.829 Y49.405 E70.38222
G0 X35.759 Y49.335
G0 F6000 X35.829 Y49.971
G1 F1800 X36.708 Y50.85 E70.44114
G0 X36.778 Y50.92
G0 F6000 X36.162 Y50.869
G1 F1800 X35.829 Y50.536 E70.46346
G0 F6000 X36.401 Y19.43
G1 F1800 X67.638 Y50.667 E72.5572
G0 X67.708 Y50.737
G0 F6000 X68.069 Y50.533
G1 F1800 X36.966 Y19.43 E74.64196
G0 X36.896 Y19.36
G0 F6000 X37.532 Y19.43
G1 F1800 X68.069 Y49.967 E76.68878
G0 X68.139 Y50.037
G0 F6000 X68.069 Y49.402
G1 F1800 X38.098 Y19.43 E78.6977
G0 X38.028 Y19.36
G0 F6000 X38.663 Y19.43
G1 F1800 X68.069 Y48.836 E80.66872
G0 X68.139 Y48.906
G0 F6000 X68.069 Y48.27
G1 F1800 X39.229 Y19.43 E82.60179
G0 X39.159 Y19.36
G0 F6000 X39.795 Y19.43
G1 F1800 X68.069 Y47.704 E84.49693
G0 X68.139 Y47.774
G0 F6000 X68.069 Y47.139
G1 F1800 X40.36 Y19.43 E86.3542
G0 X40.29 Y19.36
G0 F6000 X40.926 Y19.43
G1 F1800 X68.069 Y46.573 E88.17353
G0 X68.139 Y46.643
G0 F6000 X68.069 Y46.007
G1 F1800 X41.492 Y19.43 E89.95493
G0 X41.422 Y19.36
G0 F6000 X42.058 Y19.43
G1 F1800 X68.069 Y45.442 E91.69841
G0 X68.139 Y45.512
G0 F6000 X68.069 Y44.876
G1 F1800 X42.623 Y19.43 E93.404
G0 X42.553 Y19.36
G0 F6000 X43.189 Y19.43
G1 F1800 X68.069 Y44.31 E95.07165
G0 X68.139 Y44.38
G0 F6000 X68.069 Y43.745
G1 F1800 X43.755 Y19.43 E96.70139
G0 X43.685 Y19.36
G0 F6000 X44.32 Y19.43
G1 F1800 X68.069 Y43.179 E98.29323
G0 X68.139 Y43.249
G0 F6000 X68.069 Y42.613
G1 F1800 X44.886 Y19.43 E99.84713
G0 X44.816 Y19.36
G0 F6000 X45.452 Y19.43
G1 F1800 X68.069 Y42.048 E101.36313
G0 X68.139 Y42.118
G0 F6000 X68.069 Y41.482
G1 F1800 X46.017 Y19.43 E102.84122
G0 X45.947 Y19.36
G0 F6000 X46.583 Y19.43
G1 F1800 X68.069 Y40.916 E104.28138
G0 X68.139 Y40.986
G0 F6000 X68.069 Y40.351
G1 F1800 X47.149 Y19.43 E105.68363
G0 X47.079 Y19.36
G0 F6000 X47.714 Y19.43
G1 F1800 X68.069 Y39.785 E107.04798
G0 X68.139 Y39.855
G0 F6000 X68.069 Y39.219
G1 F1800 X48.28 Y19.43 E108.37439
G0 X48.21 Y19.36
G0 F6000 X48.846 Y19.43
G1 F1800 X68.069 Y38.653 E109.66286
G0 X68.139 Y38.723
G0 F6000 X68.069 Y38.088
G1 F1800 X49.411 Y19.43 E110.91346
G0 X49.341 Y19.36
G0 F6000 X49.977 Y19.43
G1 F1800 X68.069 Y37.522 E112.12612
G0 X68.139 Y37.592
G0 F6000 X68.069 Y36.956
G1 F1800 X50.543 Y19.43 E113.30085
G0 X50.473 Y19.36
G0 F6000 X51.108 Y19.43
G1 F1800 X68.069 Y36.391 E114.43771
G0 X68.139 Y36.461
G0 F6000 X68.069 Y35.825
G1 F1800 X51.674 Y19.43 E115.53662
G0 X51.604 Y19.36
G0 F6000 X52.24 Y19.43
G1 F1800 X68.069 Y35.259 E116.5976
G0 X68.139 Y35.329
G0 F6000 X68.069 Y34.694
G1 F1800 X52.806 Y19.43 E117.62068
G0 X52.736 Y19.36
G0 F6000 X53.371 Y19.43
G1 F1800 X68.069 Y34.128 E118.60585
G0 X68.139 Y34.198
G0 F6000 X68.069 Y33.562
G1 F1800 X53.937 Y19.43 E119.55309
G0 X53.867 Y19.36
G0 F6000 X54.503 Y19.43
G1 F1800 X68.069 Y32.997 E120.46242
G0 X68.139 Y33.067
G0 F6000 X68.069 Y32.431
G1 F1800 X55.068 Y19.43 E121.33384
G0 X54.998 Y19.36
G0 F6000 X55.634 Y19.43
G1 F1800 X68.069 Y31.865 E122.16733
G0 X68.139 Y31.935
G0 F6000 X68.069 Y31.3
G1 F1800 X56.2 Y19.43 E122.96292
G0 X56.13 Y19.36
G0 F6000 X56.765 Y19.43
G1 F1800 X68.069 Y30.734 E123.7206
G0 X68.139 Y30.804
G0 F6000 X68.069 Y30.168
G1 F1800 X57.331 Y19.43 E124.44034
G0 X57.261 Y19.36
G0 F6000 X57.897 Y19.43
G1 F1800 X68.069 Y29.603 E125.12218
G0 X68.139 Y29.673
G0 F6000 X68.069 Y29.037
G1 F1800 X58.462 Y19.43 E125.76611
G0 X58.392 Y19.36
G0 F6000 X59.028 Y19.43
G1 F1800 X68.069 Y28.471 E126.37211
G0 X68.139 Y28.541
G0 F6000 X68.069 Y27.905
G1 F1800 X59.594 Y19.43 E126.94017
G0 X59.524 Y19.36
G0 F6000 X60.159 Y19.43
G1 F1800 X68.069 Y27.34 E127.47036
G0 X68.139 Y27.41
G0 F6000 X68.069 Y26.774
G1 F1800 X60.725 Y19.43 E127.96261
G0 X60.655 Y19.36
G0 F6000 X61.291 Y19.43
G1 F1800 X68.069 Y26.208 E128.41692
G0 X68.139 Y26.278
G0 F6000 X68.069 Y25.643
G1 F1800 X61.856 Y19.43 E128.83336
G0 X61.786 Y19.36
G0 F6000 X62.422 Y19.43
G1 F1800 X68.069 Y25.077 E129.21187
G0 X68.139 Y25.147
G0 F6000 X68.069 Y24.511
G1 F1800 X62.988 Y19.43 E129.55244
G0 X62.918 Y19.36
G0 F6000 X63.554 Y19.43
G1 F1800 X68.069 Y23.946 E129.8551
G0 X68.139 Y24.016
G0 F6000 X68.069 Y23.38
G1 F1800 X64.119 Y19.43 E130.11986
G0 X64.049 Y19.36
G0 F6000 X64.685 Y19.43
G1 F1800 X68.069 Y22.814 E130.34668
G0 X68.139 Y22.884
G0 F6000 X68.069 Y22.249
G1 F1800 X65.251 Y19.43 E130.5356
G0 X65.181 Y19.36
G0 F6000 X65.816 Y19.43
G1 F1800 X68.069 Y21.683 E130.68661
G0 X68.139 Y21.753
G0 F6000 X68.069 Y21.117
G1 F1800 X66.382 Y19.43 E130.79969
G0 X66.312 Y19.36
G0 F6000 X66.948 Y19.43
G1 F1800 X68.069 Y20.552 E130.87486
G0 X68.139 Y20.622
G0 F6000 X68.069 Y19.986
G1 F1800 X67.513 Y19.43 E130.91213
G0 F6000 X67.513 Y19.65
G1 F3600 E124.91213
G0 F6000 X68.18 Y50.808
G0 X68.18 Y52.113
G0 X68.18 Y66.888
G0 X68.18 Y68.193
G0 X68.18 Y68.319
G0 X68.25 Y68.249
;TYPE:WALL-INNER
G1 F3600 E130.91213
G1 F1800 X84.351 Y68.249 E131.67524
G1 X84.351 Y100.75 E133.21565
G1 X68.648 Y100.75 E133.95991
G1 X68.648 Y100.65 E133.96465
G1 X35.65 Y100.65 E135.52861
G1 X35.65 Y67.949 E137.07849
G1 X60.65 Y67.949 E138.26339
G1 X60.65 Y68.153 E138.27306
G1 X68.25 Y68.153 E138.63326
G1 X68.25 Y68.249 E138.63781
G0 F6000 X68.65 Y67.849
;TYPE:WALL-OUTER
G1 F1800 X84.751 Y67.849 E139.40093
G1 X84.751 Y101.15 E140.97926
G1 X68.248 Y101.15 E141.76143
G1 X68.248 Y101.05 E141.76617
G1 X35.25 Y101.05 E143.33013
G1 X35.25 Y67.549 E144.91793
G1 X61.05 Y67.549 E146.14074
G1 X61.05 Y67.753 E146.15041
G1 X68.65 Y67.753 E146.51062
G1 X68.65 Y67.849 E146.51517
G0 F6000 X68.428 Y68.428
;TYPE:SKIN
G1 F1800 X84.171 Y84.171 E147.57038
G0 X84.241 Y84.241
G0 F6000 X84.171 Y84.736
G1 F1800 X67.766 Y68.331 E148.66997
G0 X67.696 Y68.261
G0 F6000 X67.2 Y68.331
G1 F1800 X84.171 Y85.302 E149.8075
G0 X84.241 Y85.372
G0 F6000 X84.171 Y85.868
G1 F1800 X66.634 Y68.331 E150.98296
G0 X66.564 Y68.261
G0 F6000 X66.069 Y68.331
G1 F1800 X84.171 Y86.433 E152.19629
G0 X84.241 Y86.503
G0 F6000 X84.171 Y86.999
G1 F1800 X65.503 Y68.331 E153.44757
G0 X65.433 Y68.261
G0 F6000 X64.937 Y68.331
G1 F1800 X84.171 Y87.565 E154.73678
G0 X84.241 Y87.635
G0 F6000 X84.171 Y88.13
G1 F1800 X64.372 Y68.331 E156.06386
G0 X64.302 Y68.261
G0 F6000 X63.806 Y68.331
G1 F1800 X84.171 Y88.696 E157.42887
G0 X84.241 Y88.766
G0 F6000 X84.171 Y89.262
G1 F1800 X63.24 Y68.331 E158.83183
G0 X63.17 Y68.261
G0 F6000 X62.675 Y68.331
G1 F1800 X84.171 Y89.828 E160.27269
G0 X84.241 Y89.898
G0 F6000 X84.171 Y90.393
G1 F1800 X62.109 Y68.331 E161.75145
G0 X62.039 Y68.261
G0 F6000 X61.543 Y68.331
G1 F1800 X84.171 Y90.959 E163.26815
G0 X84.241 Y91.029
G0 F6000 X84.171 Y91.525
G1 F1800 X60.978 Y68.331 E164.82276
G0 X60.908 Y68.261
G0 F6000 X60.208 Y68.128
G1 F1800 X84.171 Y92.09 E166.42891
G0 X84.241 Y92.16
G0 F6000 X84.171 Y92.656
G1 F1800 X59.643 Y68.128 E168.07296
G0 X59.573 Y68.058
G0 F6000 X59.077 Y68.128
G1 F1800 X84.171 Y93.222 E169.75495
G0 X84.241 Y93.292
G0 F6000 X84.171 Y93.787
G1 F1800 X58.511 Y68.128 E171.47485
G0 X58.441 Y68.058
G0 F6000 X57.945 Y68.128
G1 F1800 X84.171 Y94.353 E173.23268
G0 X84.241 Y94.423
G0 F6000 X84.171 Y94.919
G1 F1800 X57.38 Y68.128 E175.02842
G0 X57.31 Y68.058
G0 F6000 X56.814 Y68.128
G1 F1800 X84.171 Y95.484 E176.86206
G0 X84.241 Y95.554
G0 F6000 X84.171 Y96.05
G1 F1800 X56.248 Y68.128 E178.73364
G0 X56.178 Y68.058
G0 F6000 X55.683 Y68.128
G1 F1800 X84.171 Y96.616 E180.64312
G0 X84.241 Y96.686
G0 F6000 X84.171 Y97.181
G1 F1800 X55.117 Y68.128 E182.59051
G0 X55.047 Y68.058
G0 F6000 X54.551 Y68.128
G1 F1800 X84.171 Y97.747 E184.57584
G0 X84.241 Y97.817
G0 F6000 X84.171 Y98.313
G1 F1800 X53.986 Y68.128 E186.59906
G0 X53.916 Y68.058
G0 F6000 X53.42 Y68.128
G1 F1800 X84.171 Y98.878 E188.6602
G0 X84.241 Y98.948
G0 F6000 X84.171 Y99.444
G1 F1800 X52.854 Y68.128 E190.75927
G0 X52.784 Y68.058
G0 F6000 X52.289 Y68.128
G1 F1800 X84.171 Y100.01 E192.89624
G0 X84.241 Y100.08
G0 F6000 X84.164 Y100.568
G1 F1800 X51.723 Y68.128 E195.07065
G0 X51.653 Y68.058
G0 F6000 X51.157 Y68.128
G1 F1800 X83.598 Y100.568 E197.24506
G0 X83.668 Y100.638
G0 F6000 X83.032 Y100.568
G1 F1800 X50.592 Y68.128 E199.41944
G0 X50.522 Y68.058
G0 F6000 X50.026 Y68.128
G1 F1800 X82.467 Y100.568 E201.59385
G0 X82.537 Y100.638
G0 F6000 X81.901 Y100.568
G1 F1800 X49.46 Y68.128 E203.76826
G0 X49.39 Y68.058
G0 F6000 X48.895 Y68.128
G1 F1800 X81.335 Y100.568 E205.94264
G0 X81.405 Y100.638
G0 F6000 X80.769 Y100.568
G1 F1800 X48.329 Y68.128 E208.11701
G0 X48.259 Y68.058
G0 F6000 X47.763 Y68.128
G1 F1800 X80.204 Y100.568 E210.29142
G0 X80.274 Y100.638
G0 F6000 X79.638 Y100.568
G1 F1800 X47.197 Y68.128 E212.46583
G0 X47.127 Y68.058
G0 F6000 X46.632 Y68.128
G1 F1800 X79.072 Y100.568 E214.64021
G0 X79.142 Y100.638
G0 F6000 X78.507 Y100.568
G1 F1800 X46.066 Y68.128 E216.81462
G0 X45.996 Y68.058
G0 F6000 X45.5 Y68.128
G1 F1800 X77.941 Y100.568 E218.98903
G0 X78.011 Y100.638
G0 F6000 X77.375 Y100.568
G1 F1800 X44.935 Y68.128 E221.1634
G0 X44.865 Y68.058
G0 F6000 X44.369 Y68.128
G1 F1800 X76.81 Y100.568 E223.33781
G0 X76.88 Y100.638
G0 F6000 X76.244 Y100.568
G1 F1800 X43.803 Y68.128 E225.51222
G0 X43.733 Y68.058
G0 F6000 X43.238 Y68.128
G1 F1800 X75.678 Y100.568 E227.6866
G0 X75.748 Y100.638
G0 F6000 X75.113 Y100.568
G1 F1800 X42.672 Y68.128 E229.86101
G0 X42.602 Y68.058
G0 F6000 X42.106 Y68.128
G1 F1800 X74.547 Y100.568 E232.03542
G0 X74.617 Y100.638
G0 F6000 X73.981 Y100.568
G1 F1800 X41.541 Y68.128 E234.2098
G0 X41.471 Y68.058
G0 F6000 X40.975 Y68.128
G1 F1800 X73.416 Y100.568 E236.38421
G0 X73.486 Y100.638
G0 F6000 X72.85 Y100.568
G1 F1800 X40.409 Y68.128 E238.55862
G0 X40.339 Y68.058
G0 F6000 X39.844 Y68.128
G1 F1800 X72.284 Y100.568 E240.73299
G0 X72.354 Y100.638
G0 F6000 X71.719 Y100.568
G1 F1800 X39.278 Y68.128 E242.9074
G0 X39.208 Y68.058
G0 F6000 X38.712 Y68.128
G1 F1800 X71.153 Y100.568 E245.08181
G0 X71.223 Y100.638
G0 F6000 X70.587 Y100.568
G1 F1800 X38.146 Y68.128 E247.25622
G0 X38.076 Y68.058
G0 F6000 X37.581 Y68.128
G1 F1800 X70.021 Y100.568 E249.4306
G0 X70.091 Y100.638
G0 F6000 X69.456 Y100.568
G1 F1800 X37.015 Y68.128 E251.60501
G0 X36.945 Y68.058
G0 F6000 X36.449 Y68.128
G1 F1800 X68.79 Y100.469 E253.77275
G0 X68.86 Y100.539
G0 F6000 X68.827 Y100.506
G1 F1800 X68.89 Y100.568 E253.77694
G0 F6000 X68.225 Y100.469
G1 F1800 X35.884 Y68.128 E255.94468
G0 X35.814 Y68.058
G0 F6000 X35.829 Y68.639
G1 F1800 X67.659 Y100.469 E258.07817
G0 X67.729 Y100.539
