;FLAVOR:RepRap
;TIME:335
;Generated with Cura_SteamEngine 2.3.1
M190 S50
M104 S195
M109 S195
G21 ;metric values
G90 ;absolute positioning
M82 ;set extruder to absolute mode
M107 ;start with the fan off
G28 X0 Y0 ;move X/Y to min endstops
G28 Z0 ;move Z to min endstops
G1 Z15.0 F9000 ;move the platform down 15mm
G92 E0 ;zero the extruded length
G1 F200 E3 ;extrude 3mm of feed stock
G92 E0 ;zero the extruded length again
G1 F9000
;Put printing message on LCD screen
M117 Printing...
;LAYER_COUNT:13
;LAYER:0
M107
G1 F3600 E-6
G0 F6000 X44.436 Y42.438 Z.3
G0 X44.081 Y42.878
;TYPE:SKIRT
G1 F3600 E0
G1 F1800 X44.436 Y42.438 E0.0268
G1 X44.85 Y42.052 E0.05362
G1 X45.152 Y41.831 E0.07136
G1 X46.598 Y40.871 E0.15362
G1 X47.089 Y40.592 E0.18039
G1 X47.616 Y40.385 E0.20722
G1 X48.028 Y40.28 E0.22737
G1 X49.824 Y39.922 E0.31417
G1 X50.385 Y39.851 E0.34097
G1 X50.95 Y39.86 E0.36775
G1 X51.281 Y39.902 E0.38357
G1 X57.488 Y40.964 E0.68203
G1 X62.869 Y41.566 E0.93866
G1 X68.315 Y41.866 E1.19716
G1 X72.466 Y41.91 E1.39391
G1 X73.03 Y41.956 E1.42073
G1 X73.732 Y42.13 E1.45501
G1 X74.284 Y42.321 E1.4827
G1 X74.804 Y42.543 E1.5095
G1 X75.287 Y42.836 E1.53627
G1 X75.822 Y43.29 E1.56953
G1 X76.453 Y43.929 E1.61209
G1 X76.821 Y44.359 E1.63891
G1 X77.125 Y44.836 E1.66572
G1 X77.256 Y45.102 E1.67978
G1 X77.606 Y45.882 E1.7203
G1 X77.801 Y46.413 E1.74711
G1 X77.917 Y46.958 E1.77352
G1 X78.064 Y47.994 E1.82311
G1 X78.103 Y48.658 E1.85463
G1 X77.946 Y54.85 E2.1482
G1 X78.085 Y59.371 E2.36258
G1 X78.075 Y59.803 E2.38306
G1 X77.959 Y61.302 E2.45432
G1 X77.876 Y61.861 E2.4811
G1 X77.714 Y62.403 E2.50792
G1 X77.579 Y62.721 E2.52429
G1 X77.124 Y63.671 E2.57421
G1 X76.844 Y64.162 E2.601
G1 X76.322 Y64.794 E2.63985
G1 X75.808 Y65.3 E2.67404
G1 X75.378 Y65.667 E2.70083
G1 X74.901 Y65.97 E2.72761
G1 X74.324 Y66.224 E2.75749
G1 X73.747 Y66.426 E2.78647
G1 X73.201 Y66.575 E2.81329
G1 X72.47 Y66.651 E2.84813
G1 X68.155 Y66.7 E3.05265
G1 X62.693 Y67.009 E3.31194
G1 X57.324 Y67.619 E3.56805
G1 X51.295 Y68.657 E3.858
G1 X50.732 Y68.713 E3.88481
G1 X50.167 Y68.69 E3.91162
G1 X49.836 Y68.638 E3.9275
G1 X48.026 Y68.278 E4.01496
G1 X47.48 Y68.129 E4.04179
G1 X46.962 Y67.904 E4.06855
G1 X46.588 Y67.684 E4.08912
G1 X45.06 Y66.666 E4.17614
G1 X44.613 Y66.32 E4.20293
G1 X44.219 Y65.914 E4.22975
G1 X43.895 Y65.472 E4.25572
G1 X42.84 Y63.8 E4.34942
G1 X42.573 Y63.301 E4.37624
G1 X42.379 Y62.77 E4.40304
G1 X42.297 Y62.433 E4.41948
G1 X41.97 Y60.761 E4.50022
G1 X41.901 Y60.2 E4.52701
G1 X41.897 Y59.909 E4.54081
G1 X42.042 Y53.008 E4.86796
G1 X41.899 Y48.692 E5.07263
G1 X41.92 Y48.127 E5.09943
G1 X41.974 Y47.781 E5.11602
G1 X42.332 Y45.977 E5.20319
G1 X42.48 Y45.432 E5.22996
G1 X42.705 Y44.913 E5.25677
G1 X42.972 Y44.471 E5.28124
G1 X44.081 Y42.878 E5.37324
G0 F6000 X44.409 Y43.106
G1 F1800 X44.748 Y42.69 E5.39867
G1 X45.144 Y42.329 E5.42407
G1 X45.373 Y42.164 E5.43745
G1 X46.819 Y41.204 E5.51971
G1 X47.286 Y40.941 E5.54511
G1 X47.788 Y40.751 E5.57055
G1 X48.106 Y40.672 E5.58608
G1 X49.902 Y40.314 E5.67288
G1 X50.435 Y40.249 E5.69833
G1 X51.213 Y40.297 E5.73527
G1 X57.41 Y41.357 E6.03325
G1 X62.837 Y41.964 E6.29207
G1 X68.311 Y42.266 E6.55191
G1 X72.462 Y42.31 E6.74866
G1 X72.997 Y42.356 E6.77411
G1 X73.601 Y42.508 E6.80363
G1 X74.153 Y42.699 E6.83131
G1 X74.646 Y42.912 E6.85677
G1 X75.101 Y43.195 E6.88216
G1 X75.538 Y43.572 E6.90952
G1 X76.169 Y44.211 E6.95208
G1 X76.516 Y44.619 E6.97747
G1 X76.891 Y45.266 E7.01291
G1 X77.241 Y46.046 E7.05343
G1 X77.424 Y46.55 E7.07884
G1 X77.521 Y47.014 E7.10131
G1 X77.668 Y48.05 E7.1509
G1 X77.703 Y48.647 E7.17925
G1 X77.545 Y54.852 E7.47343
G1 X77.685 Y59.383 E7.68829
G1 X77.676 Y59.772 E7.70673
G1 X77.56 Y61.271 E7.77799
G1 X77.479 Y61.801 E7.8034
G1 X77.218 Y62.548 E7.8409
G1 X76.763 Y63.498 E7.89082
G1 X76.496 Y63.963 E7.91624
G1 X76.042 Y64.508 E7.94986
G1 X75.528 Y65.014 E7.98404
G1 X75.118 Y65.361 E8.0095
G1 X74.662 Y65.643 E8.03491
G1 X74.192 Y65.847 E8.0592
G1 X73.615 Y66.049 E8.08817
G1 X73.097 Y66.188 E8.11359
G1 X72.466 Y66.251 E8.14365
G1 X68.128 Y66.3 E8.34926
G1 X62.678 Y66.609 E8.60798
G1 X57.262 Y67.224 E8.86633
G1 X51.227 Y68.263 E9.15657
G1 X50.693 Y68.314 E9.18199
G1 X49.914 Y68.246 E9.21905
G1 X48.104 Y67.886 E9.30652
G1 X47.587 Y67.742 E9.33196
G1 X47.097 Y67.524 E9.35738
G1 X46.81 Y67.351 E9.37326
G1 X45.282 Y66.333 E9.46028
G1 X44.859 Y66.003 E9.48571
G1 X44.49 Y65.614 E9.51112
G1 X44.233 Y65.258 E9.53193
G1 X43.178 Y63.586 E9.62563
G1 X42.927 Y63.112 E9.65105
G1 X42.69 Y62.356 E9.6886
G1 X42.363 Y60.684 E9.76935
G1 X42.297 Y59.918 E9.80579
G1 X42.442 Y53.003 E10.1336
G1 X42.299 Y48.679 E10.33865
G1 X42.321 Y48.143 E10.36408
G1 X42.366 Y47.859 E10.37771
G1 X42.724 Y46.055 E10.46488
G1 X42.867 Y45.538 E10.4903
G1 X43.086 Y45.049 E10.5157
G1 X43.3 Y44.699 E10.53514
G1 X44.409 Y43.106 E10.62713
G0 F6000 X44.738 Y43.335
G1 F1800 X45.058 Y42.944 E10.65108
G1 X45.594 Y42.497 E10.68416
G1 X47.04 Y41.537 E10.76642
G1 X47.482 Y41.292 E10.79037
G1 X48.184 Y41.065 E10.82534
G1 X49.98 Y40.707 E10.91214
G1 X50.483 Y40.647 E10.93615
G1 X51.146 Y40.691 E10.96764
G1 X57.368 Y41.755 E11.26682
G1 X62.806 Y42.364 E11.52617
G1 X68.284 Y42.666 E11.7862
G1 X72.458 Y42.71 E11.98404
G1 X72.962 Y42.755 E12.00802
G1 X73.47 Y42.886 E12.03288
G1 X74.022 Y43.077 E12.06057
G1 X74.486 Y43.279 E12.08455
G1 X74.911 Y43.552 E12.10849
G1 X75.253 Y43.853 E12.13009
G1 X75.884 Y44.492 E12.17265
G1 X76.21 Y44.878 E12.1966
G1 X76.527 Y45.43 E12.22677
G1 X76.877 Y46.21 E12.26729
G1 X77.046 Y46.686 E12.29123
G1 X77.125 Y47.07 E12.30981
G1 X77.272 Y48.106 E12.3594
G1 X77.303 Y48.637 E12.38461
G1 X77.145 Y54.854 E12.67936
G1 X77.285 Y59.395 E12.89469
G1 X77.277 Y59.741 E12.91109
G1 X77.161 Y61.24 E12.98235
G1 X77.083 Y61.739 E13.00629
G1 X76.857 Y62.375 E13.03828
G1 X76.402 Y63.325 E13.0882
G1 X76.148 Y63.763 E13.1122
G1 X75.761 Y64.223 E13.14069
G1 X75.247 Y64.729 E13.17488
G1 X74.86 Y65.055 E13.19886
G1 X74.426 Y65.315 E13.22284
G1 X74.059 Y65.469 E13.2417
G1 X73.482 Y65.671 E13.27068
G1 X72.993 Y65.8 E13.29465
G1 X72.461 Y65.851 E13.31998
G1 X68.123 Y65.9 E13.52559
G1 X62.647 Y66.211 E13.78555
G1 X57.201 Y66.829 E14.04532
G1 X51.159 Y67.869 E14.3359
G1 X50.656 Y67.915 E14.35984
G1 X49.992 Y67.854 E14.39144
G1 X48.182 Y67.494 E14.47891
G1 X47.695 Y67.356 E14.5029
G1 X47.032 Y67.018 E14.53817
G1 X45.504 Y66 E14.62519
G1 X45.106 Y65.687 E14.64919
G1 X44.763 Y65.316 E14.67314
G1 X44.572 Y65.045 E14.68885
G1 X43.517 Y63.373 E14.78255
G1 X43.282 Y62.925 E14.80653
G1 X43.082 Y62.279 E14.83858
G1 X42.755 Y60.607 E14.91933
G1 X42.697 Y59.926 E14.95172
G1 X42.842 Y52.998 E15.28015
G1 X42.699 Y48.666 E15.48558
G1 X42.758 Y47.937 E15.52025
G1 X43.116 Y46.133 E15.60741
G1 X43.253 Y45.647 E15.63135
G1 X43.466 Y45.188 E15.65533
G1 X43.629 Y44.928 E15.66987
G1 X44.738 Y43.335 E15.76187
G1 F3600 E9.76187
G0 F6000 X45.209 Y48.561
G0 X45.621 Y50.628
G0 X46.791 Y52.382
G0 X48.545 Y53.552
G0 X50.612 Y53.964
G0 X52.444 Y53.596
G0 X54.761 Y56.68
G0 X54.106 Y57.96
G0 X54.162 Y57.99
G0 X50.597 Y55.888
;TYPE:WALL-INNER
G1 F3600 E15.76187
G1 F1800 X52.171 Y56.195 E15.83788
G1 X52.186 Y56.198 E15.8386
G1 X53.509 Y57.083 E15.91404
G1 X53.521 Y57.091 E15.91473
G1 X54.088 Y57.94 E15.96311
G1 X54.447 Y57.94 E15.98013
G1 X72.237 Y57.94 E16.8233
G1 X72.692 Y58.075 E16.84579
G1 X73.089 Y58.469 E16.8723
G1 X73.395 Y59.148 E16.9076
G1 X73.508 Y60 E16.94833
G1 X73.395 Y60.852 E16.98907
G1 X73.088 Y61.532 E17.02443
G1 X72.692 Y61.925 E17.05087
G1 X72.234 Y62.061 E17.07352
G1 X54.446 Y62.061 E17.91659
G1 X54.088 Y62.061 E17.93356
G1 X53.521 Y62.909 E17.98191
G1 X53.511 Y62.916 E17.98249
G1 X52.186 Y63.802 E18.05803
G1 X52.171 Y63.805 E18.05876
G1 X50.612 Y64.114 E18.13408
G1 X50.597 Y64.112 E18.1348
G0 X50.61 Y64.11
G1 X52.169 Y63.799 E18.13577
G0 X52.178 Y63.793
G1 X53.503 Y62.907 E18.13803
G1 X54.074 Y62.053 E18.14047
G1 X54.272 Y61.755 E18.15024
G1 X54.394 Y61.573 E18.16063
G1 X54.708 Y60 E18.23665
G1 X54.394 Y58.427 E18.31267
G1 X54.274 Y58.247 E18.32293
G1 X54.075 Y57.949 E18.3327
G1 X53.503 Y57.093 E18.33439
G1 X52.179 Y56.209 E18.33626
G0 X52.169 Y56.202
G1 X50.597 Y55.888 E18.33693
G0 F6000 X54.162 Y57.99
G0 X57.22 Y59.092
G0 X57.306 Y59.141
G1 F1800 X57.136 Y59.784 E18.36845
G1 X57.307 Y60.424 E18.39985
G1 X57.776 Y60.894 E18.43132
G1 X58.419 Y61.067 E18.46288
G1 X59.062 Y60.894 E18.49444
G1 X59.487 Y60.467 E18.52299
G1 X59.53 Y60.424 E18.52587
G1 X59.548 Y60.356 E18.52921
G1 X59.669 Y59.907 E18.55124
G1 X59.788 Y60.354 E18.55829
G1 X59.807 Y60.424 E18.56172
G1 X59.85 Y60.467 E18.56461
G1 X60.276 Y60.894 E18.59319
G1 X60.919 Y61.067 E18.62475
G1 X61.562 Y60.894 E18.65631
G1 X61.987 Y60.467 E18.68487
G1 X62.03 Y60.424 E18.68775
G1 X62.048 Y60.356 E18.69108
G1 X62.169 Y59.905 E18.71321
G1 X62.289 Y60.354 E18.72031
G1 X62.308 Y60.424 E18.72375
G1 X62.351 Y60.467 E18.72663
G1 X62.777 Y60.894 E18.75522
G1 X63.42 Y61.067 E18.78678
G1 X64.063 Y60.894 E18.81834
G1 X64.489 Y60.466 E18.84696
G1 X64.531 Y60.424 E18.84978
G1 X64.549 Y60.355 E18.85316
G1 X64.671 Y59.904 E18.8753
G1 X64.791 Y60.354 E18.88246
G1 X64.81 Y60.424 E18.8842
G1 X64.852 Y60.466 E18.88702
G1 X65.278 Y60.894 E18.91564
G1 X65.921 Y61.067 E18.9472
G1 X66.564 Y60.894 E18.97876
G1 X66.99 Y60.466 E19.00738
G1 X67.032 Y60.424 E19.01019
G1 X67.05 Y60.355 E19.01357
G1 X67.172 Y59.904 E19.03572
G1 X67.292 Y60.354 E19.04287
G1 X67.311 Y60.424 E19.04462
G1 X67.353 Y60.466 E19.04744
G1 X67.779 Y60.894 E19.07606
G1 X68.422 Y61.067 E19.10762
G1 X69.065 Y60.894 E19.13918
G1 X69.533 Y60.424 E19.17061
G1 X69.705 Y59.783 E19.20207
G1 X69.533 Y59.141 E19.23357
G1 X69.065 Y58.671 E19.265
G1 X68.422 Y58.498 E19.29656
G1 X67.779 Y58.671 E19.32812
G1 X67.353 Y59.099 E19.35674
G1 X67.311 Y59.141 E19.35956
G1 X67.293 Y59.209 E19.36289
G1 X67.172 Y59.662 E19.38512
G1 X67.051 Y59.211 E19.39227
G1 X67.032 Y59.141 E19.39571
G1 X66.99 Y59.099 E19.39853
G1 X66.564 Y58.671 E19.42715
G1 X65.921 Y58.498 E19.45871
G1 X65.278 Y58.671 E19.49027
G1 X64.852 Y59.099 E19.51889
G1 X64.81 Y59.141 E19.5217
G1 X64.792 Y59.209 E19.52504
G1 X64.671 Y59.662 E19.54726
G1 X64.55 Y59.211 E19.55442
G1 X64.531 Y59.141 E19.55786
G1 X64.489 Y59.099 E19.56067
G1 X64.063 Y58.671 E19.58929
G1 X63.42 Y58.498 E19.62085
G1 X62.778 Y58.671 E19.65236
G1 X62.35 Y59.098 E19.68102
G1 X62.307 Y59.141 E19.6839
G1 X62.289 Y59.209 E19.68723
G1 X62.169 Y59.661 E19.7094
G1 X62.049 Y59.211 E19.71649
G1 X62.03 Y59.141 E19.71992
G1 X61.987 Y59.098 E19.72281
G1 X61.562 Y58.671 E19.75136
G1 X60.919 Y58.498 E19.78292
G1 X60.277 Y58.671 E19.81443
G1 X59.849 Y59.098 E19.84309
G1 X59.806 Y59.141 E19.84597
G1 X59.789 Y59.208 E19.84925
G1 X59.669 Y59.66 E19.87141
G1 X59.549 Y59.21 E19.8785
G1 X59.53 Y59.141 E19.88021
G1 X59.487 Y59.098 E19.88309
G1 X59.062 Y58.671 E19.91164
G1 X58.419 Y58.498 E19.9432
G1 X57.777 Y58.671 E19.97472
G1 X57.306 Y59.141 E20.00625
G0 F6000 X57.665 Y59.348
;TYPE:WALL-OUTER
G1 F1800 X57.55 Y59.783 E20.02758
G1 X57.666 Y60.217 E20.04887
G1 X57.984 Y60.536 E20.07022
G1 X58.419 Y60.653 E20.09157
G1 X58.854 Y60.536 E20.11292
G1 X59.171 Y60.217 E20.13423
G1 X59.288 Y59.783 E20.15554
G1 X59.171 Y59.348 E20.17689
G1 X58.854 Y59.029 E20.1982
G1 X58.419 Y58.912 E20.21955
G1 X57.984 Y59.029 E20.2409
G1 X57.665 Y59.348 E20.26228
G0 F6000 X57.183 Y59.22
G0 X57.757 Y58.637
G0 X58.419 Y58.458
G0 X59.082 Y58.637
G0 X59.564 Y59.122
G0 X59.669 Y59.56
G0 X60.05 Y59.783
G1 F1800 X60.166 Y60.217 E20.28357
G1 X60.484 Y60.536 E20.30492
G1 X60.919 Y60.653 E20.32627
G1 X61.354 Y60.536 E20.34762
G1 X61.671 Y60.217 E20.36894
G1 X61.788 Y59.783 E20.39024
G1 X61.671 Y59.348 E20.41159
G1 X61.354 Y59.029 E20.43291
G1 X60.919 Y58.912 E20.45426
G1 X60.484 Y59.029 E20.47561
G1 X60.165 Y59.348 E20.49699
G1 X60.05 Y59.783 E20.51831
G0 F6000 X59.669 Y59.56
G0 X59.772 Y59.122
G0 X60.257 Y58.637
G0 X60.919 Y58.458
G0 X61.582 Y58.637
G0 X62.064 Y59.122
G0 X62.169 Y59.561
G0 X62.551 Y59.783
G1 F1800 X62.667 Y60.217 E20.53961
G1 X62.985 Y60.536 E20.56095
G1 X63.42 Y60.653 E20.5823
G1 X63.855 Y60.536 E20.60365
G1 X64.172 Y60.217 E20.62497
G1 X64.289 Y59.783 E20.64627
G1 X64.172 Y59.348 E20.66762
G1 X63.855 Y59.029 E20.68894
G1 X63.42 Y58.912 E20.71029
G1 X62.985 Y59.029 E20.73164
G1 X62.666 Y59.348 E20.75302
G1 X62.551 Y59.783 E20.77434
G0 F6000 X62.169 Y59.561
G0 X62.273 Y59.122
G0 X62.758 Y58.637
G0 X63.42 Y58.458
G0 X64.083 Y58.637
G0 X64.565 Y59.122
G0 X64.671 Y59.562
G0 X65.052 Y59.783
G1 F1800 X65.169 Y60.217 E20.79565
G1 X65.486 Y60.536 E20.81696
G1 X65.921 Y60.653 E20.83831
G1 X66.356 Y60.536 E20.85966
G1 X66.673 Y60.217 E20.88098
G1 X66.79 Y59.783 E20.90228
G1 X66.673 Y59.348 E20.92363
G1 X66.356 Y59.029 E20.94495
G1 X65.921 Y58.912 E20.9663
G1 X65.486 Y59.029 E20.98765
G1 X65.169 Y59.348 E21.00896
G1 X65.052 Y59.783 E21.03031
G0 F6000 X64.671 Y59.562
G0 X64.776 Y59.122
G0 X65.258 Y58.637
G0 X65.921 Y58.458
G0 X66.584 Y58.637
G0 X67.066 Y59.122
G0 X67.172 Y59.562
G0 X67.553 Y59.783
G1 F1800 X67.67 Y60.217 E21.05161
G1 X67.987 Y60.536 E21.07293
G1 X68.422 Y60.653 E21.09428
G1 X68.857 Y60.536 E21.11563
G1 X69.174 Y60.217 E21.13694
G1 X69.291 Y59.783 E21.15825
G1 X69.174 Y59.348 E21.1796
G1 X68.857 Y59.029 E21.20091
G1 X68.422 Y58.912 E21.22226
G1 X67.987 Y59.029 E21.24361
G1 X67.67 Y59.348 E21.26493
G1 X67.553 Y59.783 E21.28628
G0 F6000 X67.172 Y59.562
G0 X67.066 Y59.122
G0 X66.584 Y58.637
G0 X65.921 Y58.458
G0 X58.419 Y58.458
G0 X57.757 Y58.637
G0 X54.79 Y60.098
G0 X54.3 Y60
G1 F1800 X54.017 Y58.583 E21.35476
G1 X53.215 Y57.381 E21.42325
G1 X52.013 Y56.579 E21.49174
G1 X50.595 Y56.296 E21.56027
G1 X49.178 Y56.579 E21.62876
G1 X47.976 Y57.381 E21.69724
G1 X47.174 Y58.583 E21.76573
G1 X46.891 Y60 E21.83421
G1 X47.174 Y61.417 E21.9027
G1 X47.976 Y62.619 E21.97119
G1 X49.178 Y63.422 E22.0397
G1 X50.595 Y63.704 E22.10818
G1 X52.013 Y63.422 E22.1767
G1 X53.215 Y62.619 E22.24521
G1 X54.017 Y61.417 E22.3137
G1 X54.3 Y60 E22.38218
G0 F6000 X54.79 Y60.098
G0 X54.402 Y58.465
G0 X54.302 Y58.04
G0 X54.302 Y57.54
G1 F1800 X72.294 Y57.54 E23.23493
G1 X72.903 Y57.721 E23.26504
G1 X73.423 Y58.237 E23.29976
G1 X73.784 Y59.038 E23.3414
G1 X73.912 Y60.001 E23.38745
G1 X73.784 Y60.963 E23.43344
G1 X73.423 Y61.763 E23.47504
G1 X72.903 Y62.279 E23.50976
G1 X72.291 Y62.461 E23.54002
G1 X54.302 Y62.461 E24.39262
G1 X53.81 Y63.198 E24.43462
G1 X52.343 Y64.178 E24.51824
G1 X50.612 Y64.522 E24.60189
G1 X48.882 Y64.178 E24.68548
G1 X47.414 Y63.198 E24.76914
G1 X46.434 Y61.73 E24.8528
G1 X46.09 Y60 E24.9364
G1 X46.434 Y58.27 E25.02
G1 X47.414 Y56.803 E25.10361
G1 X48.882 Y55.822 E25.1873
G1 X50.612 Y55.478 E25.2709
G1 X52.343 Y55.822 E25.35454
G1 X53.81 Y56.803 E25.43818
G1 X54.302 Y57.54 E25.48018
G0 F6000 X54.725 Y58.119
;TYPE:SKIN
G1 F1800 X58.486 Y61.88 E25.73227
G0 X58.556 Y61.95
G0 F6000 X59.051 Y61.88
G1 F1800 X58.423 Y61.252 E25.77437
G0 X58.353 Y61.182
G0 F6000 X58.869 Y61.132
G1 F1800 X59.617 Y61.88 E25.8245
G0 X59.687 Y61.95
G0 F6000 X60.183 Y61.88
G1 F1800 X59.256 Y60.953 E25.88664
G0 X59.186 Y60.883
G0 F6000 X59.538 Y60.669
G1 F1800 X60.748 Y61.88 E25.96778
G0 X60.818 Y61.95
G0 F6000 X61.314 Y61.88
G1 F1800 X60.602 Y61.168 E26.0155
G0 X60.532 Y61.098
G0 F6000 X61.182 Y61.182
G1 F1800 X61.88 Y61.88 E26.06229
G0 X61.95 Y61.95
G0 F6000 X62.446 Y61.88
G1 F1800 X61.628 Y61.062 E26.11711
G0 X61.558 Y60.992
G0 F6000 X61.919 Y60.787
G1 F1800 X63.011 Y61.88 E26.19034
G0 X63.081 Y61.95
G0 F6000 X63.577 Y61.88
G1 F1800 X62.777 Y61.08 E26.24396
G0 X62.707 Y61.01
G0 F6000 X63.496 Y61.233
G1 F1800 X64.143 Y61.88 E26.28733
G0 X64.213 Y61.95
G0 F6000 X64.708 Y61.88
G1 F1800 X63.941 Y61.113 E26.33874
G0 X63.871 Y61.043
G0 F6000 X64.302 Y60.908
G1 F1800 X65.274 Y61.88 E26.40389
G0 X65.344 Y61.95
G0 F6000 X65.84 Y61.88
G1 F1800 X64.584 Y60.624 E26.48808
G0 X64.514 Y60.554
G0 F6000 X64.527 Y60.568
G0 X65.727 Y61.202
G1 F1800 X66.405 Y61.88 E26.53352
G0 X66.475 Y61.95
G0 F6000 X66.971 Y61.88
G1 F1800 X66.255 Y61.164 E26.58151
G0 X66.185 Y61.094
G0 F6000 X66.683 Y61.026
G1 F1800 X67.537 Y61.88 E26.63876
G0 X67.607 Y61.95
G0 F6000 X68.102 Y61.88
G1 F1800 X66.966 Y60.744 E26.7149
G0 X66.896 Y60.674
G0 F6000 X66.909 Y60.688
