;FLAVOR:RepRap
;TIME:8341
;Generated with Cura_SteamEngine 2.3.1
M190 S50
M104 S195
M109 S195
G21 ;metric values
G90 ;absolute positioning
M82 ;set extruder to absolute mode
M107 ;start with the fan off
G28 X0 Y0 ;move X/Y to min endstops
G28 Z0 ;move Z to min endstops
G1 Z15.0 F9000 ;move the platform down 15mm
G92 E0 ;zero the extruded length
G1 F200 E3 ;extrude 3mm of feed stock
G92 E0 ;zero the extruded length again
G1 F9000
;Put printing message on LCD screen
M117 Printing...
;LAYER_COUNT:252
;LAYER:-9
M107
G1 F3600 E-6
G0 F6000 X19.906 Y28.246 Z.36
G1 F3600 E0
G1 F675 X20.804 Y27.693 E0.11996
G1 X21.763 Y27.194 E0.24293
G1 X22.732 Y26.777 E0.36293
G1 X23.736 Y26.429 E0.4838
G1 X25.183 Y26.065 E0.65352
G1 X26.965 Y25.711 E0.86019
G1 X28.021 Y25.54 E0.98187
G1 X29.087 Y25.448 E1.10358
G1 X30.162 Y25.432 E1.22587
G1 X31.208 Y25.494 E1.34506
G1 X32.685 Y25.71 E1.51486
G1 X33.647 Y25.9 E1.6264
G1 X34.652 Y24.396 E1.83216
G1 X35.277 Y23.53 E1.95364
G1 X35.959 Y22.718 E2.07426
G1 X36.705 Y21.951 E2.19597
G1 X37.498 Y21.247 E2.31659
G1 X38.702 Y20.351 E2.48731
G1 X40.22 Y19.337 E2.69496
G1 X41.118 Y18.784 E2.81492
G1 X42.077 Y18.285 E2.93789
G1 X43.046 Y17.868 E3.05789
G1 X44.05 Y17.52 E3.17876
G1 X45.497 Y17.156 E3.34848
G1 X47.279 Y16.802 E3.55514
G1 X48.335 Y16.631 E3.67683
G1 X49.401 Y16.539 E3.79854
G1 X50.476 Y16.523 E3.92083
G1 X51.522 Y16.585 E4.04002
G1 X52.993 Y16.8 E4.20913
G1 X54.79 Y17.158 E4.41755
G1 X55.839 Y17.407 E4.54019
G1 X56.826 Y17.719 E4.65794
G1 X57.849 Y18.127 E4.78322
G1 X58.793 Y18.585 E4.90257
G1 X71.836 Y18.585 E6.3862
G1 X72.898 Y18.623 E6.50708
G1 X73.983 Y18.744 E6.63127
G1 X75.015 Y18.934 E6.75063
G1 X75.954 Y19.176 E6.86093
G1 X76.63 Y19.375 E6.94109
G1 X77.659 Y19.718 E7.06447
G1 X78.65 Y20.132 E7.18663
G1 X79.58 Y20.601 E7.30511
G1 X80.513 Y21.163 E7.42901
G1 X81.374 Y21.771 E7.5489
G1 X82.194 Y22.443 E7.6695
G1 X82.838 Y23.047 E7.76993
G1 X83.389 Y23.594 E7.85825
G1 X84.124 Y24.38 E7.98065
G1 X84.804 Y25.22 E8.10359
G1 X85.411 Y26.095 E8.22472
G1 X85.95 Y27.011 E8.34562
G1 X86.417 Y27.95 E8.46491
G1 X86.82 Y28.845 E8.57656
G1 X87.21 Y29.8 E8.6939
G1 X87.547 Y30.842 E8.81847
G1 X87.88 Y32.2 E8.97752
G1 X92.691 Y32.2 E9.52477
G1 X93.282 Y32.13 E9.59247
G1 X94.472 Y32.082 E9.72794
G1 X95.074 Y32.082 E9.79642
G1 X96.136 Y32.12 E9.91729
G1 X97.218 Y32.24 E10.04113
G1 X98.078 Y32.4 E10.14063
G1 X99.675 Y32.4 E10.32229
G1 X100.737 Y32.438 E10.44317
G1 X101.825 Y32.559 E10.56769
G1 X102.847 Y32.747 E10.68589
G1 X103.871 Y33.015 E10.8063
G1 X104.91 Y33.369 E10.93115
G1 X105.869 Y33.776 E11.04966
G1 X106.827 Y34.268 E11.17216
G1 X107.734 Y34.822 E11.29305
G1 X108.604 Y35.444 E11.41471
G1 X109.419 Y36.122 E11.5353
G1 X110.177 Y36.853 E11.65508
G1 X110.902 Y37.662 E11.77865
G1 X111.558 Y38.511 E11.90069
G1 X112.136 Y39.384 E12.01979
G1 X112.663 Y40.322 E12.14217
G1 X113.112 Y41.278 E12.26232
G1 X113.497 Y42.285 E12.38495
G1 X113.804 Y43.303 E12.5059
G1 X114.034 Y44.332 E12.62583
G1 X114.192 Y45.401 E12.74875
G1 X114.269 Y46.453 E12.86874
G1 X114.28 Y46.991 E12.92995
G1 X114.28 Y47.709 E13.01162
G1 X114.352 Y48.029 E13.04893
G1 X114.51 Y49.098 E13.17185
G1 X114.587 Y50.15 E13.29183
G1 X114.598 Y50.688 E13.35304
G1 X114.598 Y51.318 E13.42471
G1 X114.56 Y52.375 E13.54502
G1 X114.48 Y53.096 E13.62753
G1 X114.48 Y67.41 E15.25575
G1 X114.55 Y68.003 E15.32367
G1 X114.598 Y69.194 E15.45925
G1 X114.598 Y69.804 E15.52864
G1 X114.56 Y70.861 E15.64895
G1 X114.48 Y71.582 E15.73147
G1 X114.48 Y73.203 E15.91586
G1 X114.442 Y74.258 E16.03594
G1 X114.321 Y75.345 E16.16035
G1 X114.133 Y76.367 E16.27855
G1 X113.865 Y77.391 E16.39896
G1 X113.511 Y78.43 E16.52381
G1 X113.104 Y79.389 E16.64232
G1 X112.613 Y80.344 E16.76446
G1 X112.058 Y81.254 E16.88571
G1 X111.436 Y82.124 E17.00736
G1 X110.758 Y82.939 E17.12795
G1 X110.027 Y83.697 E17.24774
G1 X109.218 Y84.422 E17.37131
G1 X108.374 Y85.074 E17.49262
G1 X107.496 Y85.656 E17.61244
G1 X106.558 Y86.183 E17.73483
G1 X105.602 Y86.632 E17.85497
G1 X104.595 Y87.017 E17.9776
G1 X103.577 Y87.324 E18.09855
G1 X102.545 Y87.555 E18.21884
G1 X101.479 Y87.712 E18.34141
G1 X100.427 Y87.789 E18.46139
G1 X99.862 Y87.8 E18.52567
G1 X94.584 Y87.8 E19.12605
G1 X93.522 Y87.762 E19.24693
G1 X92.434 Y87.641 E19.37145
G1 X91.412 Y87.453 E19.48965
G1 X90.388 Y87.185 E19.61005
G1 X89.349 Y86.831 E19.73491
G1 X88.39 Y86.424 E19.85341
G1 X87.432 Y85.932 E19.97592
G1 X86.525 Y85.378 E20.09681
G1 X85.655 Y84.756 E20.21846
G1 X84.848 Y84.084 E20.33792
G1 X84.069 Y83.333 E20.461
G1 X82.915 Y82.048 E20.65746
G1 X81.327 Y83.697 E20.91787
G1 X80.519 Y84.422 E21.04135
G1 X79.675 Y85.074 E21.16267
G1 X78.797 Y85.656 E21.28249
G1 X77.859 Y86.183 E21.40488
G1 X76.903 Y86.632 E21.52502
G1 X75.896 Y87.017 E21.64765
G1 X74.878 Y87.324 E21.7686
G1 X73.846 Y87.555 E21.88889
G1 X72.78 Y87.712 E22.01146
G1 X71.728 Y87.789 E22.13144
G1 X71.163 Y87.8 E22.19572
G1 X67.57 Y87.8 E22.60442
G1 X67.086 Y88.007 E22.6643
G1 X66.087 Y88.353 E22.78456
G1 X64.634 Y88.72 E22.95503
G1 X62.851 Y89.074 E23.16181
G1 X61.801 Y89.243 E23.28278
G1 X60.734 Y89.335 E23.4046
G1 X59.66 Y89.351 E23.52678
G1 X58.612 Y89.288 E23.64621
G1 X57.142 Y89.073 E23.8152
G1 X55.345 Y88.716 E24.0236
G1 X54.297 Y88.467 E24.14613
G1 X53.296 Y88.15 E24.26557
G1 X52.298 Y87.751 E24.38782
G1 X51.339 Y87.288 E24.50896
G1 X50.08 Y86.534 E24.67589
G1 X48.544 Y85.508 E24.886
G1 X47.684 Y84.888 E25.0066
G1 X46.872 Y84.206 E25.12722
G1 X46.095 Y83.45 E25.25053
G1 X45.399 Y82.666 E25.36978
G1 X44.515 Y81.477 E25.53832
G1 X43.492 Y79.945 E25.74786
G1 X42.938 Y79.046 E25.86798
G1 X42.445 Y78.098 E25.98953
G1 X42.018 Y77.105 E26.11248
G1 X41.675 Y76.113 E26.23187
G1 X41.308 Y74.656 E26.40278
G1 X40.954 Y72.869 E26.61
G1 X40.786 Y71.823 E26.73051
G1 X40.695 Y70.756 E26.85232
G1 X40.679 Y69.676 E26.97519
G1 X40.741 Y68.634 E27.09392
G1 X40.956 Y67.177 E27.26145
G1 X41.314 Y65.375 E27.47043
G1 X41.558 Y64.343 E27.59106
G1 X42.295 Y62.016 E27.86871
G1 X38.456 Y62.016 E28.3054
G1 X37.891 Y62.31 E28.37785
G1 X36.898 Y62.737 E28.5008
G1 X35.909 Y63.079 E28.61984
G1 X34.456 Y63.446 E28.79031
G1 X32.673 Y63.8 E28.99708
G1 X31.623 Y63.969 E29.11805
G1 X30.556 Y64.061 E29.23988
G1 X29.481 Y64.077 E29.36217
G1 X28.435 Y64.015 E29.48136
G1 X26.965 Y63.799 E29.65037
G1 X25.154 Y63.438 E29.86042
G1 X24.124 Y63.193 E29.98085
G1 X23.121 Y62.877 E30.10047
G1 X22.119 Y62.477 E30.2232
G1 X21.151 Y62.008 E30.34555
G1 X19.916 Y61.269 E30.50926
G1 X18.384 Y60.247 E30.71874
G1 X17.506 Y59.612 E30.842
G1 X16.696 Y58.935 E30.96208
G1 X15.931 Y58.19 E31.08354
G1 X15.221 Y57.39 E31.20521
G1 X14.334 Y56.2 E31.37404
G1 X13.323 Y54.684 E31.58131
G1 X12.743 Y53.741 E31.70724
G1 X12.259 Y52.808 E31.8268
G1 X11.846 Y51.85 E31.94547
G1 X11.495 Y50.835 E32.06763
G1 X11.133 Y49.394 E32.23664
G1 X10.777 Y47.603 E32.44435
G1 X10.608 Y46.556 E32.56499
G1 X10.516 Y45.49 E32.6867
G1 X10.5 Y44.411 E32.80945
G1 X10.562 Y43.369 E32.92818
G1 X10.777 Y41.898 E33.09729
G1 X11.134 Y40.106 E33.30513
G1 X11.384 Y39.052 E33.42835
G1 X11.696 Y38.065 E33.5461
G1 X12.104 Y37.042 E33.67138
G1 X12.563 Y36.094 E33.79119
G1 X13.317 Y34.835 E33.95812
G1 X14.343 Y33.299 E34.16823
G1 X14.965 Y32.437 E34.28914
G1 X15.645 Y31.627 E34.40944
G1 X16.391 Y30.86 E34.53115
G1 X17.184 Y30.156 E34.65177
G1 X18.388 Y29.26 E34.82249
G1 X19.906 Y28.246 E35.03014
G0 F6000 X19.2 Y28.717
G1 F675 X19.2 Y60.791 E38.67855
G0 F6000 X20.8 Y61.797
G1 F675 X20.8 Y27.695 E42.55764
G0 F6000 X22.4 Y26.919
G1 F675 X22.4 Y62.589 E46.61509
G0 F6000 X24 Y63.153
G1 F675 X24 Y26.362 E50.80005
G0 F6000 X25.6 Y25.982
G1 F675 X25.6 Y63.526 E55.07067
G0 F6000 X27.2 Y63.833
G1 F675 X27.2 Y25.672 E59.41147
G0 F6000 X28.8 Y25.472
G1 F675 X28.8 Y64.036 E63.79811
G0 F6000 X30.4 Y64.064
G1 F675 X30.4 Y25.447 E68.19078
G0 F6000 X32 Y25.61
G1 F675 X32 Y63.909 E72.54728
G0 F6000 X33.6 Y63.616
G1 F675 X33.6 Y25.891 E76.83849
G0 F6000 X35.2 Y23.636
G1 F675 X35.2 Y63.259 E81.34559
G0 F6000 X36.8 Y62.771
G1 F675 X36.8 Y21.866 E85.99852
G0 F6000 X38.4 Y20.575
G1 F675 X38.4 Y62.046 E90.71583
G0 F6000 X40 Y62.016
G1 F675 X40 Y19.483 E95.55395
G0 F6000 X41.6 Y18.533
G1 F675 X41.6 Y62.016 E100.50012
G0 F6000 X41.645 Y62.493
G0 X41.6 Y64.21
G1 F675 X41.6 Y75.815 E101.82019
G0 F6000 X43.2 Y79.471
G1 F675 X43.2 Y17.814 E108.83365
G0 F6000 X44.8 Y17.331
G1 F675 X44.8 Y81.86 E116.1738
G0 F6000 X46.4 Y83.746
G1 F675 X46.4 Y16.976 E123.76887
G0 F6000 X48 Y16.685
G1 F675 X48 Y85.115 E131.55276
G0 F6000 X49.6 Y86.213
G1 F675 X49.6 Y16.536 E139.47849
G0 F6000 X51.2 Y16.566
G1 F675 X51.2 Y87.204 E147.51354
G0 F6000 X52.8 Y87.951
G1 F675 X52.8 Y16.772 E155.61013
G0 F6000 X54.4 Y17.081
G1 F675 X54.4 Y88.491 E163.73299
G0 F6000 X56 Y88.846
G1 F675 X56 Y17.458 E171.85335
G0 F6000 X57.6 Y18.028
G1 F675 X57.6 Y89.139 E179.9422
G0 F6000 X59.2 Y89.323
G1 F675 X59.2 Y18.585 E187.98863
G0 F6000 X60.8 Y18.585
G1 F675 X60.8 Y89.33 E196.03585
G0 F6000 X62.4 Y89.147
G1 F675 X62.4 Y18.585 E204.06225
G0 F6000 X64 Y18.585
G1 F675 X64 Y88.846 E212.05442
G0 F6000 X65.6 Y88.477
G1 F675 X65.6 Y18.585 E220.00461
G0 F6000 X67.2 Y18.585
G1 F675 X67.2 Y87.959 E227.89588
G0 F6000 X68.8 Y87.8
G1 F675 X68.8 Y18.585 E235.76906
G0 F6000 X70.4 Y18.585
G1 F675 X70.4 Y87.8 E243.64224
G0 F6000 X72 Y87.77
G1 F675 X72 Y18.591 E251.51133
G0 F6000 X73.6 Y18.702
G1 F675 X73.6 Y87.592 E259.34754
G0 F6000 X75.2 Y87.227
G1 F675 X75.2 Y18.982 E267.11039
G0 F6000 X76.8 Y19.432
G1 F675 X76.8 Y86.672 E274.75892
G0 F6000 X78.4 Y85.88
G1 F675 X78.4 Y20.028 E282.24956
G0 F6000 X80 Y20.854
G1 F675 X80 Y84.823 E289.52601
G0 F6000 X81.6 Y83.414
G1 F675 X81.6 Y21.957 E296.51672
G0 F6000 X83.2 Y23.407
G1 F675 X83.2 Y82.365 E303.22318
G0 F6000 X84.8 Y84.037
G1 F675 X84.8 Y25.216 E309.91405
G0 F6000 X86.4 Y27.916
G1 F675 X86.4 Y85.288 E316.44009
G0 F6000 X88 Y86.223
G1 F675 X88 Y32.2 E322.58519
G0 F6000 X89.6 Y32.2
G1 F675 X89.6 Y86.916 E328.80912
G0 F6000 X91.2 Y87.397
G1 F675 X91.2 Y32.2 E335.08776
G0 F6000 X92.8 Y32.187
G1 F675 X92.8 Y87.681 E341.40018
G0 F6000 X94.4 Y87.793
G1 F675 X94.4 Y32.084 E347.73706
G0 F6000 X96 Y32.116
G1 F675 X96 Y87.8 E354.0711
G0 F6000 X97.6 Y87.8
G1 F675 X97.6 Y32.312 E360.38284
G0 F6000 X99.2 Y32.4
G1 F675 X99.2 Y87.8 E366.68457
G0 F6000 X100.8 Y87.762
G1 F675 X100.8 Y32.446 E372.97675
G0 F6000 X102.4 Y32.665
G1 F675 X102.4 Y87.577 E379.22297
G0 F6000 X104 Y87.197
G1 F675 X104 Y33.059 E385.38115
G0 F6000 X105.6 Y33.662
G1 F675 X105.6 Y86.633 E391.40658
G0 F6000 X107.2 Y85.823
G1 F675 X107.2 Y34.496 E397.24501
G0 F6000 X108.8 Y35.608
G1 F675 X108.8 Y84.745 E402.83433
G0 F6000 X110.4 Y83.311
G1 F675 X110.4 Y37.102 E408.09058
G0 F6000 X112 Y39.179
G1 F675 X112 Y81.336 E412.88593
G0 F6000 X113.6 Y78.169
G1 F675 X113.6 Y42.627 E416.92882
G0 F6000 X17.6 Y29.846
G1 F675 X17.6 Y59.679 E420.32231
G0 F6000 X16 Y58.257
G1 F675 X16 Y31.262 E423.39298
G0 F6000 X14.4 Y33.22
G1 F675 X14.4 Y56.288 E426.01696
G0 F6000 X12.8 Y53.833
G1 F675 X12.8 Y35.698 E428.07981
G0 F6000 X11.2 Y39.827
G1 F675 X11.2 Y49.66 E429.19831
;TIME_ELAPSED:347.210689
;LAYER:-8
G0 F6000 X11.133 Y49.393 Z.51
;TYPE:SUPPORT
G1 F675 X11.494 Y50.833 E429.26867
G1 X11.631 Y51.229 E429.28853
G1 X23.35 Y62.948 E430.07403
G1 X23.12 Y62.875 E430.08547
G1 X22.119 Y62.476 E430.13654
G1 X21.15 Y62.007 E430.18756
G1 X20.762 Y61.774 E430.20901
G1 X12.768 Y53.78 E430.74483
G0 F6000 X11.133 Y49.393
G1 F675 X11.114 Y49.298 E430.74942
G1 X25.277 Y63.461 E431.69874
G1 X26.964 Y63.798 E431.78027
G1 X27.039 Y63.808 E431.78386
G1 X10.765 Y47.535 E432.87463
G1 X10.608 Y46.555 E432.92167
G1 X10.551 Y45.906 E432.95255
G1 X28.673 Y64.028 E434.16723
G1 X29.48 Y64.076 E434.20554
G1 X30.125 Y64.066 E434.23612
G1 X10.499 Y44.44 E435.5516
G1 X10.499 Y44.409 E435.55307
G1 X10.561 Y43.368 E435.6025
G1 X10.596 Y43.123 E435.61423
G1 X31.455 Y63.982 E437.01236
G1 X31.622 Y63.968 E437.0203
G1 X32.672 Y63.799 E437.0707
G1 X32.683 Y63.796 E437.07124
G1 X10.777 Y41.89 E438.53955
G1 X11.013 Y40.711 E438.59654
G1 X33.864 Y63.562 E440.12819
G1 X34.455 Y63.445 E440.15674
G1 X35.018 Y63.303 E440.18426
G1 X11.265 Y39.549 E441.7764
G1 X11.383 Y39.051 E441.80066
G1 X11.575 Y38.445 E441.83079
G1 X36.131 Y63.001 E443.47672
G1 X36.898 Y62.735 E443.5152
G1 X37.164 Y62.62 E443.52893
G1 X11.955 Y37.411 E445.21863
G1 X12.104 Y37.041 E445.23754
G1 X12.395 Y36.437 E445.26931
G1 X38.138 Y62.18 E446.9948
G1 X38.456 Y62.015 E447.01178
G1 X39.387 Y62.015 E447.05591
G1 X12.9 Y35.527 E448.8313
G1 X13.316 Y34.834 E448.86961
G1 X13.438 Y34.651 E448.88004
G1 X40.802 Y62.015 E450.71418
G1 X42.216 Y62.015 E450.7812
G1 X14.004 Y33.803 E452.67218
G1 X14.342 Y33.297 E452.70102
G1 X14.581 Y32.966 E452.72037
G1 X69.414 Y87.799 E456.3957
G1 X70.828 Y87.799 E456.46272
G1 X15.193 Y32.164 E460.1918
G1 X15.645 Y31.626 E460.2251
G1 X15.854 Y31.41 E460.23935
G1 X72.197 Y87.753 E464.01588
G1 X72.779 Y87.71 E464.04354
G1 X73.466 Y87.609 E464.07645
G1 X16.563 Y30.706 E467.89053
G1 X17.184 Y30.155 E467.92988
G1 X17.324 Y30.052 E467.93811
G1 X74.647 Y87.375 E471.78034
G1 X74.878 Y87.323 E471.79156
G1 X75.746 Y87.06 E471.83455
G1 X18.135 Y29.448 E475.69611
G1 X18.388 Y29.259 E475.71108
G1 X18.97 Y28.87 E475.74426
G1 X76.778 Y86.677 E479.61896
G1 X76.902 Y86.631 E479.62522
G1 X77.748 Y86.233 E479.66954
G1 X19.818 Y28.304 E483.55241
G1 X19.905 Y28.245 E483.5574
G1 X20.691 Y27.762 E483.60112
G1 X78.659 Y85.731 E487.48661
G1 X78.796 Y85.655 E487.49404
G1 X79.519 Y85.175 E487.53517
G1 X21.614 Y27.27 E491.4164
G1 X21.762 Y27.193 E491.42431
G1 X22.594 Y26.836 E491.46722
G1 X80.326 Y84.569 E495.33689
G1 X80.518 Y84.42 E495.34841
G1 X81.084 Y83.913 E495.38443
G1 X23.635 Y26.464 E499.2351
G1 X23.736 Y26.428 E499.24018
G1 X24.757 Y26.171 E499.29008
G1 X81.795 Y83.21 E503.11324
G1 X82.489 Y82.489 E503.16067
G1 X25.918 Y25.918 E506.95249
G1 X26.964 Y25.711 E507.00302
G1 X27.103 Y25.689 E507.00969
G1 X87.212 Y85.798 E511.03866
G1 X87.43 Y85.931 E511.05076
G1 X88.389 Y86.424 E511.10187
G1 X89.348 Y86.831 E511.15124
G1 X89.82 Y86.991 E511.17487
G1 X28.34 Y25.512 E515.29569
G1 X29.086 Y25.448 E515.33118
G1 X29.682 Y25.439 E515.35943
G1 X91.759 Y87.516 E519.5203
G1 X92.433 Y87.64 E519.55278
G1 X93.405 Y87.749 E519.59914
G1 X31.147 Y25.49 E523.77218
G1 X31.207 Y25.494 E523.77503
G1 X32.684 Y25.709 E523.84577
G1 X32.804 Y25.733 E523.85157
G1 X94.87 Y87.799 E528.01171
G1 X96.284 Y87.799 E528.07873
G1 X33.941 Y25.456 E532.25743
G1 X34.508 Y24.609 E532.30574
G1 X97.698 Y87.799 E536.54121
G1 X99.113 Y87.799 E536.60828
G1 X35.094 Y23.78 E540.89932
G1 X35.276 Y23.529 E540.91402
G1 X35.723 Y22.995 E540.94702
G1 X100.51 Y87.782 E545.28954
G1 X101.478 Y87.712 E545.33554
G1 X101.805 Y87.663 E545.35121
G1 X36.402 Y22.26 E549.73502
G1 X36.704 Y21.951 E549.7555
G1 X37.13 Y21.573 E549.78249
G1 X103.007 Y87.45 E554.19807
G1 X103.576 Y87.324 E554.22569
G1 X104.127 Y87.157 E554.25298
G1 X37.91 Y20.939 E558.69138
G1 X38.701 Y20.35 E558.73812
G1 X38.721 Y20.337 E558.73925
G1 X105.177 Y86.793 E563.19364
G1 X105.6 Y86.631 E563.21511
G1 X106.165 Y86.366 E563.24469
G1 X39.57 Y19.771 E567.70839
G1 X40.219 Y19.337 E567.7454
G1 X40.424 Y19.211 E567.7568
G1 X107.094 Y85.88 E572.2255
G1 X107.495 Y85.656 E572.24727
G1 X107.968 Y85.341 E572.27421
G1 X41.311 Y18.683 E576.7421
G1 X42.076 Y18.285 E576.78297
G1 X42.251 Y18.21 E576.79199
G1 X108.791 Y84.75 E581.25201
G1 X109.217 Y84.422 E581.2775
G1 X109.565 Y84.109 E581.29968
G1 X43.252 Y17.796 E585.74448
G1 X44.049 Y17.519 E585.78447
G1 X44.322 Y17.452 E585.7978
G1 X110.292 Y83.422 E590.21961
G1 X110.757 Y82.938 E590.25142
G1 X110.969 Y82.684 E590.2671
G1 X45.452 Y17.167 E594.65855
G1 X45.496 Y17.155 E594.66071
G1 X46.63 Y16.931 E594.7155
G1 X111.597 Y81.898 E599.07008
G1 X112.057 Y81.254 E599.10759
G1 X112.174 Y81.062 E599.11825
G1 X47.826 Y16.713 E603.43137
G1 X48.334 Y16.63 E603.45577
G1 X49.093 Y16.566 E603.49187
G1 X112.7 Y80.173 E607.7553
G1 X113.103 Y79.388 E607.79712
G1 X113.171 Y79.23 E607.80527
G1 X50.464 Y16.523 E612.00837
G0 F6000 X50.475 Y16.522
G1 F675 X51.521 Y16.584 E612.05804
G1 X52.011 Y16.656 E612.08151
G1 X113.58 Y78.225 E616.20834
G1 X113.864 Y77.39 E616.25014
G1 X113.926 Y77.156 E616.26161
