;FLAVOR:RepRap
;TIME:7481
;Generated with Cura_SteamEngine 2.3.1
M190 S50
M104 S195
M109 S195
G21 ;metric values
G90 ;absolute positioning
M82 ;set extruder to absolute mode
M107 ;start with the fan off
G28 X0 Y0 ;move X/Y to min endstops
G28 Z0 ;move Z to min endstops
G1 Z15.0 F9000 ;move the platform down 15mm
G92 E0 ;zero the extruded length
G1 F200 E3 ;extrude 3mm of feed stock
G92 E0 ;zero the extruded length again
G1 F9000
;Put printing message on LCD screen
M117 Printing...
;LAYER_COUNT:138
;LAYER:0
M107
G1 F3600 E-6
G0 F6000 X32.212 Y18.784 Z.3
;TYPE:SKIRT
G1 F3600 E0
G1 F1800 X32.478 Y18.354 E0.02396
G1 X32.808 Y17.972 E0.04789
G1 X33.194 Y17.646 E0.07184
G1 X33.627 Y17.385 E0.0958
G1 X34.096 Y17.195 E0.11978
G1 X34.589 Y17.082 E0.14375
G1 X35.058 Y17.047 E0.16604
G1 X68.841 Y17.047 E1.76721
G1 X69.345 Y17.087 E1.79118
G1 X69.836 Y17.206 E1.81512
G1 X70.303 Y17.4 E1.83909
G1 X70.733 Y17.666 E1.86305
G1 X71.116 Y17.996 E1.88701
G1 X71.442 Y18.383 E1.911
G1 X71.703 Y18.816 E1.93496
G1 X71.893 Y19.284 E1.9589
G1 X72.024 Y19.914 E1.9894
G1 X72.244 Y22.013 E2.08942
G1 X73.022 Y27.429 E2.34875
G1 X74.107 Y32.811 E2.60897
G1 X74.754 Y35.438 E2.7372
G1 X76.295 Y40.723 E2.99812
G1 X78.124 Y45.882 E3.25754
G1 X80.243 Y50.934 E3.51719
G1 X82.632 Y55.834 E3.77557
G1 X85.329 Y60.655 E4.03739
G1 X87.653 Y64.366 E4.24491
G1 X87.887 Y64.814 E4.26887
G1 X88.047 Y65.294 E4.29285
G1 X88.129 Y65.792 E4.31677
G1 X88.141 Y66.064 E4.32967
G1 X88.141 Y99.752 E5.92634
G1 X88.101 Y100.256 E5.9503
G1 X87.982 Y100.747 E5.97425
G1 X87.788 Y101.214 E5.99822
G1 X87.522 Y101.644 E6.02218
G1 X87.192 Y102.027 E6.04614
G1 X86.805 Y102.353 E6.07012
G1 X86.372 Y102.614 E6.09409
G1 X85.904 Y102.804 E6.11803
G1 X85.411 Y102.917 E6.142
G1 X84.941 Y102.952 E6.16434
G1 X68.048 Y102.953 E6.96499
G1 X67.98 Y102.952 E6.96821
G1 X63.762 Y102.862 E7.16817
G1 X35.058 Y102.851 E8.52862
G1 X34.554 Y102.811 E8.55258
G1 X34.062 Y102.692 E8.57657
G1 X33.596 Y102.497 E8.60052
G1 X33.166 Y102.231 E8.62448
G1 X32.783 Y101.901 E8.64844
G1 X32.457 Y101.514 E8.67243
G1 X32.196 Y101.081 E8.69639
G1 X32.007 Y100.612 E8.72035
G1 X31.894 Y100.12 E8.74428
G1 X31.859 Y99.648 E8.76671
G1 X31.895 Y64.935 E10.41196
G1 X31.897 Y64.821 E10.41736
G1 X32.044 Y60.811 E10.60755
G1 X31.962 Y55.267 E10.87034
G1 X31.854 Y53.005 E10.97767
G1 X31.85 Y52.851 E10.98497
G1 X31.858 Y20.246 E12.53031
G1 X31.898 Y19.742 E12.55427
G1 X32.017 Y19.251 E12.57821
G1 X32.212 Y18.784 E12.6022
G1 F3600 E6.6022
G0 F6000 X34.385 Y20.866
G0 X35.677 Y20.865
G0 X35.75 Y21.037
G0 X35.649 Y21.037
;TYPE:WALL-INNER
G1 F3600 E12.6022
G1 F1800 X35.649 Y20.837 E12.61168
G1 X35.849 Y20.837 E12.61782
G1 X68.25 Y20.837 E14.15348
G1 X68.25 Y52.435 E15.65109
G1 X53.55 Y52.435 E16.34781
G1 X47.055 Y52.61 E16.65576
G1 X46.56 Y52.636 E16.67925
G1 X35.85 Y52.64 E17.18686
G1 X35.65 Y52.64 E17.19634
G1 X35.65 Y52.44 E17.20248
G1 X35.649 Y21.037 E18.69084
G0 F6000 X35.249 Y20.637
;TYPE:WALL-OUTER
G1 F1800 X35.249 Y20.437 E18.70032
G1 X35.449 Y20.437 E18.70646
G1 X68.65 Y20.437 E20.28004
G1 X68.65 Y52.835 E21.81557
G1 X53.555 Y52.835 E22.53101
G1 X47.071 Y53.01 E22.83843
G1 X46.561 Y53.036 E22.86264
G1 X35.45 Y53.04 E23.38925
G1 X35.25 Y53.04 E23.39873
G1 X35.25 Y52.84 E23.40487
G1 X35.249 Y20.637 E24.93115
G0 F6000 X35.828 Y21.12
;TYPE:SKIN
G1 F1800 X66.963 Y52.255 E27.01806
G0 X67.033 Y52.325
G0 F6000 X67.528 Y52.255
G1 F1800 X36.29 Y21.017 E29.11186
G0 X36.22 Y20.947
G0 F6000 X36.856 Y21.017
G1 F1800 X68.069 Y52.23 E31.204
G0 X68.139 Y52.3
G0 F6000 X68.069 Y51.664
G1 F1800 X37.422 Y21.017 E33.25819
G0 X37.352 Y20.947
G0 F6000 X37.987 Y21.017
G1 F1800 X68.069 Y51.099 E35.27452
G0 X68.139 Y51.169
G0 F6000 X68.069 Y50.533
G1 F1800 X38.553 Y21.017 E37.25291
G0 X38.483 Y20.947
G0 F6000 X39.119 Y21.017
G1 F1800 X68.069 Y49.967 E39.19336
G0 X68.139 Y50.037
G0 F6000 X68.069 Y49.402
G1 F1800 X39.684 Y21.017 E41.09594
G0 X39.614 Y20.947
G0 F6000 X40.25 Y21.017
G1 F1800 X68.069 Y48.836 E42.96058
G0 X68.139 Y48.906
G0 F6000 X68.069 Y48.27
G1 F1800 X40.816 Y21.017 E44.78728
G0 X40.746 Y20.947
G0 F6000 X41.382 Y21.017
G1 F1800 X68.069 Y47.704 E46.57605
G0 X68.139 Y47.774
G0 F6000 X68.069 Y47.139
G1 F1800 X41.947 Y21.017 E48.32694
G0 X41.877 Y20.947
G0 F6000 X42.513 Y21.017
G1 F1800 X68.069 Y46.573 E50.0399
G0 X68.139 Y46.643
G0 F6000 X68.069 Y46.007
G1 F1800 X43.079 Y21.017 E51.71492
G0 X43.009 Y20.947
G0 F6000 X43.644 Y21.017
G1 F1800 X68.069 Y45.442 E53.35207
G0 X68.139 Y45.512
G0 F6000 X68.069 Y44.876
G1 F1800 X44.21 Y21.017 E54.95128
G0 X44.14 Y20.947
G0 F6000 X44.776 Y21.017
G1 F1800 X68.069 Y44.31 E56.51256
G0 X68.139 Y44.38
G0 F6000 X68.069 Y43.745
G1 F1800 X45.341 Y21.017 E58.03596
G0 X45.271 Y20.947
G0 F6000 X45.907 Y21.017
G1 F1800 X68.069 Y43.179 E59.52143
G0 X68.139 Y43.249
G0 F6000 X68.069 Y42.613
G1 F1800 X46.473 Y21.017 E60.96896
G0 X46.403 Y20.947
G0 F6000 X47.038 Y21.017
G1 F1800 X68.069 Y42.048 E62.37862
G0 X68.139 Y42.118
G0 F6000 X68.069 Y41.482
G1 F1800 X47.604 Y21.017 E63.75034
G0 X47.534 Y20.947
G0 F6000 X48.17 Y21.017
G1 F1800 X68.069 Y40.916 E65.08412
G0 X68.139 Y40.986
G0 F6000 X68.069 Y40.351
G1 F1800 X48.735 Y21.017 E66.38003
G0 X48.665 Y20.947
G0 F6000 X49.301 Y21.017
G1 F1800 X68.069 Y39.785 E67.63801
G0 X68.139 Y39.855
G0 F6000 X68.069 Y39.219
G1 F1800 X49.867 Y21.017 E68.85804
G0 X49.797 Y20.947
G0 F6000 X50.432 Y21.017
G1 F1800 X68.069 Y38.653 E70.04018
G0 X68.139 Y38.723
G0 F6000 X68.069 Y38.088
G1 F1800 X50.998 Y21.017 E71.1844
G0 X50.928 Y20.947
G0 F6000 X51.564 Y21.017
G1 F1800 X68.069 Y37.522 E72.2907
G0 X68.139 Y37.592
G0 F6000 X68.069 Y36.956
G1 F1800 X52.13 Y21.017 E73.35905
G0 X52.06 Y20.947
G0 F6000 X52.695 Y21.017
G1 F1800 X68.069 Y36.391 E74.38953
G0 X68.139 Y36.461
G0 F6000 X68.069 Y35.825
G1 F1800 X53.261 Y21.017 E75.38208
G0 X53.191 Y20.947
G0 F6000 X53.827 Y21.017
G1 F1800 X68.069 Y35.259 E76.33668
G0 X68.139 Y35.329
G0 F6000 X68.069 Y34.694
G1 F1800 X54.392 Y21.017 E77.25342
G0 X54.322 Y20.947
G0 F6000 X54.958 Y21.017
G1 F1800 X68.069 Y34.128 E78.13222
G0 X68.139 Y34.198
G0 F6000 X68.069 Y33.562
G1 F1800 X55.524 Y21.017 E78.97308
G0 X55.454 Y20.947
G0 F6000 X56.089 Y21.017
G1 F1800 X68.069 Y32.997 E79.77607
G0 X68.139 Y33.067
G0 F6000 X68.069 Y32.431
G1 F1800 X56.655 Y21.017 E80.54113
G0 X56.585 Y20.947
G0 F6000 X57.221 Y21.017
G1 F1800 X68.069 Y31.865 E81.26824
G0 X68.139 Y31.935
G0 F6000 X68.069 Y31.3
G1 F1800 X57.786 Y21.017 E81.95749
G0 X57.716 Y20.947
G0 F6000 X58.352 Y21.017
G1 F1800 X68.069 Y30.734 E82.60879
G0 X68.139 Y30.804
G0 F6000 X68.069 Y30.168
G1 F1800 X58.918 Y21.017 E83.22216
G0 X58.848 Y20.947
G0 F6000 X59.483 Y21.017
G1 F1800 X68.069 Y29.603 E83.79766
G0 X68.139 Y29.673
G0 F6000 X68.069 Y29.037
G1 F1800 X60.049 Y21.017 E84.33523
G0 X59.979 Y20.947
G0 F6000 X60.615 Y21.017
G1 F1800 X68.069 Y28.471 E84.83485
G0 X68.139 Y28.541
G0 F6000 X68.069 Y27.905
G1 F1800 X61.181 Y21.017 E85.29654
G0 X61.111 Y20.947
G0 F6000 X61.746 Y21.017
G1 F1800 X68.069 Y27.34 E85.72035
G0 X68.139 Y27.41
G0 F6000 X68.069 Y26.774
G1 F1800 X62.312 Y21.017 E86.10623
G0 X62.242 Y20.947
G0 F6000 X62.878 Y21.017
G1 F1800 X68.069 Y26.208 E86.45417
G0 X68.139 Y26.278
G0 F6000 X68.069 Y25.643
G1 F1800 X63.443 Y21.017 E86.76424
G0 X63.373 Y20.947
G0 F6000 X64.009 Y21.017
G1 F1800 X68.069 Y25.077 E87.03637
G0 X68.139 Y25.147
G0 F6000 X68.069 Y24.511
G1 F1800 X64.575 Y21.017 E87.27057
G0 X64.505 Y20.947
G0 F6000 X65.14 Y21.017
G1 F1800 X68.069 Y23.946 E87.46689
G0 X68.139 Y24.016
G0 F6000 X68.069 Y23.38
G1 F1800 X65.706 Y21.017 E87.62528
G0 X65.636 Y20.947
G0 F6000 X66.272 Y21.017
G1 F1800 X68.069 Y22.814 E87.74573
G0 X68.139 Y22.884
G0 F6000 X68.069 Y22.249
G1 F1800 X66.837 Y21.017 E87.8283
G0 X66.767 Y20.947
G0 F6000 X67.403 Y21.017
G1 F1800 X68.069 Y21.683 E87.87294
G0 X68.139 Y21.753
G0 F6000 X68.069 Y21.117
G1 F1800 X67.969 Y21.017 E87.87965
G0 F6000 X66.397 Y52.255
G1 F1800 X35.828 Y21.686 E89.92861
G0 X35.758 Y21.616
G0 F6000 X35.828 Y22.251
G1 F1800 X65.831 Y52.255 E91.93968
G0 X65.901 Y52.325
G0 F6000 X65.265 Y52.255
G1 F1800 X35.828 Y22.817 E93.9128
G0 X35.758 Y22.747
G0 F6000 X35.828 Y23.383
G1 F1800 X64.7 Y52.255 E95.84803
G0 X64.77 Y52.325
G0 F6000 X64.134 Y52.255
G1 F1800 X35.828 Y23.948 E97.74534
G0 X35.758 Y23.878
G0 F6000 X35.828 Y24.514
G1 F1800 X63.568 Y52.255 E99.60472
G0 X63.638 Y52.325
G0 F6000 X63.003 Y52.255
G1 F1800 X35.828 Y25.08 E101.4262
G0 X35.758 Y25.01
G0 F6000 X35.828 Y25.646
G1 F1800 X62.437 Y52.255 E103.20974
G0 X62.507 Y52.325
G0 F6000 X61.871 Y52.255
G1 F1800 X35.828 Y26.211 E104.95537
G0 X35.758 Y26.141
G0 F6000 X35.828 Y26.777
G1 F1800 X61.306 Y52.255 E106.6631
G0 X61.376 Y52.325
G0 F6000 X60.74 Y52.255
G1 F1800 X35.828 Y27.343 E108.33289
G0 X35.758 Y27.273
G0 F6000 X35.828 Y27.908
G1 F1800 X60.174 Y52.255 E109.96478
G0 X60.244 Y52.325
G0 F6000 X59.609 Y52.255
G1 F1800 X35.828 Y28.474 E111.55877
G0 X35.758 Y28.404
G0 F6000 X35.828 Y29.04
G1 F1800 X59.043 Y52.255 E113.11481
G0 X59.113 Y52.325
G0 F6000 X58.477 Y52.255
G1 F1800 X35.828 Y29.605 E114.63295
G0 X35.758 Y29.535
G0 F6000 X35.828 Y30.171
G1 F1800 X57.912 Y52.255 E116.11319
G0 X57.982 Y52.325
G0 F6000 X57.346 Y52.255
G1 F1800 X35.828 Y30.737 E117.55549
G0 X35.758 Y30.667
G0 F6000 X35.828 Y31.302
G1 F1800 X56.78 Y52.255 E118.95989
G0 X56.85 Y52.325
G0 F6000 X56.214 Y52.255
G1 F1800 X35.828 Y31.868 E120.32635
G0 X35.758 Y31.798
G0 F6000 X35.828 Y32.434
G1 F1800 X55.649 Y52.255 E121.6549
G0 X55.719 Y52.325
G0 F6000 X55.083 Y52.255
G1 F1800 X35.828 Y32.999 E122.94555
G0 X35.758 Y32.929
G0 F6000 X35.828 Y33.565
G1 F1800 X54.517 Y52.255 E124.19827
G0 X54.587 Y52.325
G0 F6000 X53.952 Y52.255
G1 F1800 X35.828 Y34.131 E125.41308
G0 X35.758 Y34.061
G0 F6000 X35.828 Y34.697
G1 F1800 X53.39 Y52.258 E126.59018
G0 X53.46 Y52.328
G0 F6000 X52.839 Y52.273
G1 F1800 X35.828 Y35.262 E127.73039
G0 X35.758 Y35.192
G0 F6000 X35.828 Y35.828
G1 F1800 X52.288 Y52.288 E128.83366
G0 X52.358 Y52.358
G0 F6000 X51.737 Y52.303
G1 F1800 X35.828 Y36.394 E129.90001
G0 X35.758 Y36.324
G0 F6000 X35.829 Y36.96
G1 F1800 X51.186 Y52.318 E130.92938
G0 X51.256 Y52.388
G0 F6000 X50.635 Y52.332
G1 F1800 X35.829 Y37.526 E131.92179
G0 X35.759 Y37.456
G0 F6000 X35.829 Y38.091
G1 F1800 X50.085 Y52.347 E132.87734
G0 X50.155 Y52.417
G0 F6000 X49.533 Y52.361
G1 F1800 X35.829 Y38.657 E133.79589
G0 X35.759 Y38.587
G0 F6000 X35.829 Y39.223
G1 F1800 X48.982 Y52.376 E134.6775
G0 X49.052 Y52.446
G0 F6000 X48.431 Y52.391
G1 F1800 X35.829 Y39.788 E135.52222
G0 X35.759 Y39.718
G0 F6000 X35.829 Y40.354
G1 F1800 X47.881 Y52.406 E136.33003
G0 X47.951 Y52.476
G0 F6000 X47.33 Y52.421
G1 F1800 X35.829 Y40.92 E137.10092
G0 X35.759 Y40.85
G0 F6000 X35.829 Y41.485
G1 F1800 X46.785 Y52.442 E137.83531
G0 X46.855 Y52.512
G0 F6000 X46.232 Y52.455
G1 F1800 X35.829 Y42.051 E138.53263
G0 X35.759 Y41.981
G0 F6000 X35.829 Y42.617
G1 F1800 X45.667 Y52.455 E139.19205
G0 X45.737 Y52.525
G0 F6000 X45.101 Y52.455
G1 F1800 X35.829 Y43.183 E139.81353
G0 X35.759 Y43.113
G0 F6000 X35.829 Y43.748
G1 F1800 X44.536 Y52.456 E140.39717
G0 X44.606 Y52.526
G0 F6000 X43.97 Y52.456
G1 F1800 X35.829 Y44.314 E140.94288
G0 X35.759 Y44.244
G0 F6000 X35.829 Y44.88
G1 F1800 X43.405 Y52.456 E141.45068
G0 X43.475 Y52.526
G0 F6000 X42.84 Y52.456
G1 F1800 X35.829 Y45.445 E141.92061
G0 X35.759 Y45.375
G0 F6000 X35.829 Y46.011
G1 F1800 X42.274 Y52.456 E142.3526
G0 X42.344 Y52.526
G0 F6000 X41.708 Y52.456
G1 F1800 X35.829 Y46.577 E142.74666
G0 X35.759 Y46.507
G0 F6000 X35.829 Y47.142
G1 F1800 X41.143 Y52.457 E143.10287
G0 X41.213 Y52.527
G0 F6000 X40.578 Y52.457
G1 F1800 X35.829 Y47.708 E143.42119
G0 X35.759 Y47.638
G0 F6000 X35.829 Y48.274
G1 F1800 X40.012 Y52.457 E143.70156
G0 X40.082 Y52.527
G0 F6000 X39.446 Y52.457
G1 F1800 X35.829 Y48.839 E143.94404
G0 X35.759 Y48.769
G0 F6000 X35.829 Y49.405
G1 F1800 X38.881 Y52.458 E144.14864
G0 X38.951 Y52.528
G0 F6000 X38.315 Y52.458
G1 F1800 X35.829 Y49.971 E144.3153
G0 X35.759 Y49.901
G0 F6000 X35.829 Y50.536
G1 F1800 X37.75 Y52.458 E144.4441
G0 X37.82 Y52.528
G0 F6000 X37.185 Y52.458
G1 F1800 X35.829 Y51.102 E144.53499
G0 X35.759 Y51.032
G0 F6000 X35.829 Y51.668
G1 F1800 X36.619 Y52.458 E144.58794
G0 X36.689 Y52.528
G0 F6000 X36.053 Y52.458
G1 F1800 X35.829 Y52.233 E144.60299
G0 F6000 X36.05 Y52.234
G1 F3600 E138.60299
G0 F6000 X35.678 Y52.612
G0 X35.679 Y53.904
G0 X35.678 Y65.097
G0 X35.678 Y66.402
G0 X35.72 Y66.432
G0 X35.65 Y66.362
;TYPE:WALL-INNER
G1 F3600 E144.60299
G1 F1800 X60.65 Y66.362 E145.78788
G1 X60.65 Y66.566 E145.79755
G1 X68.25 Y66.566 E146.15775
G1 X68.25 Y66.661 E146.16226
G1 X84.351 Y66.661 E146.92537
G1 X84.351 Y99.163 E148.46583
G1 X68.648 Y99.163 E149.21008
G1 X68.648 Y99.062 E149.21487
G1 X35.65 Y99.062 E150.77883
G1 X35.65 Y66.362 E152.32867
G0 F6000 X35.25 Y65.962
;TYPE:WALL-OUTER
G1 F1800 X61.05 Y65.962 E153.55148
G1 X61.05 Y66.166 E153.56115
G1 X68.65 Y66.166 E153.92136
G1 X68.65 Y66.261 E153.92586
G1 X84.751 Y66.261 E154.68898
G1 X84.751 Y99.563 E156.26735
G1 X68.248 Y99.563 E157.04952
G1 X68.248 Y99.462 E157.05431
G1 X35.25 Y99.462 E158.61827
G1 X35.25 Y65.962 E160.20603
G0 F6000 X35.72 Y66.432
G0 X35.994 Y66.541
;TYPE:SKIN
G1 F1800 X68.334 Y98.881 E162.3737
G0 X68.404 Y98.951
G0 F6000 X67.768 Y98.881
G1 F1800 X35.829 Y66.942 E164.5145
G0 X35.759 Y66.872
G0 F6000 X35.829 Y67.508
G1 F1800 X67.202 Y98.881 E166.61735
G0 X67.272 Y98.951
G0 F6000 X66.637 Y98.881
G1 F1800 X35.829 Y68.073 E168.68234
G0 X35.759 Y68.003
G0 F6000 X35.829 Y68.639
G1 F1800 X66.071 Y98.881 E170.70939
G0 X66.141 Y98.951
G0 F6000 X65.505 Y98.881
G1 F1800 X35.829 Y69.205 E172.6985
G0 X35.759 Y69.135
G0 F6000 X35.829 Y69.77
G1 F1800 X64.939 Y98.881 E174.64971
G0 X65.009 Y98.951
G0 F6000 X64.374 Y98.881
G1 F1800 X35.829 Y70.336 E176.56301
G0 X35.759 Y70.266
G0 F6000 X35.829 Y70.902
G1 F1800 X63.808 Y98.881 E178.43838
G0 X63.878 Y98.951
G0 F6000 X63.242 Y98.881
G1 F1800 X35.829 Y71.467 E180.27584
G0 X35.759 Y71.397
G0 F6000 X35.829 Y72.033
G1 F1800 X62.677 Y98.881 E182.0754
G0 X62.747 Y98.951
G0 F6000 X62.111 Y98.881
G1 F1800 X35.829 Y72.599 E183.83702
G0 X35.759 Y72.529
G0 F6000 X35.829 Y73.165
G1 F1800 X61.545 Y98.881 E185.5607
G0 X61.615 Y98.951
G0 F6000 X60.98 Y98.881
G1 F1800 X35.829 Y73.73 E187.24652
G0 X35.759 Y73.66
G0 F6000 X35.829 Y74.296
G1 F1800 X60.414 Y98.881 E188.89439
G0 X60.484 Y98.951
G0 F6000 X59.848 Y98.881
G1 F1800 X35.829 Y74.862 E190.50433
G0 X35.759 Y74.792
G0 F6000 X35.829 Y75.427
G1 F1800 X59.283 Y98.881 E192.07639
G0 X59.353 Y98.951
G0 F6000 X58.717 Y98.881
G1 F1800 X35.829 Y75.993 E193.61052
G0 X35.759 Y75.923
G0 F6000 X35.829 Y76.559
G1 F1800 X58.151 Y98.881 E195.10671
G0 X58.221 Y98.951
G0 F6000 X57.586 Y98.881
G1 F1800 X35.829 Y77.124 E196.56503
G0 X35.759 Y77.054
G0 F6000 X35.829 Y77.69
G1 F1800 X57.02 Y98.881 E197.98541
G0 X57.09 Y98.951
G0 F6000 X56.454 Y98.881
G1 F1800 X35.829 Y78.256 E199.36786
G0 X35.759 Y78.186
G0 F6000 X35.829 Y78.821
G1 F1800 X55.889 Y98.881 E200.71243
G0 X55.959 Y98.951
G0 F6000 X55.323 Y98.881
G1 F1800 X35.829 Y79.387 E202.01907
G0 X35.759 Y79.317
G0 F6000 X35.829 Y79.953
G1 F1800 X54.757 Y98.881 E203.28777
G0 X54.827 Y98.951
G0 F6000 X54.191 Y98.881
G1 F1800 X35.829 Y80.518 E204.51856
G0 X35.759 Y80.448
G0 F6000 X35.829 Y81.084
G1 F1800 X53.626 Y98.881 E205.71145
G0 X53.696 Y98.951
G0 F6000 X53.06 Y98.881
G1 F1800 X35.829 Y81.65 E206.86641
G0 X35.759 Y81.58
G0 F6000 X35.829 Y82.216
G1 F1800 X52.494 Y98.881 E207.98342
G0 X52.564 Y98.951
G0 F6000 X51.929 Y98.881
G1 F1800 X35.829 Y82.781 E209.06257
G0 X35.759 Y82.711
G0 F6000 X35.829 Y83.347
G1 F1800 X51.363 Y98.881 E210.10378
G0 X51.433 Y98.951
G0 F6000 X50.797 Y98.881
G1 F1800 X35.829 Y83.913 E211.10704
G0 X35.759 Y83.843
G0 F6000 X35.829 Y84.478
G1 F1800 X50.232 Y98.881 E212.07244
G0 X50.302 Y98.951
G0 F6000 X49.666 Y98.881
G1 F1800 X35.829 Y85.044 E212.99991
G0 X35.759 Y84.974
G0 F6000 X35.829 Y85.61
G1 F1800 X49.1 Y98.881 E213.88943
G0 X49.17 Y98.951
G0 F6000 X48.535 Y98.881
G1 F1800 X35.829 Y86.175 E214.74108
G0 X35.759 Y86.105
G0 F6000 X35.829 Y86.741
G1 F1800 X47.969 Y98.881 E215.5548
G0 X48.039 Y98.951
G0 F6000 X47.403 Y98.881
